tracker_LUT/LUT/Avalanche.cube
TITLE "Generated by Resolve"
LUT_3D_SIZE 5
0.0541543 0.0711986 0.0754711
0.0597696 0.0739147 0.0775921
0.295262 0.120607 0.0866102
0.753613 0.191684 0.151629
0.880766 0.217426 0.160678
0.0581826 0.0959945 0.0845045
0.0825666 0.113024 0.107652
0.720562 0.188312 0.145006
0.883482 0.218967 0.159854
0.922866 0.243915 0.150072
0.0687266 0.453162 0.0222171
0.0951553 0.476921 0.0365606
0.901137 0.542428 0.552941
1 0.558968 0.541329
1 0.610925 0.605127
0.167681 0.840085 0
0.159838 0.839796 0
1 0.754528 0.588602
1 0.770153 0.779324
1 0.770916 0.7832
0.165469 0.840009 0
0.157321 0.839689 0
1 0.756497 0.610712
1 0.7841 0.787625
1 0.780148 0.789059
0.0549783 0.0749065 0.080766
0.0590677 0.0764782 0.082826
0.331884 0.130175 0.0904097
0.798993 0.200153 0.155657
0.885542 0.217868 0.161746
0.0573739 0.102464 0.107988
0.082475 0.128496 0.13695
0.782345 0.198047 0.152865
0.883284 0.217929 0.160922
0.932723 0.240497 0.154864
0.0757916 0.460456 0.0261845
0.100053 0.480674 0.0391241
0.909285 0.550347 0.560662
1 0.558434 0.541222
1 0.603815 0.596277
0.166384 0.84004 0
0.156069 0.839628 0
1 0.743221 0.568017
1 0.757336 0.768063
1 0.757275 0.772854
0.147051 0.843015 0
0.154086 0.839521 0
1 0.743221 0.573602
1 0.7785 0.780774
1 0.77319 0.783368
0.0509041 0.14963 0.180926
0.0525673 0.156069 0.189563
0.427543 0.224857 0.246387
0.876371 0.288899 0.240436
0.928145 0.33962 0.338445
0.0274968 0.330648 0.417014
0.0105287 0.420447 0.542885
0.806745 0.353765 0.366003
0.936706 0.420615 0.534081
0.966766 0.469932 0.695552
0 0.561059 0.631189
0 0.603067 0.683085
0.516609 0.63975 0.734035
0.927733 0.677211 0.691981
0.925231 0.712703 0.731426
0 0.880552 0.869169
0 0.874678 0.861402
0.543511 0.885634 0.655116
0.956695 0.828138 0.83444
0.970123 0.829984 0.835081
0 0.844114 0.882582
0 0.859907 0.869627
0.558526 0.900191 0.678187
0.962417 0.863386 0.857939
0.970932 0.867384 0.871748
0.0445411 0.202197 0.248081
0.0426642 0.223972 0.274815
0.485298 0.33312 0.345617
0.895201 0.401495 0.479591
0.94725 0.432364 0.595346
0.0109712 0.418128 0.538918
0.0103609 0.42118 0.545159
0.804898 0.417029 0.51107
0.95642 0.444984 0.636927
0.974685 0.478843 0.73518
0 0.606683 0.763699
0 0.632853 0.787839
0.378195 0.646845 0.841627
0.959823 0.686488 0.875288
0.953658 0.715938 0.871321
0 0.803357 0.902358
0 0.802853 0.902083
0.175174 0.825223 0.89456
0.880873 0.856413 0.856092
0.923232 0.864179 0.851652
0 0.803235 0.902281
0 0.802869 0.902068
0.198734 0.846387 0.89456
0.905699 0.887678 0.858473
0.93225 0.89276 0.894713
0.0445411 0.202197 0.248081
0.0425269 0.225422 0.276585
0.517281 0.366278 0.374868
0.919982 0.427436 0.566781
0.94725 0.432364 0.595346
0.0106813 0.419409 0.543313
0.00982681 0.423636 0.552651
0.840879 0.424292 0.549584
0.963577 0.456428 0.672526
0.978851 0.490364 0.762936
0 0.625376 0.781292
0 0.649622 0.802609
0.428458 0.662715 0.849912
0.957336 0.697902 0.873762
0.952407 0.721889 0.870542
0 0.803342 0.902342
0 0.802853 0.902083
0.178454 0.825269 0.896193
0.864469 0.853361 0.859648
0.910185 0.861921 0.863294
0 0.803235 0.902281
0 0.802869 0.902068
0.177783 0.844999 0.896605
0.871977 0.892607 0.868757
0.928893 0.896956 0.89868
