tracker_LUT/LUT/Avalanche.cube
TITLE "Generated by Resolve"
LUT_3D_SIZE 33
0.0541543 0.0711986 0.0754711
0.0541543 0.0711986 0.0754711
0.0541543 0.0711986 0.0754711
0.0541543 0.0711986 0.0754711
0.0541543 0.0711986 0.0754711
0.0541543 0.0711986 0.0754711
0.0543069 0.0712749 0.0755322
0.0563058 0.0722362 0.0763104
0.0597696 0.0739147 0.0775921
0.0652628 0.0765698 0.079469
0.0740215 0.0802319 0.0817426
0.0862745 0.0846265 0.0842756
0.101762 0.0896315 0.0871443
0.122591 0.0954299 0.0898604
0.162356 0.103685 0.0916762
0.222705 0.11191 0.0894789
0.295262 0.120607 0.0866102
0.367041 0.13521 0.0940108
0.44445 0.147448 0.104875
0.520928 0.157473 0.117372
0.585382 0.165408 0.128756
0.637766 0.172519 0.13756
0.681025 0.178866 0.144137
0.719417 0.185565 0.148257
0.753613 0.191684 0.151629
0.784833 0.197436 0.154498
0.81593 0.203616 0.156786
0.845136 0.209567 0.158816
0.863371 0.213565 0.159777
0.880766 0.217426 0.160678
0.880766 0.217426 0.160678
0.880766 0.217426 0.160678
0.880766 0.217426 0.160678
0.0541543 0.0711986 0.0754711
0.0541543 0.0711986 0.0754711
0.0541543 0.0711986 0.0754711
0.0541543 0.0711986 0.0754711
0.0541543 0.0711986 0.0754711
0.0541543 0.0711986 0.0754711
0.0546426 0.0714427 0.0756695
0.0569467 0.0725414 0.0765545
0.0606851 0.0743572 0.0779278
0.0666514 0.0771801 0.0798657
0.0750134 0.0806134 0.0819562
0.0862135 0.084596 0.0842603
0.101762 0.0896315 0.0871443
0.122698 0.0954604 0.0898756
0.163256 0.103838 0.0916762
0.224109 0.112078 0.0894026
0.297749 0.121126 0.0867933
0.370504 0.135836 0.0944686
0.450904 0.148348 0.105898
0.527855 0.158312 0.118593
0.593362 0.166476 0.130159
0.646601 0.173831 0.138903
0.691386 0.180652 0.145281
0.730877 0.187549 0.149462
0.767086 0.194171 0.152865
0.799969 0.200397 0.155673
0.832288 0.206943 0.157916
0.857008 0.212161 0.159457
0.875563 0.216266 0.160418
0.880766 0.217426 0.160678
0.880766 0.217426 0.160678
0.880766 0.217426 0.160678
0.880766 0.217426 0.160678
0.0541543 0.0711986 0.0754711
0.0541543 0.0711986 0.0754711
0.0541543 0.0711986 0.0754711
0.0541543 0.0711986 0.0754711
0.0541543 0.0711986 0.0754711
0.0541543 0.0711986 0.0754711
0.0552529 0.0717479 0.0759136
0.0576944 0.0728923 0.0768292
0.0619211 0.0749676 0.0783551
0.0682383 0.0778668 0.0803082
0.0770733 0.0814069 0.0823987
0.0892042 0.0856031 0.0848402
0.106477 0.0910353 0.0878614
0.123293 0.095613 0.0899367
0.16492 0.104128 0.0916762
0.22707 0.112398 0.0892195
0.302037 0.122026 0.087129
0.376486 0.136919 0.0952468
0.459785 0.149554 0.107301
0.539223 0.159686 0.120623
0.605478 0.168078 0.132235
0.659571 0.175738 0.140871
0.706249 0.183261 0.146853
0.747189 0.190494 0.151034
0.784619 0.197406 0.154467
0.820066 0.204471 0.157061
0.85156 0.210956 0.159197
0.871412 0.215351 0.160204
0.880766 0.217426 0.160678
0.880766 0.217426 0.160678
0.880766 0.217426 0.160678
0.880766 0.217426 0.160678
0.880766 0.217426 0.160678
0.0541543 0.0711986 0.0754711
0.0541543 0.0711986 0.0754711
0.0541543 0.0711986 0.0754711
0.0541543 0.0711986 0.0754711
0.0541848 0.0712139 0.0754864
0.0543679 0.0713054 0.0755627
0.0559091 0.0720531 0.0761578
0.058732 0.0733959 0.0772106
0.0634165 0.0757153 0.0788739
0.0701762 0.0786908 0.080827
0.0816205 0.0831159 0.0832532
0.0966964 0.0880293 0.0862287
0.118257 0.0943313 0.0894331
0.150088 0.101381 0.0914015
0.19147 0.107897 0.090898
0.242939 0.114427 0.0886854
0.307805 0.123262 0.087602
0.384634 0.138354 0.0962997
0.471611 0.151156 0.109178
0.55314 0.161334 0.12311
0.620829 0.170092 0.134874
0.675608 0.178073 0.143328
0.723949 0.186343 0.14873
0.766873 0.194125 0.152834
0.806531 0.201724 0.15613
0.844038 0.209354 0.15874
0.869215 0.214862 0.160098
0.880766 0.217426 0.160678
0.880766 0.217426 0.160678
0.880766 0.217426 0.160678
0.880766 0.217426 0.160678
0.880766 0.217426 0.160678
0.880766 0.217426 0.160678
0.0541848 0.0713512 0.0755474
0.0542153 0.0714427 0.0755932
0.0542306 0.0715343 0.0756542
0.0542611 0.0716411 0.0757
0.0542916 0.0717174 0.0757458
0.0548562 0.0719615 0.0760357
0.056672 0.0726177 0.0766461
0.060029 0.074052 0.0776989
0.0657054 0.0769207 0.0797284
0.0750286 0.0809644 0.0821241
0.0895399 0.0859388 0.0851911
0.111925 0.0925917 0.0886244
0.144717 0.100343 0.0912642
0.189487 0.107713 0.0910201
0.246418 0.114824 0.0885176
0.311223 0.124132 0.0880293
0.380255 0.137331 0.0959793
0.45951 0.149416 0.107424
0.54049 0.160067 0.120867
0.616251 0.169757 0.133883
0.682277 0.179721 0.143328
0.74374 0.190082 0.150454
0.802853 0.20119 0.155566
0.860243 0.213046 0.159396
0.879652 0.217182 0.160632
0.880766 0.217426 0.160678
0.880766 0.217426 0.160678
0.880766 0.217426 0.160678
0.880766 0.217426 0.160678
0.880766 0.217426 0.160678
0.880766 0.217426 0.160678
0.880766 0.217426 0.160678
0.880766 0.217426 0.160678
0.0543374 0.0719463 0.0758526
0.0544289 0.0723888 0.0760815
0.054551 0.0728923 0.0763409
0.0546731 0.0734417 0.0766155
0.0548104 0.0740673 0.0769207
0.0563363 0.0751812 0.078233
0.0586557 0.076524 0.0800183
0.062211 0.078294 0.0813306
0.0687419 0.0809033 0.082475
0.0812238 0.085359 0.0842908
0.102052 0.0907759 0.0883955
0.133562 0.0983597 0.0910658
0.18143 0.10663 0.0913405
0.243183 0.11426 0.0884565
0.312886 0.124453 0.0883192
0.388998 0.13901 0.0969253
0.481315 0.152422 0.110796
0.573175 0.164065 0.126574
0.655421 0.175326 0.140002
0.727993 0.187259 0.148898
0.795956 0.199832 0.155047
0.852277 0.211276 0.159014
0.879057 0.21706 0.160586
0.880766 0.217426 0.160678
0.880766 0.217426 0.160678
0.880766 0.217426 0.160678
0.880766 0.217426 0.160678
0.880766 0.217426 0.160678
0.880766 0.217426 0.160678
0.880766 0.217426 0.160678
0.880766 0.217426 0.160678
0.880766 0.217426 0.160678
0.880766 0.217426 0.160678
0.0551614 0.075639 0.0776837
0.0553597 0.0766155 0.0781262
0.0555886 0.0776226 0.078584
0.055848 0.0786908 0.079057
0.056611 0.0798962 0.0800336
0.0584878 0.0811933 0.0819562
0.0614176 0.0827497 0.0844587
0.065507 0.0849012 0.0868391
0.0721141 0.0874952 0.0879683
0.0872663 0.0920729 0.0878767
0.117159 0.0974746 0.0938735
0.161044 0.104555 0.0928359
0.225742 0.112337 0.0894942
0.3019 0.122377 0.0876783
0.380819 0.137652 0.0958267
0.480446 0.1523 0.110613
0.584909 0.165393 0.128634
0.675929 0.178256 0.14316
0.756527 0.192233 0.151904
0.831388 0.206775 0.15787
0.877287 0.216663 0.16051
0.880766 0.217426 0.160678
0.880766 0.217426 0.160678
0.880766 0.217426 0.160678
0.880766 0.217426 0.160678
0.880766 0.217426 0.160678
0.880766 0.217426 0.160678
0.880766 0.217426 0.160678
0.880766 0.217426 0.160678
0.880766 0.217426 0.160678
0.880766 0.217426 0.160678
0.880766 0.217426 0.160678
0.880766 0.217426 0.160678
0.056733 0.0828412 0.080705
0.0570077 0.0841688 0.0811933
0.0573281 0.0858015 0.0817731
0.0575723 0.0875715 0.0823377
0.0585336 0.0894331 0.0834669
0.0607767 0.0911879 0.0855268
0.0648661 0.0928359 0.0892042
0.06981 0.0947738 0.0939345
0.0765545 0.0973983 0.096849
0.092256 0.101579 0.0951247
0.133303 0.105196 0.102495
0.189899 0.112993 0.0965744
0.27187 0.118639 0.0879683
0.355016 0.132876 0.0925002
0.453407 0.148608 0.106279
0.563684 0.162936 0.124651
0.662593 0.176196 0.141329
0.752407 0.19147 0.151507
0.83473 0.207492 0.158038
0.879133 0.217075 0.160601
0.880766 0.217426 0.160678
0.880766 0.217426 0.160678
0.880766 0.217426 0.160678
0.880766 0.217426 0.160678
0.880766 0.217426 0.160678
0.880766 0.217426 0.160678
0.880766 0.217426 0.160678
0.880766 0.217426 0.160678
0.880766 0.217426 0.160678
0.881697 0.21796 0.160388
0.883131 0.218769 0.159945
0.884337 0.219455 0.159594
0.887556 0.221393 0.158633
0.0581826 0.0959945 0.0845045
0.0582132 0.0973373 0.0847944
0.0582589 0.100008 0.0852979
0.0582284 0.102754 0.0857404
0.0583047 0.10544 0.0861677
0.0592813 0.107973 0.0870832
0.0641794 0.110826 0.0904097
0.0727398 0.11165 0.0985275
0.0825666 0.113024 0.107652
0.0966049 0.116625 0.109209
0.145403 0.11516 0.116197
0.215427 0.123354 0.105898
0.308736 0.12961 0.0916762
0.401755 0.144366 0.0979171
0.513237 0.159457 0.113878
0.623835 0.173571 0.131807
0.720562 0.188312 0.145006
0.807919 0.203616 0.154253
0.872679 0.216434 0.15938
0.882597 0.218463 0.160113
0.8822 0.218235 0.160235
0.881254 0.2177 0.160525
0.880766 0.217426 0.160678
0.881788 0.218006 0.160357
0.883482 0.218967 0.159854
0.88513 0.219928 0.15935
0.887434 0.221271 0.158663
0.892424 0.224292 0.157244
0.897566 0.227344 0.155871
0.902754 0.230518 0.154543
0.909529 0.235157 0.152819
0.916213 0.239551 0.151354
0.922866 0.243915 0.150072
0.0573587 0.117357 0.0865949
0.057145 0.119692 0.0866102
0.0568093 0.122683 0.0865187
0.0562448 0.127031 0.0862745
0.0556497 0.131151 0.0859388
0.0550698 0.134951 0.0855879
0.0560616 0.139055 0.0862745
0.0618753 0.143465 0.0903487
0.0790875 0.143481 0.103807
0.103441 0.143206 0.124743
0.147585 0.141482 0.12517
0.228214 0.136995 0.126314
0.338842 0.144762 0.108186
0.441108 0.163043 0.103914
0.552682 0.176318 0.113771
0.663844 0.190143 0.128313
0.760723 0.204761 0.139849
0.846006 0.220905 0.147967
0.902632 0.232837 0.152682
0.905852 0.232593 0.15375
0.90454 0.231891 0.154025
0.904387 0.231754 0.154086
0.905318 0.23212 0.153918
0.907256 0.233387 0.153445
0.912779 0.237232 0.152102
0.919264 0.241596 0.150729
0.926329 0.24625 0.149462
0.9346 0.253193 0.147951
0.943114 0.259861 0.146975
0.951522 0.265995 0.146471
0.961349 0.27425 0.146365
0.971481 0.282109 0.147143
0.982651 0.289921 0.148943
0.0527504 0.149386 0.0836652
0.0521096 0.153262 0.0830091
0.0514382 0.157336 0.0822766
0.0506905 0.161837 0.0814221
0.049897 0.166735 0.0804608
0.0491951 0.171405 0.0794995
0.0486915 0.175158 0.0787213
0.0484169 0.179782 0.0779889
0.0550851 0.187762 0.0791485
0.0919966 0.187457 0.100389
0.142504 0.187976 0.140475
0.232197 0.171054 0.17435
0.339574 0.161746 0.137682
0.465553 0.174319 0.118486
0.57496 0.196719 0.116396
0.69044 0.217609 0.123354
0.791608 0.235752 0.131273
0.874372 0.252338 0.138552
0.94139 0.268482 0.144594
0.958007 0.271489 0.146304
0.957122 0.271031 0.146319
0.957916 0.271717 0.146319
0.960311 0.273381 0.146395
0.963729 0.276005 0.146502
0.971496 0.282246 0.147158
0.982223 0.289952 0.148928
0.994171 0.297612 0.151781
1 0.304936 0.155718
1 0.312154 0.161074
1 0.31902 0.167849
1 0.324346 0.174472
1 0.328969 0.181415
1 0.333364 0.189288
0.0471046 0.188235 0.0759289
0.0466011 0.193072 0.0749371
0.0461128 0.198199 0.0739147
0.045716 0.203387 0.0729534
0.0454108 0.208667 0.0720073
0.0451209 0.213581 0.0711376
0.044892 0.217502 0.0704356
0.0447242 0.22005 0.0699931
0.044419 0.224918 0.0677806
0.0568399 0.240803 0.0603647
0.143999 0.239002 0.0906386
0.273396 0.223331 0.186664
0.332616 0.216052 0.214633
0.452796 0.199771 0.161852
0.589303 0.206729 0.133425
0.705287 0.23238 0.131991
0.806973 0.256458 0.138964
0.897459 0.280644 0.149279
0.975647 0.303044 0.161013
1 0.321462 0.172503
1 0.324102 0.174151
1 0.324376 0.174487
1 0.32604 0.17673
1 0.327825 0.1794
1 0.329839 0.182849
1 0.333486 0.189517
1 0.337301 0.197528
1 0.340475 0.204227
1 0.343359 0.212116
1 0.346136 0.220432
1 0.348577 0.228977
1 0.350729 0.237949
1 0.352697 0.247013
0.0439765 0.231083 0.0680095
0.0435187 0.237247 0.066865
0.0429999 0.243549 0.0657969
0.0424811 0.249638 0.0650034
0.0419318 0.255818 0.0641794
0.0414588 0.260929 0.0634623
0.0411078 0.264576 0.0629129
0.0408789 0.267048 0.0626841
0.0408484 0.267262 0.0626993
0.0404822 0.277745 0.0529488
0.100877 0.301701 0.0347753
0.325856 0.264103 0.143023
0.415 0.27538 0.267979
0.451057 0.277821 0.27422
0.568811 0.258076 0.213062
0.724315 0.243778 0.171084
0.820844 0.264485 0.161685
0.906889 0.287312 0.169009
0.987793 0.309392 0.183536
1 0.329656 0.203189
1 0.345678 0.224979
1 0.348074 0.228855
1 0.348638 0.230838
1 0.349645 0.233814
1 0.350896 0.237995
1 0.352926 0.246265
1 0.355016 0.255436
1 0.357946 0.264622
1 0.361181 0.274174
1 0.364279 0.283452
1 0.367468 0.293385
1 0.370611 0.303395
1 0.373816 0.31371
0.0396582 0.278767 0.0615854
0.0388495 0.286076 0.0608988
0.037995 0.293507 0.0601816
0.0370336 0.301656 0.0590829
0.0361028 0.309163 0.0580453
0.0354162 0.314458 0.057435
0.0349737 0.317815 0.0573129
0.0348363 0.319692 0.0564736
0.0349432 0.318669 0.0568093
0.0351568 0.317464 0.0553902
0.0854353 0.346944 0.0239414
0.311208 0.325658 0.0641031
0.510384 0.313008 0.266499
0.555459 0.339681 0.345602
0.584756 0.344259 0.340749
0.682445 0.326619 0.281147
0.827176 0.301518 0.236667
0.937972 0.29781 0.227939
1 0.313726 0.231647
1 0.330892 0.246281
1 0.349004 0.267582
1 0.36437 0.287739
1 0.367468 0.293309
1 0.36875 0.297215
1 0.370474 0.302907
1 0.37322 0.311833
1 0.376425 0.322087
1 0.37966 0.332815
1 0.383108 0.344305
1 0.386435 0.355276
1 0.392111 0.366186
1 0.401846 0.376638
1 0.411368 0.387091
0.0330053 0.33669 0.0503853
0.0319524 0.347433 0.0458228
0.0308995 0.357763 0.0413519
0.0321355 0.367697 0.0365759
0.0334783 0.376913 0.0320287
0.0341497 0.382116 0.0293889
0.0342565 0.385229 0.0278172
0.0352331 0.385885 0.0281071
0.0348516 0.384131 0.0289921
0.0335088 0.380377 0.0304875
0.0818952 0.391409 0.0162661
0.266026 0.385 0.0194247
0.53547 0.342016 0.215061
0.675319 0.376211 0.361593
0.686397 0.40708 0.418982
0.708186 0.410498 0.411917
0.775631 0.40238 0.371603
0.87306 0.383627 0.330846
0.973022 0.373312 0.3187
1 0.371633 0.324132
1 0.37789 0.335912
1 0.386175 0.350378
1 0.392767 0.36463
1 0.393393 0.371817
1 0.401038 0.377874
1 0.409949 0.386282
1 0.420874 0.397543
1 0.432105 0.408591
1 0.44567 0.420981
1 0.458366 0.432502
1 0.470726 0.443702
1 0.481621 0.455055
1 0.491615 0.465888
0.0420081 0.403433 0.0208133
0.0471199 0.412253 0.0180056
0.0521859 0.420676 0.0152132
0.0549172 0.42826 0.0160678
0.0574197 0.435157 0.0168612
0.0580758 0.439246 0.0170596
0.0592813 0.441245 0.0172885
0.0605783 0.441047 0.018204
0.0603342 0.439429 0.0182498
0.0586404 0.435935 0.0175174
0.0789349 0.435523 0.0124208
0.224063 0.433478 0.00674449
0.508186 0.387503 0.13193
0.722988 0.399695 0.32929
0.798215 0.446571 0.437354
0.804349 0.475853 0.487999
0.817014 0.479118 0.491218
0.857282 0.479438 0.471061
0.915999 0.473152 0.44918
0.976608 0.4663 0.432914
1 0.465492 0.430701
1 0.467842 0.435065
1 0.47306 0.443885
1 0.479454 0.452171
1 0.486473 0.460319
1 0.493996 0.468528
1 0.505287 0.480827
1 0.515938 0.492409
1 0.525567 0.503304
1 0.534737 0.513756
1 0.543053 0.523262
1 0.551415 0.532799
1 0.558755 0.54139
0.0687266 0.453162 0.0222171
0.0745708 0.458961 0.025452
0.0801862 0.464454 0.0285496
0.0863355 0.469581 0.0318456
0.0919203 0.474235 0.0348363
0.0949416 0.476844 0.0364843
0.0964218 0.478279 0.0373236
0.0966659 0.478294 0.0374151
0.0951553 0.476921 0.0365606
0.0920119 0.474296 0.0348974
0.094316 0.471534 0.0311742
0.200412 0.474479 0.0178988
0.458991 0.439155 0.078584
0.706477 0.424994 0.275441
0.869245 0.472435 0.424491
0.88867 0.521508 0.510826
0.901137 0.542428 0.552941
0.910414 0.543404 0.562264
0.929686 0.548867 0.558099
0.959686 0.551202 0.550118
0.995621 0.550729 0.54197
1 0.549828 0.535714
1 0.551385 0.534813
1 0.554314 0.536797
1 0.558968 0.541329
1 0.563989 0.547585
1 0.571237 0.556237
1 0.579202 0.565728
1 0.586892 0.574899
1 0.593423 0.58291
1 0.599557 0.590723
1 0.605478 0.598245
1 0.610925 0.605127
0.1093 0.487465 0.043946
0.116686 0.4925 0.0476997
0.123613 0.497185 0.0512245
0.129839 0.5028 0.0537423
0.135225 0.508385 0.0555886
0.13846 0.511269 0.0568704
0.140597 0.511925 0.0581979
0.141833 0.510658 0.059617
0.140093 0.509987 0.0585641
0.13637 0.507454 0.0568093
0.130632 0.50312 0.0542306
0.209873 0.506203 0.0397192
0.444724 0.479026 0.0713359
0.706783 0.452918 0.243107
0.887602 0.49276 0.400549
0.961028 0.549706 0.515419
0.952575 0.592767 0.581781
0.971527 0.601709 0.610788
0.986908 0.599268 0.619959
0.996017 0.604456 0.623163
1 0.609674 0.623087
1 0.612421 0.621042
1 0.613626 0.617975
1 0.614572 0.615488
1 0.616236 0.614771
1 0.61857 0.615824
1 0.622934 0.620203
1 0.628809 0.627924
1 0.634577 0.635431
1 0.640101 0.642588
1 0.645106 0.649027
1 0.649744 0.654948
1 0.654154 0.660548
0.147951 0.52958 0.0564584
0.147051 0.548058 0.0479591
0.146242 0.565499 0.0399634
0.145464 0.583429 0.0317998
0.143771 0.601953 0.0202792
0.143038 0.612085 0.0134432
0.142077 0.618524 0.00946059
0.140978 0.620844 0.00856031
0.14023 0.617075 0.0117494
0.141085 0.606149 0.0188296
0.144976 0.585412 0.0305943
0.214633 0.578393 0.0229038
0.44123 0.551659 0.037705
0.731243 0.50663 0.191714
0.915908 0.52636 0.364431
0.994568 0.577554 0.506218
0.998077 0.62562 0.597742
1 0.650935 0.639704
1 0.648676 0.657053
1 0.643931 0.6636
1 0.646708 0.66804
1 0.65098 0.670558
1 0.654749 0.671794
1 0.658076 0.672358
1 0.66041 0.673045
1 0.661845 0.672587
1 0.66421 0.673777
1 0.668452 0.679286
1 0.67248 0.684443
1 0.676417 0.689418
1 0.679988 0.693538
1 0.682948 0.697185
1 0.685344 0.700313
0.138598 0.652674 0
0.140826 0.670054 0
0.149615 0.677882 0
0.158541 0.685542 0
0.164614 0.691554 0
0.162264 0.700648 0
0.160143 0.706294 0
0.159945 0.707027 0
0.160616 0.702937 0
0.161517 0.694362 0
0.156741 0.683955 0
0.221576 0.676997 0
0.453452 0.648951 0
0.779507 0.58703 0.0993973
0.962966 0.575662 0.309224
1 0.610788 0.485527
1 0.65539 0.605447
1 0.683452 0.660136
1 0.691005 0.682826
1 0.681056 0.690745
1 0.67747 0.696162
1 0.679637 0.700938
1 0.682643 0.70399
1 0.685649 0.706142
1 0.688106 0.707393
1 0.690455 0.708568
1 0.692882 0.710002
1 0.695537 0.713207
1 0.698131 0.71635
1 0.700557 0.719249
1 0.702907 0.722026
1 0.704723 0.724224
1 0.706386 0.726223
0.165469 0.72224 0
0.163272 0.738933 0
0.160327 0.755337 0
0.154284 0.773083 0
0.150118 0.784161 0
0.147433 0.792691 0
0.146502 0.796521 0
0.148806 0.792752 0
0.151049 0.786313 0
0.153948 0.776333 0
0.158434 0.759899 0
0.235187 0.741344 0
0.464744 0.70869 0
0.801663 0.64329 0.0456855
1 0.625071 0.254261
1 0.646586 0.460761
1 0.680781 0.603189
1 0.707469 0.673091
1 0.720653 0.701625
1 0.714534 0.711894
1 0.705867 0.716823
1 0.702983 0.720821
1 0.70486 0.725353
1 0.706981 0.728496
1 0.709072 0.730724
1 0.711299 0.732738
1 0.713603 0.734646
1 0.715572 0.736675
1 0.717494 0.73875
1 0.719432 0.740795
1 0.72105 0.742504
1 0.72253 0.744015
1 0.723842 0.745373
0.140536 0.820493 0
0.142458 0.826246 0
0.144274 0.831678 0
0.145144 0.836439 0
0.146395 0.837705 0
0.147951 0.836652 0
0.148562 0.835859 0
0.148394 0.83534 0
0.147234 0.834531 0
0.145205 0.832593 0
0.143481 0.827344 0
0.226383 0.815061 0
0.455024 0.78294 0
0.797009 0.708949 0.0164645
1 0.669642 0.217487
1 0.680919 0.440467
1 0.703502 0.597742
1 0.726894 0.680461
1 0.742061 0.715587
1 0.74165 0.729702
1 0.731991 0.734127
1 0.726116 0.737499
1 0.724971 0.741482
1 0.725658 0.744869
1 0.727428 0.747936
1 0.729168 0.750301
1 0.730953 0.752331
1 0.732555 0.753887
1 0.733944 0.755169
1 0.735256 0.756359
1 0.736355 0.757336
1 0.737514 0.758389
1 0.738384 0.759136
0.154284 0.839399 0
0.157595 0.839658 0
0.159289 0.839765 0
0.160754 0.839826 0
0.16228 0.839887 0
0.163607 0.839902 0
0.163714 0.839918 0
0.162905 0.839902 0
0.161105 0.839841 0
0.158206 0.839689 0
0.154177 0.839231 0
0.242756 0.833188 0
0.472145 0.807538 0
0.801175 0.748852 0.0119631
1 0.701762 0.193805
1 0.712459 0.423758
1 0.723705 0.591821
1 0.74377 0.685802
1 0.759472 0.727184
1 0.763699 0.744671
1 0.756451 0.750256
1 0.74847 0.752621
1 0.743923 0.75494
1 0.742596 0.757717
1 0.743618 0.760952
1 0.744762 0.763348
1 0.74583 0.765164
1 0.746792 0.76614
1 0.747723 0.766857
1 0.74873 0.767651
1 0.749462 0.7682
1 0.750195 0.768765
1 0.750713 0.769162
0.167681 0.840085 0
0.167681 0.840085 0
0.167681 0.840085 0
0.16762 0.840085 0
0.167178 0.84007 0
0.165774 0.840009 0
0.164263 0.839963 0
0.162585 0.839902 0
0.160632 0.839826 0
0.158404 0.839734 0
0.155947 0.839597 0
0.271885 0.832837 0
0.506767 0.804974 0
0.82414 0.753979 0.0224918
1 0.722957 0.198596
1 0.740444 0.409888
1 0.742336 0.586831
1 0.75874 0.691005
1 0.774029 0.736751
1 0.78085 0.756909
1 0.776837 0.764202
1 0.768124 0.765774
1 0.761578 0.766842
1 0.758297 0.768582
1 0.757504 0.770886
1 0.75758 0.772686
1 0.758251 0.774411
1 0.758846 0.775051
1 0.759594 0.775586
1 0.760189 0.775998
1 0.760647 0.776303
1 0.761166 0.776669
1 0.761471 0.776867
0.167681 0.840085 0
0.167681 0.840085 0
0.167651 0.840085 0
0.167147 0.84007 0
0.166049 0.840024 0
0.164736 0.839979 0
0.163302 0.839918 0
0.161654 0.839872 0
0.159838 0.839796 0
0.157687 0.839704 0
0.158389 0.83946 0
0.302342 0.830198 0
0.548486 0.798459 0
0.866056 0.747478 0.0441291
1 0.727275 0.222522
1 0.749081 0.420462
1 0.754528 0.588602
1 0.771664 0.696849
1 0.785962 0.745052
1 0.7935 0.766354
1 0.792096 0.775036
1 0.784268 0.776776
1 0.777096 0.77734
1 0.772549 0.778134
1 0.770153 0.779324
1 0.769299 0.780545
1 0.76907 0.781765
1 0.769314 0.782162
1 0.769833 0.782498
1 0.770199 0.782727
1 0.770565 0.782971
1 0.770703 0.783062
1 0.770916 0.7832
0.167681 0.840085 0
0.167681 0.840085 0
0.167147 0.84007 0
0.166278 0.84004 0
0.165118 0.839979 0
0.163836 0.839933 0
0.162463 0.839887 0
0.160906 0.839841 0
0.159152 0.839765 0
0.157046 0.839689 0
0.17499 0.838758 0
0.330297 0.827497 0
0.58645 0.792462 0
0.900114 0.74226 0.0633249
1 0.730068 0.243778
1 0.748867 0.438437
1 0.755795 0.600839
1 0.773541 0.704036
1 0.790158 0.749279
1 0.800549 0.772213
1 0.802777 0.782971
1 0.797513 0.785977
1 0.790936 0.786648
1 0.785443 0.786572
1 0.781659 0.786587
1 0.779873 0.787259
1 0.778881 0.788098
1 0.778958 0.788327
1 0.779171 0.788464
1 0.779477 0.788647
1 0.779477 0.788647
1 0.779614 0.788739
1 0.779614 0.788739
0.167681 0.840085 0
0.167208 0.84007 0
0.166445 0.84004 0
0.165408 0.840009 0
0.164309 0.839963 0
0.163104 0.839918 0
0.161746 0.839872 0
0.160266 0.839811 0
0.158541 0.839734 0
0.156558 0.839658 0
0.188586 0.838087 0
0.354742 0.824903 0
0.618189 0.787472 0
0.926177 0.737911 0.0790875
1 0.732204 0.260441
1 0.74876 0.452445
1 0.756634 0.609873
1 0.774792 0.707897
1 0.791135 0.751431
1 0.801083 0.773388
1 0.802869 0.783566
1 0.797147 0.786099
1 0.791348 0.787198
1 0.786755 0.787579
1 0.783169 0.787594
1 0.781552 0.788357
1 0.78027 0.789014
1 0.780148 0.789059
1 0.780148 0.789059
1 0.780148 0.789059
1 0.780148 0.789059
1 0.780148 0.789059
1 0.780148 0.789059
0.167376 0.84007 0
0.166583 0.84004 0
0.165667 0.840009 0
0.164675 0.839979 0
0.163638 0.839933 0
0.162493 0.839887 0
0.161181 0.839857 0
0.159731 0.839796 0
0.158053 0.839719 0
