tracker_LUT/LUT/Avalanche.cube
TITLE "Generated by Resolve"
LUT_3D_SIZE 9
0.0541543 0.0711986 0.0754711
0.0541543 0.0711986 0.0754711
0.0597696 0.0739147 0.0775921
0.101762 0.0896315 0.0871443
0.295262 0.120607 0.0866102
0.585382 0.165408 0.128756
0.753613 0.191684 0.151629
0.863371 0.213565 0.159777
0.880766 0.217426 0.160678
0.0541848 0.0713512 0.0755474
0.0542916 0.0717174 0.0757458
0.0657054 0.0769207 0.0797284
0.144717 0.100343 0.0912642
0.380255 0.137331 0.0959793
0.682277 0.179721 0.143328
0.879652 0.217182 0.160632
0.880766 0.217426 0.160678
0.880766 0.217426 0.160678
0.0581826 0.0959945 0.0845045
0.0583047 0.10544 0.0861677
0.0825666 0.113024 0.107652
0.308736 0.12961 0.0916762
0.720562 0.188312 0.145006
0.8822 0.218235 0.160235
0.883482 0.218967 0.159854
0.897566 0.227344 0.155871
0.922866 0.243915 0.150072
0.0439765 0.231083 0.0680095
0.0419318 0.255818 0.0641794
0.0408484 0.267262 0.0626993
0.415 0.27538 0.267979
0.820844 0.264485 0.161685
1 0.345678 0.224979
1 0.350896 0.237995
1 0.361181 0.274174
1 0.373816 0.31371
0.0687266 0.453162 0.0222171
0.0919203 0.474235 0.0348363
0.0951553 0.476921 0.0365606
0.458991 0.439155 0.078584
0.901137 0.542428 0.552941
0.995621 0.550729 0.54197
1 0.558968 0.541329
1 0.586892 0.574899
1 0.610925 0.605127
0.165469 0.72224 0
0.150118 0.784161 0
0.151049 0.786313 0
0.464744 0.70869 0
1 0.680781 0.603189
1 0.705867 0.716823
1 0.709072 0.730724
1 0.717494 0.73875
1 0.723842 0.745373
0.167681 0.840085 0
0.166049 0.840024 0
0.159838 0.839796 0
0.548486 0.798459 0
1 0.754528 0.588602
1 0.792096 0.775036
1 0.770153 0.779324
1 0.769833 0.782498
1 0.770916 0.7832
0.166812 0.840055 0
0.163134 0.839918 0
0.157717 0.839704 0
0.66099 0.780468 0
1 0.757549 0.619608
1 0.802441 0.783902
1 0.783017 0.787594
1 0.780148 0.789059
1 0.780148 0.789059
0.165469 0.840009 0
0.162264 0.839887 0
0.157321 0.839689 0
0.657649 0.781018 0
1 0.756497 0.610712
1 0.802762 0.782895
1 0.7841 0.787625
1 0.780148 0.789059
1 0.780148 0.789059
0.0541543 0.0711986 0.0754711
0.0541543 0.0711986 0.0754711
0.0597391 0.0738994 0.0775769
0.102342 0.0898146 0.0872511
0.298024 0.121172 0.0867628
0.586526 0.16556 0.128954
0.756603 0.192233 0.151904
0.867948 0.214572 0.160037
0.880766 0.217426 0.160678
0.0542153 0.0714427 0.0756237
0.0543984 0.0719615 0.0759899
0.068574 0.0783246 0.0807813
0.15848 0.102968 0.0915999
0.408591 0.142061 0.0997024
0.716731 0.185412 0.147539
0.880766 0.217426 0.160678
0.880766 0.217426 0.160678
0.880766 0.217426 0.160678
0.0583352 0.0986954 0.0852522
0.0581369 0.109636 0.0865187
0.0851759 0.117418 0.110094
0.338811 0.135134 0.092607
0.753765 0.194675 0.147875
0.881071 0.217594 0.160586
0.883375 0.218906 0.159884
0.900343 0.229114 0.155108
0.926833 0.247547 0.149187
0.0434119 0.238605 0.0666056
0.0411231 0.26453 0.0629587
0.0400854 0.274632 0.0619059
0.437552 0.285084 0.280201
0.844083 0.270024 0.169665
1 0.34818 0.232273
1 0.351843 0.243473
1 0.362951 0.279408
1 0.375723 0.319783
0.076112 0.460487 0.0263066
0.0987716 0.479912 0.0385138
0.101442 0.481682 0.039826
0.498024 0.439277 0.098558
0.9131 0.553079 0.563241
1 0.559625 0.552773
1 0.564828 0.54876
1 0.590768 0.579553
1 0.612757 0.607446
0.162936 0.741466 0
0.144945 0.800916 0
0.148196 0.797024 0
0.477546 0.716091 0
1 0.684947 0.60737
1 0.707454 0.718425
1 0.709819 0.731487
1 0.717037 0.738308
1 0.722316 0.743832
0.167681 0.840085 0
0.164477 0.839963 0
0.158373 0.839734 0
0.542718 0.799191 0
1 0.751781 0.586313
1 0.78996 0.773068
1 0.767727 0.777249
1 0.767025 0.780316
1 0.767788 0.780804
0.165515 0.840009 0
0.161807 0.839872 0
0.156527 0.839658 0
0.636851 0.78436 0
1 0.753826 0.611475
1 0.800305 0.781415
1 0.781323 0.785794
1 0.778317 0.787564
1 0.778363 0.787594
0.16434 0.839963 0
0.16112 0.839841 0
0.156252 0.839643 0
0.626459 0.786038 0
1 0.752621 0.600214
1 0.800214 0.779904
1 0.782666 0.785931
1 0.778485 0.787701
1 0.7785 0.787717
0.0549783 0.0749065 0.080766
0.0551919 0.0759136 0.0821241
0.0590677 0.0764782 0.082826
0.105409 0.0878614 0.0921492
0.331884 0.130175 0.0904097
0.62858 0.171191 0.13608
0.798993 0.200153 0.155657
0.883619 0.217853 0.161135
0.885542 0.217868 0.161746
0.0559701 0.0796979 0.0870985
0.0564736 0.082475 0.0906996
0.0712902 0.0873274 0.0971847
0.172229 0.0988785 0.0998093
0.452049 0.147662 0.10663
0.76672 0.1935 0.153841
0.886839 0.217838 0.162219
0.887999 0.216938 0.163745
0.887358 0.214252 0.167514
0.0573739 0.102464 0.107988
0.0566415 0.112337 0.118502
0.082475 0.128496 0.13695
0.388174 0.145083 0.0977188
0.782345 0.198047 0.152865
0.881956 0.217639 0.160815
0.883284 0.217929 0.160922
0.905531 0.226993 0.15848
0.932723 0.240497 0.154864
0.0431983 0.240955 0.0688334
0.0408484 0.266285 0.0701305
0.0400244 0.274342 0.0688945
0.434287 0.285634 0.279271
0.849653 0.271855 0.166812
1 0.347692 0.226291
1 0.349783 0.235737
1 0.360189 0.271199
1 0.372671 0.309819
0.0757916 0.460456 0.0261845
0.097261 0.478874 0.0377661
0.100053 0.480674 0.0391241
0.487938 0.43949 0.0930648
0.909285 0.550347 0.560662
1 0.555276 0.547356
1 0.558434 0.541222
1 0.583322 0.570153
1 0.603815 0.596277
0.164981 0.73756 0
0.148196 0.793164 0
0.147967 0.793362 0
0.459129 0.706935 0
1 0.676295 0.597284
1 0.701625 0.71252
1 0.702602 0.724178
1 0.708858 0.72961
1 0.713375 0.734615
0.166384 0.84004 0
0.162112 0.839887 0
0.156069 0.839628 0
0.493385 0.806546 0
1 0.743221 0.568017
1 0.779522 0.762844
1 0.757336 0.768063
1 0.756725 0.772488
1 0.757275 0.772854
0.162081 0.840177 0
0.156451 0.840436 0
0.154467 0.839506 0
0.564843 0.795651 0
1 0.744717 0.587961
1 0.793439 0.773159
1 0.777264 0.78088
1 0.773068 0.783276
1 0.773098 0.783291
0.147051 0.843015 0
0.150179 0.841566 0
0.154086 0.839521 0
0.548455 0.798138 0
1 0.743221 0.573602
1 0.7935 0.771557
1 0.7785 0.780774
1 0.773175 0.783352
1 0.77319 0.783368
0.0577096 0.103334 0.118456
0.0576333 0.105287 0.121096
0.0625925 0.107103 0.123781
0.119066 0.111604 0.137011
0.377539 0.143038 0.14519
0.704601 0.182696 0.148455
0.865171 0.215 0.158694
0.946578 0.238193 0.178698
0.957122 0.250599 0.199893
0.0570535 0.113024 0.131594
0.0557717 0.123445 0.145663
0.0687572 0.139437 0.168185
0.185245 0.139208 0.178195
0.50071 0.167269 0.166262
0.839323 0.218128 0.183886
0.953918 0.272404 0.221103
0.950134 0.292729 0.239368
0.941085 0.306233 0.265751
0.0455634 0.1879 0.229847
0.0423743 0.226703 0.279606
0.0367437 0.273335 0.340414
0.386892 0.242451 0.274189
0.825437 0.247028 0.215808
0.952331 0.287282 0.232731
0.949844 0.293141 0.240223
0.950103 0.313985 0.28043
0.945815 0.345327 0.341878
0.0376593 0.271138 0.291157
0.0323644 0.307286 0.331289
0.0306249 0.317922 0.342748
0.143236 0.369558 0.417136
0.831968 0.308309 0.268849
0.984619 0.331609 0.24683
0.982025 0.346883 0.265263
0.970977 0.392721 0.328893
0.960464 0.444648 0.39881
0.0116732 0.498817 0.337942
0.00518807 0.543603 0.396384
0.0016022 0.547768 0.402747
0.127779 0.518578 0.300893
0.829328 0.588785 0.595544
0.975616 0.573754 0.546349
1 0.573144 0.541573
1 0.59913 0.57113
1 0.624735 0.600137
0 0.71133 0.318105
0 0.770916 0.375082
0 0.768917 0.37232
0.00604257 0.787564 0.154284
0.992554 0.670604 0.544732
1 0.713283 0.723049
1 0.711177 0.728756
1 0.717708 0.731365
1 0.724178 0.738521
0 0.909987 0.42945
0 0.915526 0.459632
0 0.889021 0.424109
0 0.907073 0.133547
1 0.762631 0.46656
1 0.786572 0.770184
1 0.76936 0.77995
1 0.772976 0.788891
1 0.773541 0.789456
0 0.912215 0.551278
0 0.905272 0.546715
0 0.89218 0.498085
0 0.921172 0.179004
1 0.777188 0.474739
1 0.812085 0.790295
1 0.811139 0.810483
1 0.810193 0.818402
1 0.810269 0.819059
0 0.904799 0.580133
0 0.900679 0.564431
0 0.892348 0.510582
0 0.915236 0.196262
1 0.780148 0.449928
1 0.810071 0.786465
1 0.810575 0.808637
1 0.809033 0.816709
1 0.8094 0.818265
0.0509041 0.14963 0.180926
0.0502937 0.153017 0.185412
0.0525673 0.156069 0.189563
0.119295 0.191852 0.242588
0.427543 0.224857 0.246387
0.763149 0.247929 0.217472
0.876371 0.288899 0.240436
0.928634 0.324773 0.30808
0.928145 0.33962 0.338445
0.0486 0.163073 0.198672
0.0453193 0.191226 0.234531
0.0420233 0.234089 0.286931
0.158297 0.247074 0.312337
0.544808 0.248875 0.251911
0.848859 0.295079 0.249393
0.925811 0.366827 0.392508
0.929198 0.405173 0.488014
0.940505 0.427329 0.560159
0.0274968 0.330648 0.417014
0.0154269 0.394293 0.507469
0.0105287 0.420447 0.542885
0.312215 0.407141 0.485756
0.806745 0.353765 0.366003
0.928847 0.404349 0.48539
0.936706 0.420615 0.534081
0.95227 0.448585 0.621592
0.966766 0.469932 0.695552
0.00796521 0.434226 0.56379
0.00350958 0.460151 0.599512
0.00256352 0.465797 0.606989
0.00140383 0.477119 0.648371
0.773007 0.422339 0.555001
0.944762 0.478508 0.62005
0.950576 0.511513 0.666667
0.959518 0.54287 0.725948
0.965606 0.57319 0.776287
0 0.561059 0.631189
0 0.598764 0.678065
0 0.603067 0.683085
0 0.609766 0.68777
0.516609 0.63975 0.734035
0.900511 0.65742 0.678813
0.927733 0.677211 0.691981
0.92813 0.694911 0.710185
0.925231 0.712703 0.731426
0 0.797665 0.79173
0 0.813733 0.817746
0 0.811841 0.814893
0 0.807095 0.78764
0.542321 0.804303 0.688365
0.896101 0.781155 0.787198
0.944305 0.778805 0.771191
0.99556 0.775326 0.759854
0.992294 0.78114 0.766629
0 0.880552 0.869169
0 0.873564 0.870008
0 0.874678 0.861402
0 0.894209 0.83653
0.543511 0.885634 0.655116
0.949096 0.819379 0.793225
0.956695 0.828138 0.83444
0.966094 0.829679 0.835782
0.970123 0.829984 0.835081
0 0.851026 0.879805
0 0.852308 0.877775
0 0.861585 0.868467
0 0.889952 0.844099
0.567712 0.90074 0.674205
0.962798 0.840558 0.785657
0.961776 0.861433 0.858167
0.967147 0.862333 0.866285
0.970428 0.861967 0.867247
0 0.844114 0.882582
0 0.848371 0.879408
0 0.859907 0.869627
0 0.888914 0.844282
0.558526 0.900191 0.678187
0.963333 0.837522 0.773175
0.962417 0.863386 0.857939
0.967376 0.866453 0.868925
0.970932 0.867384 0.871748
0.0455787 0.187594 0.229969
0.0453498 0.190829 0.233997
0.0451667 0.197925 0.242603
0.105821 0.262196 0.321599
0.45745 0.295827 0.314443
0.799252 0.303563 0.262684
0.889036 0.364004 0.387137
0.929747 0.407874 0.495979
0.939086 0.424598 0.551263
0.0434577 0.215396 0.264515
0.039826 0.249943 0.307912
0.0317082 0.306752 0.378225
0.138491 0.337972 0.40499
0.581094 0.317815 0.312856
0.861524 0.368902 0.399054
0.946471 0.431815 0.590677
0.94725 0.432364 0.595346
0.94725 0.432364 0.595346
0.0115053 0.415335 0.534417
0.0107729 0.419013 0.542
0.010544 0.42034 0.542565
0.347509 0.410788 0.502144
0.790036 0.414908 0.500664
0.948104 0.433448 0.599054
0.952956 0.439811 0.620356
0.963272 0.455863 0.670863
0.972244 0.473442 0.720851
0.00668345 0.44152 0.574945
0.00277714 0.464622 0.605554
0.00210575 0.468727 0.610498
0.000793469 0.477791 0.649287
0.794644 0.451682 0.762142
0.985199 0.498924 0.810376
0.983825 0.54107 0.835798
0.982528 0.559258 0.849104
0.980179 0.578088 0.858518
0 0.597162 0.751308
0 0.623178 0.778592
0 0.626078 0.780835
0 0.635416 0.791211
0.36083 0.641077 0.838239
0.904799 0.646174 0.818952
0.946227 0.693248 0.818097
0.947372 0.707393 0.835599
0.947692 0.719387 0.84596
0 0.761837 0.865522
0 0.777203 0.882994
0 0.775021 0.880659
0 0.759441 0.857313
0.227176 0.771023 0.847257
0.804059 0.800641 0.808835
0.900084 0.807538 0.802213
0.926314 0.812909 0.804028
0.927199 0.816358 0.808011
0 0.805005 0.902327
0 0.804044 0.901869
0 0.805142 0.900587
0 0.825803 0.891676
0.321294 0.855497 0.859846
0.809766 0.86302 0.799908
0.905882 0.849836 0.852811
0.930632 0.852476 0.85098
0.944595 0.852399 0.847547
0 0.803265 0.902296
0 0.802991 0.902205
0 0.802869 0.902068
0 0.823194 0.895674
0.392538 0.875532 0.863325
0.821759 0.893553 0.79704
0.928206 0.8719 0.862516
0.93254 0.876951 0.879591
0.937957 0.877562 0.88069
0 0.803235 0.902266
0 0.802976 0.90219
0 0.802869 0.902068
0 0.822232 0.894926
0.365469 0.875776 0.86331
0.812772 0.894469 0.792309
0.932845 0.87602 0.85951
0.936584 0.883268 0.884184
0.940337 0.885893 0.888594
0.0445411 0.202197 0.248081
0.0442206 0.206134 0.252979
0.0426642 0.223972 0.274815
0.0933089 0.304921 0.369741
0.485298 0.33312 0.345617
0.791821 0.339162 0.336355
0.895201 0.401495 0.479591
0.945998 0.431525 0.587991
0.94725 0.432364 0.595346
0.0410773 0.239002 0.294087
0.0359503 0.279194 0.345373
0.0237583 0.351934 0.435981
0.137453 0.391714 0.462486
0.621057 0.372213 0.390326
0.877043 0.418143 0.525002
0.94725 0.432364 0.595346
0.94725 0.432364 0.595346
0.94725 0.432364 0.595346
0.0109712 0.418128 0.538918
0.0106661 0.419471 0.543664
0.0103609 0.42118 0.545159
0.383795 0.408453 0.515633
0.804898 0.417029 0.51107
0.951156 0.437324 0.612177
0.95642 0.444984 0.636927
0.966262 0.46125 0.686946
0.974685 0.478843 0.73518
0.00541695 0.448783 0.584619
0.00181582 0.470619 0.612924
0.00112917 0.474983 0.618387
0.00328069 0.484321 0.65832
0.807202 0.456794 0.771634
0.986587 0.513405 0.829908
0.98352 0.546838 0.840513
0.981826 0.565194 0.852125
0.979263 0.583597 0.860502
0 0.606683 0.763699
0 0.629252 0.784604
0 0.632853 0.787839
0 0.643458 0.79942
0.378195 0.646845 0.841627
0.904875 0.651102 0.876417
0.959823 0.686488 0.875288
0.956115 0.703929 0.87303
0.953658 0.715938 0.871321
0 0.767239 0.886519
0 0.781888 0.89427
0 0.778027 0.892531
0 0.757366 0.881453
0.124941 0.746563 0.875914
0.768109 0.782666 0.858213
0.893233 0.799191 0.844984
0.920806 0.809445 0.846052
0.922667 0.812924 0.848127
0 0.803357 0.902358
0 0.803067 0.90222
0 0.802853 0.902083
0 0.812619 0.902815
0.175174 0.825223 0.89456
0.761517 0.841382 0.850767
0.880873 0.856413 0.856092
0.910918 0.862715 0.85243
0.923232 0.864179 0.851652
0 0.803265 0.902296
0 0.802991 0.902205
0 0.802869 0.902068
0 0.813626 0.903151
0.238056 0.845121 0.893858
0.8047 0.885603 0.857328
0.903853 0.880293 0.862852
0.921813 0.882612 0.884596
0.931823 0.884688 0.886397
0 0.803235 0.902281
0 0.802976 0.902205
0 0.802869 0.902068
0 0.812253 0.902678
0.198734 0.846387 0.89456
0.800549 0.887221 0.855955
0.905699 0.887678 0.858473
0.926604 0.889204 0.888212
0.93225 0.89276 0.894713
0.0445411 0.202197 0.248081
0.0442206 0.20621 0.253071
0.0426032 0.224582 0.275563
0.0871748 0.323568 0.391119
0.50898 0.364721 0.374166
0.788449 0.382116 0.420569
0.910002 0.424674 0.554025
0.94725 0.432364 0.595346
0.94725 0.432364 0.595346
0.0407111 0.242298 0.298238
0.0342718 0.290471 0.360052
0.0209964 0.366674 0.454917
0.158907 0.395148 0.463539
0.653666 0.393591 0.431632
0.905455 0.425299 0.554604
0.94725 0.432364 0.595346
0.94725 0.432364 0.595346
0.94725 0.432364 0.595346
0.0108339 0.418723 0.540993
0.0105135 0.420203 0.546288
0.010132 0.422248 0.548424
0.426825 0.406363 0.531655
0.822995 0.420706 0.529931
0.954101 0.441108 0.624979
0.960174 0.450568 0.654765
0.969497 0.467369 0.704738
0.976867 0.484672 0.749432
0.00383001 0.458259 0.597345
0.00047303 0.479057 0.623331
0 0.482918 0.62826
0.00483711 0.492805 0.669551
0.817929 0.465064 0.784543
0.986145 0.527398 0.836515
0.983017 0.553445 0.845106
0.981048 0.571633 0.85539
0.978271 0.589487 0.862638
0 0.615595 0.772274
0 0.637903 0.792218
0 0.641276 0.795254
0 0.652583 0.807416
0.403357 0.655711 0.845914
0.907698 0.659709 0.876921
0.958587 0.692073 0.874556
0.9552 0.708339 0.872374
0.952987 0.719066 0.870909
0 0.775967 0.89134
0 0.786099 0.896025
0 0.783398 0.895399
0 0.7626 0.884535
0.128832 0.748119 0.880217
0.766003 0.783795 0.865843
0.895964 0.794156 0.860319
0.923018 0.806882 0.856519
0.92369 0.810513 0.856092
0 0.803342 0.902342
0 0.803052 0.90222
0 0.802853 0.902083
0 0.812863 0.902892
0.175067 0.824659 0.896315
0.733776 0.825803 0.864546
0.864698 0.853605 0.859663
0.898375 0.861799 0.862486
0.910185 0.862516 0.863478
0 0.80325 0.902296
0 0.802991 0.902205
0 0.802869 0.902068
0 0.813458 0.90309
0.23331 0.845121 0.894072
0.778042 0.872572 0.867292
0.870619 0.882994 0.86453
0.912367 0.885985 0.887404
0.92311 0.889876 0.887526
0 0.803235 0.902281
0 0.802991 0.902205
0 0.802869 0.902068
0 0.811963 0.902586
0.185916 0.845014 0.896254
0.770748 0.873793 0.868055
0.872724 0.892729 0.868727
0.917174 0.892927 0.890517
0.928893 0.896956 0.89868
0.0445411 0.202197 0.248081
0.0442054 0.206287 0.253178
0.0425269 0.225422 0.276585
0.0893568 0.324514 0.392096
0.517281 0.366278 0.374868
0.793057 0.394919 0.449073
0.919982 0.427436 0.566781
0.94725 0.432364 0.595346
0.94725 0.432364 0.595346
0.0401007 0.247623 0.305043
0.0321965 0.303578 0.377157
0.0182956 0.380789 0.47306
0.182956 0.39823 0.463798
0.682383 0.400763 0.449943
0.928023 0.428824 0.575006
0.94725 0.432364 0.595346
0.94725 0.432364 0.595346
0.94725 0.432364 0.595346
0.0106813 0.419409 0.543313
0.0102998 0.421057 0.549142
0.00982681 0.423636 0.552651
0.475242 0.407721 0.545876
0.840879 0.424292 0.549584
0.957473 0.446418 0.641642
0.963577 0.456428 0.672526
0.972244 0.473442 0.720851
0.978851 0.490364 0.762936
0.00225834 0.467842 0.609537
0 0.486839 0.633127
0 0.490379 0.637507
0 0.498711 0.676631
0.829923 0.473762 0.797589
0.984665 0.541009 0.841917
0.982467 0.559823 0.849393
0.98024 0.577707 0.858381
0.977325 0.594934 0.864576
0 0.625376 0.781292
0 0.646433 0.799756
0 0.649622 0.802609
0 0.660807 0.814664
0.428458 0.662715 0.849912
0.910689 0.66714 0.876966
0.957336 0.697902 0.873762
0.954406 0.71223 0.871824
0.952407 0.721889 0.870542
0 0.783764 0.895537
0 0.790219 0.89778
0 0.788128 0.897932
0 0.767163 0.887129
0.143877 0.751003 0.881102
0.769818 0.786542 0.866087
0.896315 0.796155 0.859785
0.922957 0.807919 0.856428
0.923461 0.811048 0.856077
0 0.803342 0.902342
0 0.803037 0.90222
0 0.802853 0.902083
0 0.813062 0.902968
0.178454 0.825269 0.896193
0.73373 0.825986 0.864561
0.864469 0.853361 0.859648
0.898146 0.861509 0.862394
0.910185 0.861921 0.863294
0 0.80325 0.902296
0 0.802991 0.902205
0 0.802869 0.902068
0 0.813291 0.903029
0.225879 0.84509 0.894408
0.775845 0.871839 0.867262
0.869215 0.882292 0.864378
0.911818 0.885618 0.887022
0.922866 0.889616 0.887007
0 0.803235 0.902281
0 0.802991 0.902205
0 0.802869 0.902068
0 0.811704 0.902495
0.177783 0.844999 0.896605
0.769604 0.873625 0.868086
0.871977 0.892607 0.868757
0.916915 0.892851 0.890257
0.928893 0.896956 0.89868
