tracker_LUT/LUT/Cold_Simplicity_2.C0519.cube
TITLE "Generated by Resolve"
LUT_3D_SIZE 5
0 0 0
0.0108492 0.0108492 0.0108492
0.495567 0.0613107 0.105211
0.925887 0.248447 0.211902
0.964569 0.316884 0.206088
0.023682 0.0237125 0.023682
0.0290837 0.0291142 0.0289769
0.40856 0.0875257 0.0663157
0.894957 0.250324 0.191897
0.95584 0.356847 0.184161
0.00387579 0.255802 0.113283
0.0388342 0.246921 0.0985885
0.333989 0.276738 0.0168612
0.887022 0.43212 0.136233
0.90866 0.517052 0.12256
0.0550546 0.672175 0.274769
0.0857404 0.655329 0.258747
0.276265 0.735683 0.218799
0.779828 0.725612 0.0996719
0.827436 0.721065 0.0970321
0.111223 0.901381 0.362036
0.144427 0.901381 0.351171
0.295445 0.937224 0.319692
0.698177 0.961196 0.283589
0.82385 0.965866 0.278828
0.00935378 0.00935378 0.00935378
0.0148775 0.0148775 0.0148775
0.475288 0.0595865 0.139223
0.920531 0.244007 0.255467
0.962417 0.316197 0.251987
0.0260929 0.0261692 0.0261997
0.0312047 0.0312352 0.0312352
0.39443 0.0867933 0.104524
0.887343 0.246815 0.235142
0.955886 0.3552 0.232074
0.0117494 0.248081 0.151125
0.047013 0.239841 0.137469
0.330694 0.266545 0.0607309
0.888747 0.418784 0.187549
0.918379 0.508705 0.173541
0.0613413 0.661601 0.313191
0.0917983 0.643992 0.297047
0.269017 0.71986 0.257633
0.786954 0.712886 0.139818
0.836362 0.712886 0.139162
0.118837 0.897902 0.403235
0.151888 0.89778 0.392309
0.292744 0.932937 0.361242
0.695506 0.95758 0.324392
0.829679 0.962753 0.319844
0 0.274266 0.367086
0.00581369 0.261311 0.333257
0.16141 0.224613 0.244053
0.863798 0.363439 0.395972
0.968948 0.412482 0.441596
0 0.25481 0.346807
0.0205081 0.244968 0.320195
0.152697 0.215457 0.236164
0.834241 0.354253 0.343435
0.963577 0.418326 0.351858
0.00941482 0.252583 0.311116
0.0436103 0.242725 0.292165
0.189364 0.279255 0.290272
0.845838 0.346792 0.254704
0.942794 0.420523 0.249607
0.126909 0.715023 0.622141
0.154437 0.696529 0.583124
0.19469 0.662562 0.37113
0.731991 0.720897 0.189273
0.84152 0.717922 0.183627
0.152209 0.891615 0.675151
0.180484 0.892576 0.637552
0.248493 0.921218 0.459236
0.644511 0.951934 0.391821
0.83682 0.959579 0.366979
0.100145 0.609812 0.787732
0.128527 0.601129 0.766918
0.162493 0.566613 0.708507
0.756497 0.528161 0.701854
0.95201 0.553933 0.757717
0.0964981 0.60209 0.774334
0.125521 0.592248 0.754208
0.166629 0.556023 0.687205
0.686534 0.533288 0.627298
0.951125 0.575296 0.732769
0.0823529 0.578988 0.74403
0.11368 0.570062 0.725292
0.136553 0.56231 0.711498
0.654002 0.534813 0.612406
0.945647 0.621988 0.759335
0.0990311 0.616938 0.76228
0.129412 0.600748 0.737133
0.181704 0.62884 0.737926
0.715526 0.741726 0.730694
0.957748 0.735286 0.713802
0.175158 0.869749 0.956481
0.213642 0.878737 0.952819
0.251392 0.884321 0.904585
0.622187 0.945281 0.682567
0.878035 0.958984 0.565347
0.126497 0.689555 0.884291
0.161013 0.690776 0.875547
0.18854 0.683589 0.857084
0.618509 0.684596 0.878447
0.958846 0.623453 0.91487
0.139101 0.718227 0.906905
0.174319 0.718715 0.899351
0.207523 0.713573 0.885252
0.519326 0.728023 0.803754
0.95433 0.660487 0.910826
0.132586 0.731243 0.92163
0.16878 0.732296 0.914809
0.195254 0.721325 0.899489
0.433036 0.740353 0.823499
0.950149 0.687709 0.911574
0.132631 0.747997 0.933013
0.1682 0.747936 0.925689
0.205814 0.750286 0.919463
0.419394 0.779629 0.902983
0.949248 0.764111 0.930022
0.14316 0.787427 0.953597
0.178347 0.78648 0.946624
0.222705 0.801602 0.945327
0.371649 0.85124 0.958938
0.93576 0.960586 0.902144
