tracker_LUT/LUT/Cold_Simplicity_2.C0519.cube
TITLE "Generated by Resolve"
LUT_3D_SIZE 9
0 0 0
0 0 0
0.0108492 0.0108492 0.0108492
0.0957198 0.0639353 0.0635386
0.495567 0.0613107 0.105211
0.778881 0.134722 0.182193
0.925887 0.248447 0.211902
0.945769 0.317662 0.201862
0.964569 0.316884 0.206088
0.00746166 0.00746166 0.00746166
0.0112306 0.0112306 0.0112306
0.0191348 0.0191348 0.0191348
0.099855 0.0695659 0.063798
0.452186 0.0742504 0.086244
0.754772 0.137667 0.169665
0.915526 0.248005 0.203937
0.941604 0.337469 0.191287
0.960632 0.3364 0.19527
0.023682 0.0237125 0.023682
0.026154 0.0261845 0.026154
0.0290837 0.0291142 0.0289769
0.100206 0.0758373 0.0611276
0.40856 0.0875257 0.0663157
0.728389 0.141054 0.156237
0.894957 0.250324 0.191897
0.936675 0.356802 0.179843
0.95584 0.356847 0.184161
0.0545357 0.10663 0.0716869
0.0608988 0.106569 0.0687724
0.0679026 0.106432 0.0654459
0.106477 0.118944 0.0485847
0.381308 0.148241 0.0300755
0.724544 0.181323 0.143038
0.894255 0.242741 0.189105
0.932662 0.360845 0.172229
0.951705 0.362585 0.175814
0.00387579 0.255802 0.113283
0.0210422 0.251225 0.105852
0.0388342 0.246921 0.0985885
0.0740826 0.251499 0.0846876
0.333989 0.276738 0.0168612
0.740719 0.328252 0.108049
0.887022 0.43212 0.136233
0.888136 0.516014 0.119036
0.90866 0.517052 0.12256
0.0238956 0.461845 0.203433
0.0398566 0.455192 0.195743
0.0559854 0.447715 0.187259
0.0852216 0.449561 0.173083
0.286564 0.567269 0.156466
0.675181 0.516899 0.066041
0.840818 0.563333 0.0990005
0.841932 0.626307 0.0968185
0.862745 0.625879 0.0984207
0.0550546 0.672175 0.274769
0.0700999 0.663966 0.266835
0.0857404 0.655329 0.258747
0.107942 0.655848 0.250996
0.276265 0.735683 0.218799
0.616815 0.812222 0.203662
0.779828 0.725612 0.0996719
0.80766 0.721126 0.097734
0.827436 0.721065 0.0970321
0.0932326 0.842115 0.341726
0.105592 0.833951 0.333394
0.118029 0.824628 0.324529
0.143847 0.828138 0.311452
0.291341 0.866148 0.277577
0.561807 0.930587 0.278782
0.747005 0.947723 0.284855
0.778134 0.865522 0.130938
0.799451 0.830137 0.114702
0.111223 0.901381 0.362036
0.127565 0.901488 0.356954
0.144427 0.901381 0.351171
0.171939 0.91516 0.347372
0.295445 0.937224 0.319692
0.518166 0.951812 0.291203
0.698177 0.961196 0.283589
0.807507 0.965881 0.282445
0.82385 0.965866 0.278828
0 0 0
1.5259e-05 1.5259e-05 1.5259e-05
0.0114748 0.0114748 0.0114748
0.0953384 0.0640879 0.0674907
0.486961 0.0614786 0.122438
0.773175 0.133318 0.201297
0.923476 0.246403 0.23386
0.944991 0.317174 0.225208
0.963684 0.316487 0.22916
0.00868238 0.00868238 0.00868238
0.012192 0.012192 0.012192
0.0197757 0.0197757 0.0197757
0.0994736 0.0695354 0.0690166
0.444007 0.0741436 0.104524
0.749096 0.136339 0.189212
0.911376 0.24593 0.225315
0.941466 0.336797 0.215091
0.960327 0.335775 0.218936
0.0243229 0.0243534 0.0243534
0.0267338 0.0267796 0.0267491
0.0296025 0.029633 0.0295415
0.100618 0.0754864 0.0678874
0.401831 0.0871138 0.0856947
0.722759 0.139849 0.176074
0.891432 0.248508 0.213764
0.937072 0.355734 0.204074
0.956146 0.356023 0.208316
0.0559701 0.105379 0.0798047
0.0623941 0.105211 0.0771191
0.0695048 0.105211 0.0742657
0.107591 0.117418 0.0616617
0.377157 0.145144 0.0533455
0.7187 0.178225 0.164111
0.889982 0.239261 0.211032
0.933349 0.360464 0.196506
0.952178 0.362646 0.199893
0.00769055 0.252064 0.132174
0.0251164 0.247608 0.1252
0.0429236 0.243366 0.11783
0.0775921 0.246845 0.104448
0.33228 0.271107 0.0382544
0.739391 0.323201 0.132906
0.888411 0.425544 0.16199
0.893324 0.511498 0.144366
0.91368 0.512734 0.147799
0.027512 0.457359 0.222766
0.0432898 0.450416 0.214893
0.0593423 0.44271 0.206363
0.0879683 0.443442 0.19234
0.283223 0.559426 0.176165
0.67602 0.510323 0.0873732
0.846876 0.556329 0.123293
0.847059 0.621973 0.119219
0.868132 0.62179 0.121202
0.0581979 0.666941 0.294026
0.0732128 0.65864 0.286107
0.0887922 0.649683 0.277958
0.110094 0.648814 0.270253
0.272541 0.727764 0.238148
0.61532 0.807233 0.222385
0.783047 0.719005 0.119417
0.812009 0.717113 0.118456
0.831846 0.717067 0.117983
0.0953994 0.837171 0.360922
0.107561 0.828504 0.352407
0.120073 0.819135 0.343557
0.145037 0.821927 0.3308
0.287495 0.859205 0.296071
0.560296 0.924468 0.296635
0.746365 0.945953 0.30515
0.781445 0.860624 0.150179
0.80325 0.824765 0.134203
0.115129 0.899626 0.382498
0.131395 0.899748 0.377401
0.148058 0.89958 0.371786
0.174853 0.912261 0.367712
0.294026 0.935073 0.340459
0.515969 0.949722 0.312322
0.696712 0.959365 0.303899
0.81033 0.964401 0.302953
0.826703 0.96437 0.299321
0.00935378 0.00935378 0.00935378
0.0116884 0.0116884 0.0116884
0.0148775 0.0148775 0.0148775
0.0892653 0.0622263 0.0693523
0.475288 0.0595865 0.139223
0.765713 0.135836 0.219089
0.920531 0.244007 0.255467
0.943847 0.316869 0.248127
0.962417 0.316197 0.251987
0.0171969 0.0172122 0.0172122
0.0196536 0.0196689 0.0196689
0.022797 0.0228122 0.0228122
0.0953231 0.0679179 0.0723888
0.434516 0.0733349 0.122072
0.742229 0.13669 0.207568
0.906615 0.244083 0.246387
0.94078 0.33611 0.238514
0.959609 0.335363 0.242329
0.0260929 0.0261692 0.0261997
0.0286412 0.0287327 0.028748
0.0312047 0.0312352 0.0312352
0.099733 0.0750896 0.0741894
0.39443 0.0867933 0.104524
0.716487 0.139605 0.195361
0.887343 0.246815 0.235142
0.937118 0.354726 0.228168
0.955886 0.3552 0.232074
0.0572519 0.104356 0.0881056
0.0639658 0.104143 0.0859846
0.0711833 0.104082 0.0834516
0.108614 0.115877 0.0751049
0.372763 0.142412 0.0762341
0.712383 0.17583 0.184573
0.884947 0.237095 0.231998
0.93344 0.359869 0.220493
0.952331 0.362661 0.223835
0.0117494 0.248081 0.151125
0.0290532 0.2439 0.144366
0.047013 0.239841 0.137469
0.0811933 0.242527 0.124178
0.330694 0.266545 0.0607309
0.737163 0.318303 0.157183
0.888747 0.418784 0.187549
0.898573 0.506416 0.170245
0.918379 0.508705 0.173541
0.0308232 0.452201 0.241657
0.0466316 0.44567 0.233936
0.0626841 0.437812 0.225559
0.0907454 0.437537 0.211597
0.279545 0.550851 0.195468
0.676509 0.503456 0.108995
0.852689 0.549462 0.147784
0.852522 0.617578 0.142199
0.873716 0.61735 0.144518
0.0613413 0.661601 0.313191
0.0765698 0.653422 0.305486
0.0917983 0.643992 0.297047
0.112612 0.641825 0.289433
0.269017 0.71986 0.257633
0.613062 0.801862 0.24126
0.786954 0.712886 0.139818
0.816541 0.712657 0.13959
0.836362 0.712886 0.139162
0.0973678 0.831891 0.380087
0.109483 0.823148 0.371725
0.122087 0.813291 0.362432
0.14583 0.815137 0.350072
0.283268 0.851606 0.31426
0.558221 0.91754 0.314488
0.746014 0.944167 0.325719
0.78468 0.855741 0.168719
0.807126 0.818708 0.15375
0.118837 0.897902 0.403235
0.13518 0.897993 0.397971
0.151888 0.89778 0.392309
0.177493 0.909316 0.388235
0.292744 0.932937 0.361242
0.513497 0.947631 0.333532
0.695506 0.95758 0.324392
0.813382 0.962829 0.323598
0.829679 0.962753 0.319844
0.0436561 0.096437 0.111528
0.0485695 0.0959029 0.10808
0.0549172 0.0932784 0.102617
0.0911574 0.0880903 0.109682
0.369604 0.131945 0.195224
0.752911 0.17409 0.236271
0.918425 0.248051 0.276371
0.94226 0.316518 0.271107
0.9608 0.315801 0.274617
0.0472572 0.0979782 0.114961
0.0524605 0.097612 0.111543
0.0581064 0.0964523 0.106752
0.0892958 0.0917372 0.106844
0.341222 0.132647 0.174304
0.73109 0.170581 0.222965
0.906477 0.248402 0.268132
0.939666 0.335622 0.261875
0.958511 0.335042 0.265736
0.0500649 0.100313 0.117845
0.0560616 0.0996872 0.115023
0.0622416 0.0993057 0.111803
0.0873426 0.0959335 0.10312
0.317586 0.135027 0.153872
0.705837 0.168582 0.209705
0.886809 0.250172 0.256809
0.93669 0.353872 0.252293
0.955291 0.354513 0.256001
0.0517586 0.104387 0.115373
0.058793 0.103929 0.11368
0.0666819 0.103441 0.11191
0.0966506 0.111559 0.114092
0.34107 0.142443 0.10161
0.686366 0.169039 0.198657
0.867079 0.235126 0.248264
0.933104 0.359884 0.244511
0.951614 0.368826 0.246296
0.00994888 0.268177 0.222263
0.0260624 0.261326 0.213275
0.0424506 0.253834 0.20351
0.0762188 0.235462 0.16492
0.30103 0.255802 0.0940261
0.709102 0.309712 0.172946
0.87013 0.401282 0.20885
0.906325 0.490806 0.199634
0.92694 0.489784 0.204135
0.040528 0.465019 0.296941
0.0551614 0.456031 0.286198
0.0698253 0.445762 0.274205
0.0892653 0.431357 0.244358
0.243763 0.511986 0.211063
0.654826 0.497673 0.127886
0.850156 0.540749 0.170748
0.857069 0.616022 0.165698
0.877745 0.616495 0.167819
0.0721141 0.669932 0.362188
0.0861677 0.660349 0.350286
0.100618 0.649058 0.337804
0.114107 0.635447 0.317174
0.238544 0.68629 0.273793
0.589731 0.786389 0.257343
0.779507 0.707256 0.159899
0.820417 0.710781 0.161166
0.840208 0.711192 0.161074
0.101015 0.830381 0.431022
0.114076 0.821698 0.415564
0.127779 0.81239 0.40029
0.144472 0.805631 0.378088
0.256321 0.829999 0.331838
0.537377 0.898558 0.326848
0.734249 0.937514 0.342336
0.788281 0.849195 0.18819
0.811963 0.811612 0.173404
0.122011 0.899397 0.451682
0.139422 0.900114 0.44094
0.157321 0.900664 0.430335
0.178454 0.903929 0.415274
0.2813 0.930022 0.383551
0.500984 0.944778 0.357549
0.685344 0.955306 0.344732
0.81648 0.961212 0.344533
0.832547 0.960983 0.340826
0 0.274266 0.367086
0 0.2692 0.351812
0.00581369 0.261311 0.333257
0.0437324 0.23473 0.29366
0.16141 0.224613 0.244053
0.607111 0.263447 0.305226
0.863798 0.363439 0.395972
0.950774 0.413245 0.439429
0.968948 0.412482 0.441596
0 0.264088 0.357412
0.0011902 0.259007 0.343114
0.0127565 0.253407 0.327398
0.0464485 0.228016 0.28838
0.156527 0.219486 0.240574
0.573892 0.266926 0.295567
0.848539 0.3579 0.368948
0.948974 0.416114 0.393271
0.967269 0.416556 0.397086
0 0.25481 0.346807
0.00607309 0.249912 0.333989
0.0205081 0.244968 0.320195
0.0496071 0.222797 0.283223
0.152697 0.215457 0.236164
0.541344 0.271672 0.284123
0.834241 0.354253 0.343435
0.945632 0.420249 0.356847
0.963577 0.418326 0.351858
0.00112917 0.241947 0.324132
0.0161898 0.23772 0.313939
0.0324865 0.23357 0.303838
0.0466011 0.23151 0.296208
0.162676 0.223087 0.242008
0.541604 0.28716 0.287037
0.833356 0.351537 0.317922
0.936095 0.412482 0.294987
0.952667 0.41323 0.285237
0.00941482 0.252583 0.311116
0.0263523 0.247745 0.301793
0.0436103 0.242725 0.292165
0.0653849 0.249073 0.286687
0.189364 0.279255 0.290272
0.64445 0.305165 0.272648
0.845838 0.346792 0.254704
0.926345 0.402121 0.252445
0.942794 0.420523 0.249607
0.0911269 0.553368 0.548837
0.10634 0.544274 0.533852
0.121523 0.533913 0.516838
0.128603 0.510674 0.449577
0.168933 0.475135 0.330434
0.566796 0.525872 0.192264
0.80296 0.551232 0.182986
0.858244 0.623316 0.188266
0.878584 0.62443 0.190326
0.126909 0.715023 0.622141
0.140978 0.706569 0.603998
0.154437 0.696529 0.583124
0.156252 0.674617 0.506447
0.19469 0.662562 0.37113
0.496147 0.743618 0.30837
0.731991 0.720897 0.189273
0.821149 0.719478 0.183978
0.84152 0.717922 0.183627
0.149615 0.839551 0.67042
0.16228 0.831403 0.649592
0.174655 0.822614 0.625376
0.177295 0.810925 0.55433
0.220386 0.816022 0.415534
0.469337 0.857816 0.362051
0.696223 0.906874 0.364248
0.792874 0.846845 0.214923
0.815778 0.804685 0.193286
0.152209 0.891615 0.675151
0.166064 0.892042 0.65684
0.180484 0.892576 0.637552
0.188647 0.894881 0.586542
0.248493 0.921218 0.459236
0.456123 0.940261 0.412207
0.644511 0.951934 0.391821
0.813657 0.959533 0.373938
0.83682 0.959579 0.366979
0.0326848 0.461601 0.608652
0.0454414 0.456626 0.594903
0.0594034 0.450782 0.579736
0.0980087 0.420554 0.532708
0.137835 0.383169 0.463142
0.477409 0.377325 0.330541
0.807721 0.400992 0.454795
0.936873 0.525734 0.70132
0.954925 0.526604 0.707332
0.0345922 0.4533 0.599374
0.0482338 0.448325 0.58645
0.0615091 0.442847 0.57229
0.0966812 0.415106 0.52665
0.136095 0.380728 0.452781
0.408133 0.386297 0.292927
0.787396 0.394858 0.403525
0.935897 0.539361 0.693187
0.955093 0.543542 0.704021
0.035996 0.444389 0.58761
0.0503243 0.439063 0.575311
0.0641794 0.433402 0.561898
0.0949111 0.409735 0.520104
0.131441 0.379095 0.445899
0.358404 0.388647 0.280522
0.7664 0.389685 0.3523
0.934371 0.537987 0.659449
0.954833 0.560967 0.700008
0.0371862 0.430518 0.567254
0.0522164 0.425498 0.556222
0.0671855 0.420294 0.544076
0.0764935 0.416709 0.535271
0.121294 0.379507 0.457603
0.337728 0.39202 0.295705
0.746639 0.398093 0.341146
0.932311 0.53959 0.630671
0.955886 0.565057 0.670085
0.0385748 0.41738 0.543999
0.0541085 0.412055 0.533257
0.0700999 0.406332 0.521385
0.0913558 0.409628 0.518624
0.107988 0.428611 0.540444
0.416663 0.411872 0.405905
0.754147 0.456382 0.468254
0.933303 0.536934 0.5841
0.959258 0.537285 0.561105
0.0540932 0.446006 0.555962
0.0700084 0.438911 0.54403
0.0860609 0.431067 0.530816
0.110048 0.438376 0.525124
0.14284 0.476387 0.547768
0.453834 0.552392 0.562799
0.797162 0.586313 0.570764
0.937285 0.589044 0.51838
0.950164 0.578882 0.434287
0.130373 0.691691 0.774441
0.146792 0.686305 0.763561
0.163195 0.679408 0.750591
0.187198 0.697307 0.743511
0.2047 0.701595 0.687404
0.408698 0.712291 0.551659
0.725048 0.743038 0.411002
0.868208 0.735073 0.350301
0.868757 0.739834 0.285191
0.176074 0.859144 0.880796
0.190814 0.850492 0.86688
0.206424 0.841688 0.852018
0.219226 0.828092 0.810056
0.225422 0.812757 0.717693
0.414496 0.834852 0.54023
0.654093 0.872389 0.4916
0.80943 0.853956 0.311803
0.818906 0.81503 0.220279
0.177234 0.887144 0.874174
0.194003 0.886519 0.862516
0.211353 0.885969 0.849515
0.227024 0.885374 0.818311
0.23418 0.886519 0.733989
0.421439 0.933913 0.557656
0.615503 0.949187 0.515526
0.783627 0.957824 0.462593
0.851164 0.957382 0.435615
0.100145 0.609812 0.787732
0.114214 0.605554 0.777523
0.128527 0.601129 0.766918
0.148104 0.589883 0.744686
0.162493 0.566613 0.708507
0.294835 0.565393 0.644236
0.756497 0.528161 0.701854
0.933242 0.554269 0.753246
0.95201 0.553933 0.757717
0.0987564 0.606622 0.781918
0.113115 0.601801 0.77203
0.127169 0.596963 0.761273
0.147295 0.585885 0.738979
0.165087 0.56051 0.69807
0.275746 0.550729 0.645014
0.721508 0.531228 0.665049
0.928939 0.563073 0.738231
0.951064 0.564034 0.745174
0.0964981 0.60209 0.774334
0.111025 0.597253 0.764599
0.125521 0.592248 0.754208
0.14583 0.582162 0.732967
0.166629 0.556023 0.687205
0.256703 0.539742 0.636866
0.686534 0.533288 0.627298
0.920211 0.564523 0.7084
0.951125 0.575296 0.732769
0.0889906 0.591592 0.761425
0.104372 0.587686 0.752712
0.119753 0.583429 0.743313
0.131991 0.579019 0.73489
0.156268 0.549828 0.683391
0.241154 0.532769 0.627466
0.657984 0.530892 0.5935
0.895567 0.562051 0.671855
0.949477 0.591974 0.734142
0.0823529 0.578988 0.74403
0.0979171 0.574807 0.73518
0.11368 0.570062 0.725292
0.128298 0.565652 0.716457
0.136553 0.56231 0.711498
0.235721 0.546975 0.655924
0.654002 0.534813 0.612406
0.878889 0.57847 0.687312
0.945647 0.621988 0.759335
0.0811017 0.575479 0.734127
0.0964523 0.569772 0.72372
0.111894 0.56321 0.712154
0.130816 0.562356 0.70547
0.15874 0.580911 0.717906
0.277714 0.62182 0.739406
0.689479 0.613153 0.697688
0.888258 0.662898 0.760662
0.94876 0.669551 0.767834
0.0990311 0.616938 0.76228
0.114244 0.609537 0.750713
0.129412 0.600748 0.737133
0.151705 0.604608 0.730373
0.181704 0.62884 0.737926
0.259083 0.673243 0.76524
0.715526 0.741726 0.730694
0.912322 0.754269 0.749798
0.957748 0.735286 0.713802
0.154101 0.786145 0.909682
0.170367 0.781277 0.899825
0.187213 0.775769 0.889357
0.207889 0.781201 0.881514
0.237339 0.816144 0.882643
0.254826 0.81857 0.838712
0.650416 0.849867 0.703792
0.843595 0.85359 0.57763
0.894926 0.82652 0.50454
0.175158 0.869749 0.956481
0.194293 0.875135 0.955139
0.213642 0.878737 0.952819
0.234043 0.88481 0.951064
0.251392 0.884321 0.904585
0.269062 0.885039 0.83772
0.622187 0.945281 0.682567
0.764096 0.955566 0.632471
0.878035 0.958984 0.565347
0.132006 0.687251 0.877134
0.149248 0.687678 0.872847
0.166827 0.688365 0.868818
0.185748 0.688319 0.862608
0.195117 0.680934 0.851118
0.207446 0.672984 0.835492
0.629435 0.680858 0.871061
0.938781 0.623346 0.899168
0.958679 0.623484 0.899962
0.138262 0.701625 0.888258
0.155612 0.701915 0.884535
0.173465 0.702388 0.880537
0.191684 0.700282 0.872404
0.202609 0.690349 0.858579
0.20679 0.677348 0.842283
0.582208 0.696239 0.822354
0.932677 0.63801 0.885374
0.956497 0.638498 0.887221
0.141695 0.713237 0.895048
0.158434 0.711116 0.889036
0.175311 0.708888 0.882856
0.194141 0.707301 0.875242
0.207355 0.697627 0.861295
0.213581 0.684169 0.846433
0.543221 0.706569 0.78529
0.903548 0.649439 0.870512
0.953384 0.652049 0.87454
0.135912 0.712871 0.894697
0.153109 0.711299 0.889021
0.170291 0.709087 0.882445
0.186511 0.707652 0.878462
0.201572 0.695094 0.858274
0.212192 0.680461 0.838407
0.512291 0.703075 0.760769
0.873884 0.650843 0.844587
0.94931 0.658778 0.853315
0.128054 0.706722 0.887633
0.14461 0.703487 0.880446
0.161273 0.699947 0.872694
0.172869 0.691691 0.863706
0.181704 0.681514 0.852476
0.196033 0.667811 0.829999
0.489158 0.692439 0.749615
0.847852 0.643824 0.823529
0.943862 0.659495 0.834684
0.123735 0.703441 0.880507
0.139696 0.699168 0.872343
0.156054 0.694499 0.863386
0.170489 0.688304 0.855055
0.188754 0.689586 0.852552
0.203357 0.690471 0.852949
0.500755 0.714397 0.771862
0.83769 0.672847 0.826017
0.943114 0.692409 0.837278
0.122805 0.707546 0.879469
0.13817 0.701671 0.869841
0.153994 0.695216 0.859541
0.170947 0.691417 0.851179
0.193256 0.697734 0.850553
0.219699 0.717357 0.863264
0.550378 0.763058 0.832288
0.847852 0.753704 0.841657
0.947784 0.764172 0.860533
0.134661 0.743236 0.903334
0.150103 0.736858 0.892805
0.16611 0.729793 0.881758
0.185199 0.729244 0.874174
0.210376 0.742428 0.874632
0.235248 0.759793 0.880018
0.522377 0.805051 0.873518
0.839979 0.849378 0.83299
0.960403 0.851728 0.844984
0.152697 0.804425 0.949081
0.171023 0.806424 0.946746
0.190433 0.808911 0.944457
0.211978 0.816922 0.944015
0.241672 0.848768 0.951537
0.269413 0.880903 0.957946
0.424949 0.908843 0.9234
0.781659 0.953918 0.816373
0.915236 0.961746 0.744839
0.126497 0.689555 0.884291
0.14374 0.690135 0.879896
0.161013 0.690776 0.875547
0.179889 0.690913 0.869444
0.18854 0.683589 0.857084
0.199374 0.675959 0.840696
0.618509 0.684596 0.878447
0.938918 0.623438 0.914427
0.958846 0.623453 0.91487
0.133455 0.703777 0.896239
0.150683 0.70396 0.89218
0.168444 0.704601 0.888106
0.187503 0.705028 0.882673
0.19884 0.698177 0.87187
0.202518 0.688304 0.858625
0.563577 0.70959 0.832639
0.93225 0.642191 0.912551
0.956756 0.642039 0.91284
0.139101 0.718227 0.906905
0.156619 0.718608 0.903227
0.174319 0.718715 0.899351
0.193988 0.719905 0.894881
0.207523 0.713573 0.885252
0.213016 0.703731 0.87454
0.519326 0.728023 0.803754
0.900542 0.661555 0.91249
0.95433 0.660487 0.910826
0.136446 0.725795 0.915312
0.154421 0.726497 0.911757
0.172717 0.727337 0.908476
0.191104 0.730831 0.909422
0.207263 0.724315 0.897078
0.217212 0.71487 0.885023
0.478706 0.738705 0.805203
0.861662 0.683009 0.915022
0.952453 0.67686 0.90901
0.132586 0.731243 0.92163
0.15053 0.731792 0.918318
0.16878 0.732296 0.914809
0.182223 0.727428 0.908461
0.195254 0.721325 0.899489
0.208316 0.716518 0.891463
0.433036 0.740353 0.823499
0.808957 0.704433 0.922194
0.950149 0.687709 0.911574
0.132097 0.738872 0.92697
0.149783 0.739269 0.923934
0.167849 0.739422 0.920134
0.183459 0.736309 0.914595
0.200717 0.73521 0.909926
0.215915 0.73257 0.904021
0.390158 0.747478 0.865095
0.748363 0.744945 0.918593
0.947677 0.714153 0.922225
0.132631 0.747997 0.933013
0.150042 0.747875 0.929381
0.1682 0.747936 0.925689
0.185733 0.747265 0.92163
0.205814 0.750286 0.919463
0.229877 0.761563 0.922805
0.419394 0.779629 0.902983
0.749569 0.797009 0.907805
0.949248 0.764111 0.930022
0.137423 0.764782 0.941924
0.15407 0.763592 0.937896
0.171527 0.762539 0.933669
0.190509 0.763546 0.930724
0.212497 0.770275 0.93077
0.235706 0.781186 0.933181
0.396674 0.807919 0.93434
0.771542 0.864271 0.891417
0.952758 0.843763 0.931044
0.14316 0.787427 0.953597
0.160464 0.786969 0.950134
0.178347 0.78648 0.946624
0.198184 0.789014 0.943877
0.222705 0.801602 0.945327
0.248005 0.819883 0.94992
0.371649 0.85124 0.958938
0.772503 0.912902 0.940185
0.93576 0.960586 0.902144
