tracker_LUT/LUT/Cold_Simplicity_2.C0519.cube
TITLE "Generated by Resolve"
LUT_3D_SIZE 33
0 0 0
0 0 0
0 0 0
0 0 0
0 0 0
0 0 0
0.000579843 0.000579843 0.000579843
0.00242618 0.00242618 0.00242618
0.0108492 0.0108492 0.0108492
0.0220645 0.0220645 0.0220645
0.0384527 0.0369116 0.0370184
0.0621958 0.0522621 0.0525978
0.0957198 0.0639353 0.0635386
0.145098 0.0696574 0.0690166
0.23064 0.0683604 0.076463
0.366506 0.0627298 0.0864424
0.495567 0.0613107 0.105211
0.589334 0.0679332 0.129961
0.666423 0.0795605 0.152972
0.728573 0.106844 0.169574
0.778881 0.134722 0.182193
0.820996 0.164233 0.191714
0.859602 0.187869 0.200458
0.897887 0.21622 0.208576
0.925887 0.248447 0.211902
0.932631 0.277852 0.208026
0.936751 0.310994 0.20177
0.941161 0.317708 0.201312
0.945769 0.317662 0.201862
0.950423 0.317449 0.202914
0.955077 0.317266 0.203967
0.959915 0.317052 0.205005
0.964569 0.316884 0.206088
0 0 0
0 0 0
1.5259e-05 1.5259e-05 1.5259e-05
0.000946059 0.000946059 0.000946059
0.00187686 0.00187686 0.00187686
0.00282292 0.00282292 0.00282292
0.00375372 0.00375372 0.00375372
0.00474556 0.00474556 0.00474556
0.0128176 0.0128176 0.0128176
0.0238651 0.0238346 0.0238346
0.039765 0.0380865 0.0381018
0.0636149 0.0534981 0.0534066
0.0974441 0.0653697 0.06392
0.147326 0.0714275 0.0679637
0.228031 0.0701915 0.0742199
0.35877 0.0654612 0.0829786
0.485588 0.0645457 0.10074
0.579812 0.0716106 0.125689
0.658579 0.081178 0.149493
0.722499 0.108125 0.16669
0.773648 0.135668 0.179309
0.816236 0.16553 0.188785
0.854948 0.188785 0.197711
0.893172 0.2168 0.205859
0.924681 0.248859 0.21033
0.931945 0.279072 0.206394
0.935958 0.312154 0.200092
0.940108 0.322072 0.198688
0.94493 0.322545 0.199557
0.949615 0.322362 0.200641
0.954406 0.322179 0.201587
0.959197 0.321981 0.202564
0.963806 0.321782 0.203601
0.00131228 0.00131228 0.00131228
0.00225834 0.00225834 0.00225834
0.00320439 0.00320439 0.00320439
0.00408942 0.00408942 0.00408942
0.00483711 0.00483711 0.00483711
0.00575265 0.00575265 0.00575265
0.00672923 0.00672923 0.00672923
0.00767529 0.00767529 0.00767529
0.0148623 0.0148623 0.0148623
0.0255131 0.0254673 0.025452
0.0410315 0.0392615 0.0391394
0.0645609 0.0545357 0.0539101
0.0987716 0.0668193 0.0641337
0.147951 0.0731975 0.0666361
0.225162 0.072221 0.071519
0.349477 0.0683299 0.0789197
0.474281 0.0678264 0.0959487
0.569009 0.0752422 0.120546
0.650263 0.0833448 0.14551
0.714794 0.108873 0.162951
0.767681 0.136416 0.176165
0.810895 0.165515 0.18587
0.849882 0.189715 0.194812
0.888014 0.217288 0.202823
0.923217 0.248646 0.208743
0.931167 0.27982 0.204776
0.935134 0.312978 0.198322
0.939315 0.326589 0.196094
0.944015 0.32755 0.196918
0.948623 0.32726 0.197925
0.953368 0.326909 0.198856
0.958068 0.326696 0.199908
0.962707 0.326513 0.201022
0.00437934 0.00437934 0.00437934
0.00520333 0.00520333 0.00520333
0.00614939 0.00614939 0.00614939
0.00706493 0.00706493 0.00706493
0.00801099 0.00801099 0.00801099
0.00898756 0.00898756 0.00898756
0.00991836 0.00991836 0.00991836
0.0108492 0.0108492 0.0108492
0.0170748 0.0170748 0.0170748
0.0269932 0.0269017 0.0268864
0.0423743 0.040528 0.040238
0.0654765 0.0556191 0.0543526
0.0991531 0.0680552 0.0640269
0.147646 0.0749828 0.0651255
0.221515 0.0743725 0.0686656
0.340475 0.071107 0.0750439
0.463828 0.0710918 0.091249
0.558785 0.0788739 0.115892
0.640864 0.0854047 0.141329
0.707027 0.109606 0.159442
0.761624 0.137179 0.173159
0.805676 0.165347 0.183169
0.845289 0.190784 0.192142
0.882658 0.21767 0.199969
0.921416 0.248142 0.207309
0.930449 0.280354 0.203189
0.934371 0.312535 0.196857
0.938003 0.330846 0.193332
0.942641 0.332403 0.193912
0.947372 0.332204 0.194934
0.952239 0.33196 0.195987
0.95697 0.331777 0.197101
0.961761 0.331563 0.198184
0.00746166 0.00746166 0.00746166
0.0083772 0.0083772 0.0083772
0.00932326 0.00932326 0.00932326
0.0102693 0.0102693 0.0102693
0.0112306 0.0112306 0.0112306
0.0119936 0.0119936 0.0119936
0.0128634 0.0128634 0.0128634
0.0137942 0.0137942 0.0137942
0.0191348 0.0191348 0.0191348
0.028809 0.0286717 0.0286107
0.0436866 0.0418097 0.0412909
0.0661479 0.056672 0.0546578
0.099855 0.0695659 0.063798
0.147692 0.0768444 0.0637522
0.218448 0.0767376 0.0655222
0.332036 0.073991 0.0709544
0.452186 0.0742504 0.086244
0.547463 0.0820783 0.110826
0.630549 0.0888075 0.136385
0.698772 0.110307 0.155459
0.754772 0.137667 0.169665
0.800504 0.165652 0.180148
0.840253 0.192004 0.18909
0.877379 0.218173 0.19678
0.915526 0.248005 0.203937
0.92929 0.280324 0.201572
0.933639 0.311772 0.195468
0.937011 0.335256 0.190753
0.941604 0.337469 0.191287
0.946502 0.337224 0.192386
0.951232 0.337011 0.193484
0.955764 0.336629 0.194232
0.960632 0.3364 0.19527
0.0106508 0.0106508 0.0106508
0.0115358 0.0115358 0.0115358
0.0122835 0.0122835 0.0122835
0.0132448 0.0132448 0.0132448
0.0141909 0.0141909 0.0141909
0.0151064 0.0151064 0.0151064
0.0160525 0.0160525 0.0160525
0.0169833 0.0169833 0.0169833
0.0212863 0.0212863 0.0212863
0.0305486 0.0303807 0.0302586
0.0447089 0.0428931 0.0420691
0.0668956 0.0578164 0.054902
0.100237 0.0710155 0.0634318
0.147707 0.0788586 0.0622721
0.216754 0.0792859 0.0623026
0.322881 0.0768749 0.0669261
0.440543 0.0774701 0.0813001
0.536416 0.0851911 0.105577
0.620127 0.0922866 0.131579
0.691081 0.111345 0.15169
0.748302 0.138384 0.16643
0.794537 0.166064 0.176944
0.834562 0.193698 0.185687
0.872099 0.21886 0.193515
0.909712 0.24802 0.20061
0.928054 0.280797 0.199924
0.932876 0.310994 0.194324
0.936034 0.338918 0.188342
0.940307 0.34226 0.188312
0.94519 0.342077 0.189349
0.949966 0.341863 0.190509
0.954757 0.341711 0.191684
0.959625 0.341497 0.192767
0.013611 0.013611 0.013611
0.0145571 0.0145571 0.0145571
0.0154879 0.0154879 0.0154879
0.0164187 0.0164187 0.0164187
0.0173495 0.0173495 0.0173495
0.0182956 0.0182956 0.0182956
0.0191958 0.0191958 0.0191958
0.0199588 0.0199588 0.0199588
0.0235142 0.0235142 0.0234989
0.0325475 0.0323796 0.0321355
0.0460059 0.0442969 0.043061
0.0675822 0.0590829 0.0551003
0.100587 0.0725719 0.0628824
0.14757 0.0809644 0.0607462
0.214237 0.082002 0.0586404
0.31458 0.0797284 0.0628977
0.429221 0.0807202 0.0762188
0.525124 0.0883497 0.100465
0.610117 0.0959793 0.126818
0.683177 0.112337 0.147982
0.741726 0.13901 0.162966
0.789197 0.166674 0.17406
0.829175 0.1953 0.182544
0.866972 0.219821 0.190631
0.904585 0.248737 0.197757
0.926802 0.281392 0.198184
0.932128 0.311498 0.192767
0.934691 0.341985 0.185855
0.939147 0.347219 0.185443
0.943984 0.347295 0.18645
0.948775 0.347097 0.18764
0.953704 0.346868 0.188724
0.958312 0.346548 0.189761
0.0168612 0.0168612 0.0168612
0.0177615 0.0177615 0.0177615
0.0186923 0.0186923 0.0186923
0.019501 0.019501 0.019501
0.020325 0.020325 0.020325
0.0212558 0.0212558 0.0212558
0.0222019 0.0222019 0.0222019
0.0231479 0.0231479 0.0231479
0.0257877 0.0257877 0.0257572
0.0345464 0.0344091 0.0339666
0.047364 0.0458686 0.0441291
0.0682231 0.0604257 0.0552071
0.100557 0.0741436 0.0621195
0.147021 0.0831464 0.0592355
0.212131 0.0849775 0.0547799
0.306554 0.0826886 0.0584573
0.418616 0.0841077 0.0711528
0.514366 0.0915236 0.0955825
0.600549 0.0996109 0.121965
0.675151 0.113512 0.14432
0.734981 0.139925 0.159686
0.783688 0.167483 0.170977
0.82443 0.196826 0.179416
0.862364 0.221042 0.187564
0.899916 0.249607 0.194797
0.925597 0.282078 0.196445
0.931411 0.312108 0.19118
0.933684 0.345403 0.183459
0.938048 0.352239 0.182788
0.942626 0.352239 0.183658
0.947387 0.35201 0.184802
0.952346 0.351797 0.185763
0.957107 0.351614 0.186877
0.023682 0.0237125 0.023682
0.0242771 0.0243076 0.0242771
0.0248569 0.0248875 0.0248722
0.0254368 0.0254826 0.0254368
0.026154 0.0261845 0.026154
0.0267796 0.0268101 0.0267643
0.0272526 0.0272984 0.0272068
0.0278019 0.0278325 0.0277562
0.0290837 0.0291142 0.0289769
0.0367132 0.0366522 0.0359655
0.0489052 0.0476997 0.0453193
0.0686046 0.061799 0.0552071
0.100206 0.0758373 0.0611276
0.145846 0.0854047 0.0575418
0.209613 0.0881056 0.0507362
0.299504 0.0857404 0.0542306
0.40856 0.0875257 0.0663157
0.50367 0.0948348 0.0902724
0.590402 0.103319 0.117006
0.666682 0.114611 0.14052
0.728389 0.141054 0.156237
0.778271 0.168673 0.168109
0.819791 0.198367 0.176623
0.85774 0.222232 0.184695
0.894957 0.250324 0.191897
0.924331 0.282795 0.194736
0.930724 0.313146 0.189471
0.932845 0.347082 0.181567
0.936675 0.356802 0.179843
0.941375 0.357443 0.180758
0.946303 0.357198 0.181857
0.95111 0.357 0.183001
0.95584 0.356847 0.184161
0.0356603 0.0364996 0.0358892
0.0361791 0.0370031 0.036347
0.0366827 0.0374914 0.0367742
0.0372778 0.0380865 0.0373083
0.0377966 0.0385901 0.0377356
0.0383307 0.0390936 0.0381476
0.0388952 0.0395972 0.0385901
0.0394751 0.040116 0.0390173
0.0401007 0.0406806 0.0394751
0.0434882 0.0439307 0.0421302
0.0529488 0.0525216 0.0484932
0.0715648 0.0666819 0.0564279
0.100771 0.0794995 0.0599069
0.143862 0.0874495 0.0557565
0.205905 0.0906233 0.047303
0.292897 0.0889296 0.0496986
0.398978 0.0909895 0.0610819
0.494026 0.0970626 0.0858015
0.581353 0.103349 0.112947
0.657877 0.119219 0.13576
0.721508 0.144259 0.152346
0.773297 0.17052 0.16492
0.815824 0.198245 0.174243
0.853239 0.225193 0.181537
0.890242 0.251972 0.188754
0.922774 0.282383 0.193301
0.930007 0.315618 0.187457
0.931838 0.349157 0.179477
0.935241 0.361654 0.177035
0.939925 0.362722 0.177829
0.944915 0.362463 0.178851
0.949645 0.362127 0.179889
0.954437 0.361837 0.180987
0.0487068 0.0539712 0.0502632
0.0492866 0.0544289 0.0505226
0.0497749 0.0547341 0.0506752
0.0502632 0.0550088 0.0507668
0.0507973 0.0552834 0.0509041
0.0513619 0.0556039 0.0510414
0.0519265 0.0559091 0.0511482
0.0526589 0.0563973 0.0513771
0.0532998 0.0567483 0.0515297
0.0559396 0.0591287 0.0528878
0.0610208 0.0631418 0.0547646
0.0747387 0.0724346 0.0576791
0.103563 0.0873579 0.0569924
0.149371 0.0993057 0.0469215
0.209262 0.102464 0.033463
0.292134 0.0962234 0.0410163
0.393774 0.0959182 0.0561227
0.487556 0.100969 0.0815137
0.575296 0.107897 0.109194
0.653819 0.12105 0.133165
0.717891 0.144442 0.150271
0.770138 0.170245 0.163027
0.812924 0.196826 0.172366
0.850385 0.225147 0.179416
0.887343 0.25362 0.186236
0.922011 0.284932 0.19144
0.929183 0.317708 0.185672
0.930953 0.350668 0.177554
0.933684 0.366155 0.173983
0.93843 0.367666 0.174578
0.943328 0.367468 0.17583
0.94818 0.367239 0.177035
0.95314 0.366995 0.178088
0.0577096 0.0773785 0.0637675
0.0584573 0.0776226 0.0636301
0.0592966 0.07776 0.063386
0.0602121 0.0778821 0.0631418
0.0610971 0.0780041 0.0628824
0.0620584 0.0781872 0.062623
0.0630503 0.0784772 0.0624552
0.0640726 0.078645 0.0621805
0.0650339 0.078706 0.0618448
0.0669718 0.0792706 0.0615854
0.0723125 0.0844739 0.0622416
0.0816205 0.0884413 0.0598917
0.105684 0.096376 0.0541695
0.150057 0.108507 0.0398108
0.211063 0.117174 0.0189059
0.292897 0.120256 0.0188449
0.386236 0.122118 0.0411536
0.48275 0.124651 0.0729992
0.573388 0.128939 0.103136
0.654185 0.135729 0.129213
0.72079 0.14493 0.150301
0.773434 0.162676 0.164767
0.815213 0.18761 0.174243
0.852461 0.216327 0.181186
0.887984 0.246677 0.186954
0.920302 0.280125 0.190692
0.928374 0.313481 0.185092
0.930236 0.348837 0.176425
0.932677 0.367056 0.172
0.937331 0.369543 0.172351
0.942199 0.369406 0.173541
0.947082 0.369162 0.174716
0.951995 0.368902 0.175891
0.0545357 0.10663 0.0716869
0.0559243 0.106661 0.0710155
0.0575418 0.106615 0.0702525
0.059205 0.106493 0.0695201
0.0608988 0.106569 0.0687724
0.0625772 0.1066 0.0679942
0.0643626 0.106508 0.067155
0.0660868 0.106493 0.0662852
0.0679026 0.106432 0.0654459
0.0707866 0.106767 0.0643931
0.0754711 0.108659 0.0628977
0.0853132 0.11783 0.0599374
0.106477 0.118944 0.0485847
0.148394 0.121828 0.0337377
0.209628 0.130541 0.0116274
0.290578 0.137057 0.00755322
0.381308 0.148241 0.0300755
0.475868 0.15938 0.0601205
0.57113 0.167193 0.0920272
0.655955 0.173419 0.120623
0.724544 0.181323 0.143038
0.777691 0.191455 0.159609
0.820172 0.204685 0.17145
0.857496 0.221653 0.180865
0.894255 0.242741 0.189105
0.921553 0.273014 0.191714
0.928191 0.307103 0.185412
0.929763 0.343725 0.176104
0.932662 0.360845 0.172229
0.937316 0.363287 0.172564
0.942168 0.363195 0.173709
0.946975 0.362966 0.174823
0.951705 0.362585 0.175814
0.0385901 0.141268 0.0758679
0.0409552 0.141054 0.0746471
0.0436561 0.140719 0.073228
0.0462348 0.140551 0.071809
0.0489967 0.140246 0.0705272
0.0516976 0.13994 0.0691691
0.0544289 0.139635 0.0677806
0.0572366 0.139345 0.0663767
0.0600137 0.139055 0.065095
0.0641337 0.139132 0.0631876
0.0707103 0.139437 0.0606546
0.0793011 0.145388 0.0576333
0.101427 0.157778 0.0540322
0.141039 0.150546 0.0343633
0.203906 0.148669 0.0108797
0.282902 0.156374 0.0010071
0.380987 0.169039 0.0236057
0.482261 0.184298 0.0544747
0.576593 0.199207 0.084596
0.659815 0.212345 0.11133
0.728054 0.22565 0.132891
0.781018 0.237598 0.148989
0.82359 0.25098 0.161059
0.86096 0.267094 0.170565
0.89778 0.286946 0.178988
0.920104 0.309606 0.181262
0.925002 0.334615 0.176165
0.926711 0.361089 0.169467
0.930877 0.367742 0.16875
0.935973 0.366842 0.170062
0.940749 0.366369 0.171054
0.945602 0.365774 0.172045
0.950378 0.365621 0.173205
0.0207065 0.17789 0.0823224
0.024033 0.177356 0.080766
0.0274815 0.17702 0.0791333
0.0311589 0.176455 0.0773632
0.0347448 0.17586 0.0756542
0.0384527 0.175235 0.0739757
0.0420386 0.174624 0.0722362
0.0457313 0.174151 0.0704814
0.0493172 0.173724 0.0687419
0.0539406 0.173388 0.0667887
0.0620127 0.173434 0.0636454
0.07187 0.17496 0.0603647
0.089189 0.187213 0.0582895
0.131334 0.203662 0.057969
0.188952 0.186267 0.026215
0.270832 0.180774 0.0027924
0.37557 0.192218 0.0167239
0.486046 0.207767 0.0487068
0.586343 0.226093 0.0798962
0.669352 0.244648 0.105318
0.733669 0.262867 0.124346
0.783948 0.280583 0.138155
0.824643 0.298894 0.148547
0.860594 0.31957 0.156451
0.896315 0.344045 0.163134
0.913207 0.368917 0.162722
0.91574 0.393042 0.156939
0.91603 0.415274 0.151049
0.920516 0.41767 0.151507
0.925856 0.415854 0.153246
0.931029 0.414816 0.154513
0.936034 0.414267 0.155612
0.941039 0.413672 0.156878
0.00943008 0.214694 0.0946365
0.0133669 0.214267 0.0930495
0.0176089 0.213306 0.0913863
0.0220493 0.212131 0.0894636
0.0264591 0.211078 0.0875715
0.0306859 0.210178 0.0857252
0.0349889 0.209354 0.0840467
0.0391852 0.208667 0.0822766
0.0435035 0.207813 0.0803998
0.0482032 0.207095 0.0782483
0.0564736 0.207095 0.0751354
0.066743 0.207538 0.0716259
0.0816205 0.216724 0.0703288
0.113115 0.23563 0.0686046
0.176257 0.257313 0.0608072
0.251637 0.226566 0.0171817
0.360311 0.222553 0.00967422
0.481971 0.235019 0.0399634
0.590249 0.253758 0.0731823
0.676143 0.274495 0.0990768
0.739467 0.296498 0.116655
0.786786 0.318196 0.12871
0.824369 0.340597 0.136751
0.857694 0.365957 0.142626
0.891539 0.392645 0.148165
0.902556 0.419333 0.145464
0.901396 0.446464 0.138262
0.900435 0.467201 0.132891
0.903227 0.475227 0.131868
0.906935 0.479484 0.131502
0.912093 0.479484 0.132387
0.917494 0.47866 0.133715
0.922988 0.477836 0.135042
0.00387579 0.255802 0.113283
0.00775158 0.254932 0.111574
0.012192 0.25362 0.109514
0.0165255 0.252461 0.107683
0.0210422 0.251225 0.105852
0.0254673 0.250324 0.104112
0.0298619 0.249241 0.102235
0.0344396 0.248096 0.100359
0.0388342 0.246921 0.0985885
0.0434882 0.246036 0.0965133
0.0513771 0.245396 0.0928206
0.0610819 0.245823 0.0889754
0.0740826 0.251499 0.0846876
0.0965286 0.271565 0.0797742
0.152712 0.298192 0.0786908
0.239658 0.319463 0.0664988
0.333989 0.276738 0.0168612
0.466209 0.271901 0.0296788
0.585473 0.285389 0.0631266
0.675776 0.306249 0.0898299
0.740719 0.328252 0.108049
0.786954 0.352178 0.119188
0.823346 0.377386 0.126253
0.856046 0.405081 0.131304
0.887022 0.43212 0.136233
0.891005 0.459281 0.131365
0.8869 0.489265 0.124041
0.885039 0.50956 0.119463
0.888136 0.516014 0.119036
0.892485 0.51838 0.11928
0.897704 0.51838 0.120226
0.903151 0.517769 0.121386
0.90866 0.517052 0.12256
0.00474556 0.300938 0.134493
0.00836194 0.299611 0.132647
0.0125582 0.298161 0.13077
0.0166018 0.296757 0.128786
0.0208743 0.295583 0.126848
0.0249638 0.294179 0.124819
0.0289769 0.292866 0.122683
0.0332647 0.291691 0.120851
0.0375525 0.290578 0.118929
0.0419013 0.289296 0.116884
0.0491035 0.288899 0.113405
0.0582132 0.289158 0.108888
0.0703746 0.292103 0.103182
0.0908827 0.31194 0.0991226
0.139391 0.341176 0.0981155
0.221775 0.376181 0.0981918
0.327749 0.389075 0.0659648
0.437613 0.334615 0.0262455
0.567071 0.32842 0.0492256
0.667872 0.341344 0.0784161
0.735164 0.362936 0.0970626
0.782269 0.387549 0.108186
0.818647 0.412955 0.115496
0.851453 0.438651 0.121447
0.878065 0.466636 0.124804
0.878492 0.49482 0.119539
0.87332 0.523644 0.113573
0.871962 0.541787 0.110643
0.875273 0.547097 0.110338
0.87924 0.550576 0.110521
0.884428 0.551125 0.111284
0.889921 0.550256 0.1122
0.895338 0.549432 0.113146
0.0108797 0.352346 0.1579
0.0144961 0.350912 0.156054
0.0186313 0.349279 0.154055
0.0226444 0.348531 0.152331
0.0268101 0.346868 0.15021
0.0308537 0.345174 0.148089
0.0350042 0.343481 0.146151
0.0391394 0.341955 0.144198
0.0433509 0.340688 0.142214
0.0473793 0.339071 0.140063
0.0538338 0.338262 0.136675
0.0625925 0.338415 0.132067
0.0746166 0.341497 0.126665
0.0932174 0.357076 0.121798
0.132662 0.389502 0.118349
0.206394 0.426307 0.119097
0.313573 0.463493 0.115694
0.423377 0.452461 0.0575875
0.53901 0.395682 0.0415503
0.646159 0.390341 0.0634623
0.724117 0.40148 0.085069
0.773053 0.423636 0.0971542
0.810651 0.448707 0.105226
0.843244 0.474464 0.111238
0.865858 0.500435 0.114061
0.866026 0.525979 0.110475
0.861311 0.552865 0.106218
0.859937 0.569909 0.104097
0.863661 0.573907 0.104189
0.868406 0.575967 0.104753
0.873487 0.576608 0.10544
0.878935 0.575998 0.106233
0.884443 0.575082 0.106905
0.0174716 0.406806 0.181247
0.0213321 0.405661 0.179614
0.02533 0.403967 0.177752
0.0292515 0.402213 0.17554
0.0333257 0.400336 0.173358
0.0374609 0.398474 0.171176
0.0414893 0.396704 0.169253
0.0454566 0.395377 0.167224
0.0495308 0.393591 0.165026
0.0535134 0.391714 0.162921
0.0597391 0.390768 0.159854
0.0683146 0.391455 0.155596
0.0795453 0.394568 0.150072
0.0969711 0.406394 0.143694
0.130114 0.439506 0.138582
0.198398 0.477913 0.13959
0.29778 0.517739 0.137255
0.408438 0.544259 0.129412
0.515053 0.50634 0.062501
0.619562 0.457313 0.055314
0.701381 0.454047 0.0717021
0.758846 0.463493 0.0862898
0.799237 0.483757 0.0955978
0.833478 0.507897 0.102754
0.853269 0.533059 0.105623
0.853056 0.557595 0.103136
0.848951 0.581994 0.100633
0.84828 0.597208 0.0995193
0.852461 0.60061 0.0997635
0.857176 0.602213 0.100252
0.862318 0.602655 0.100832
0.867796 0.601862 0.101198
0.873274 0.600946 0.101762
0.0238956 0.461845 0.203433
0.0277104 0.460517 0.201816
0.0318151 0.458869 0.200061
0.0358587 0.457084 0.197864
0.0398566 0.455192 0.195743
0.044007 0.453223 0.193744
0.0480507 0.451621 0.191791
0.0520333 0.449775 0.189471
0.0559854 0.447715 0.187259
0.0601053 0.445808 0.18529
0.0657664 0.444739 0.182559
0.0743114 0.446006 0.178546
0.0852216 0.449561 0.173083
0.101854 0.458366 0.165118
0.130983 0.489815 0.158267
0.195087 0.528222 0.158358
0.286564 0.567269 0.156466
0.401938 0.603647 0.150576
0.499138 0.617243 0.136477
0.59086 0.558846 0.0729686
0.675181 0.516899 0.066041
0.735485 0.51574 0.0763867
0.781521 0.525597 0.0866712
0.821759 0.54136 0.0957198
0.840818 0.563333 0.0990005
0.840467 0.586664 0.097734
0.837339 0.609491 0.0965438
0.837797 0.623087 0.0964675
0.841932 0.626307 0.0968185
0.84686 0.62739 0.0972
0.852018 0.627497 0.0975814
0.857389 0.626734 0.0980087
0.862745 0.625879 0.0984207
0.0306706 0.515496 0.224094
0.0343786 0.51397 0.222339
0.0382239 0.512123 0.220142
0.0422675 0.510216 0.218051
0.0463111 0.50869 0.216342
0.0505379 0.506889 0.214374
0.05449 0.505135 0.212284
0.0585794 0.503136 0.210147
0.0625162 0.501076 0.208209
0.0665904 0.498924 0.206027
0.0718395 0.498146 0.203586
0.0798047 0.499352 0.199863
0.0908522 0.503365 0.194568
0.107179 0.511513 0.185977
0.134005 0.53904 0.176883
0.19498 0.576257 0.17586
0.281285 0.614099 0.174289
0.386847 0.648341 0.168521
0.493843 0.672709 0.160891
0.570932 0.674189 0.137148
0.644099 0.609003 0.0818799
0.711391 0.573907 0.0744335
0.760937 0.574151 0.0816205
0.803891 0.582742 0.0899214
0.827924 0.594476 0.094377
0.829633 0.613687 0.0945754
0.827237 0.635218 0.0946212
0.828 0.648005 0.0950179
0.832059 0.65124 0.0953384
0.836942 0.652262 0.0955978
0.842084 0.652232 0.0958114
0.847532 0.651347 0.0960555
0.853056 0.650263 0.0962539
0.0389258 0.569482 0.242237
0.0423285 0.567971 0.240574
0.0462043 0.566003 0.238682
0.0502785 0.564126 0.236728
0.0541695 0.562127 0.23473
0.0581064 0.559884 0.232731
0.0618448 0.557748 0.230625
0.0658579 0.555505 0.228534
0.0698711 0.553414 0.226596
0.0737774 0.551431 0.224628
0.0778515 0.549416 0.222721
0.0851453 0.550759 0.219547
0.0965896 0.555261 0.214435
0.112886 0.563638 0.205447
0.137942 0.587045 0.194202
0.196292 0.62211 0.19202
0.278691 0.657664 0.190249
0.376623 0.689448 0.184802
0.48307 0.716899 0.178393
0.566064 0.728374 0.171435
0.621347 0.718105 0.128084
0.680629 0.656428 0.0881514
0.738949 0.627863 0.0828412
0.785138 0.62771 0.087953
0.812345 0.634302 0.092134
0.818341 0.643 0.0930648
0.817868 0.659754 0.0939803
0.81915 0.671565 0.0947585
0.823392 0.674571 0.0950332
0.828016 0.675914 0.095201
0.833005 0.676204 0.0953536
0.838499 0.675303 0.0953841
0.843885 0.674434 0.095491
0.0469673 0.621454 0.258747
0.0505837 0.619928 0.25713
0.05449 0.618173 0.25539
0.0585184 0.616083 0.253346
0.0622416 0.614054 0.251179
0.0662089 0.611856 0.249073
0.0700236 0.609628 0.247196
0.0740215 0.607538 0.245167
0.07776 0.605554 0.24303
0.0818494 0.603235 0.241047
0.0858167 0.600992 0.239414
0.0913252 0.601282 0.237903
0.102083 0.606226 0.23328
0.118669 0.615076 0.223896
0.141985 0.634028 0.210529
0.198795 0.66566 0.20705
0.277363 0.698085 0.204822
0.369039 0.72723 0.200015
0.46804 0.751797 0.193851
0.560143 0.770718 0.189502
0.621515 0.775494 0.184802
0.659266 0.758587 0.133135
0.708904 0.705333 0.0974594
0.764035 0.678859 0.0914778
0.797101 0.676707 0.0935225
0.805371 0.680751 0.094316
0.808057 0.688396 0.0950179
0.810941 0.695216 0.0956588
0.81532 0.69752 0.0958114
0.819883 0.699046 0.0958877
0.824643 0.699794 0.0959793
0.829953 0.699001 0.0958572
0.835248 0.698024 0.0957504
0.0550546 0.672175 0.274769
0.0586404 0.670665 0.273106
0.0623484 0.66862 0.271107
0.0662699 0.666316 0.268986
0.0700999 0.663966 0.266835
0.07393 0.661799 0.264668
0.0777447 0.659617 0.262669
0.0818036 0.657526 0.260731
0.0857404 0.655329 0.258747
0.0895399 0.652888 0.256611
0.0934157 0.650629 0.254734
0.0981308 0.650843 0.254597
0.107942 0.655848 0.250996
0.12459 0.66479 0.241169
0.147341 0.678904 0.225605
0.201587 0.706798 0.221164
0.276265 0.735683 0.218799
0.363607 0.761944 0.214359
0.456535 0.783581 0.208835
0.546227 0.801358 0.205173
0.616815 0.812222 0.203662
0.663569 0.814603 0.202243
0.690532 0.796078 0.147204
0.734203 0.750286 0.108476
0.779828 0.725612 0.0996719
0.793225 0.72047 0.098558
0.797223 0.723613 0.0986191
0.801999 0.723766 0.0983444
0.80766 0.721126 0.097734
0.812467 0.721599 0.0975967
0.817182 0.722301 0.0975204
0.822309 0.72192 0.0972915
0.827436 0.721065 0.0970321
0.0626688 0.719814 0.290532
0.0661631 0.718151 0.288762
0.0699016 0.716136 0.286732
0.0737621 0.713985 0.284504
0.0775769 0.711833 0.282338
0.081651 0.709804 0.280324
0.0854353 0.707683 0.278325
0.0893416 0.705287 0.276143
0.0931106 0.702876 0.27396
0.0968338 0.700313 0.271717
0.10071 0.697993 0.269627
0.105501 0.698772 0.269551
0.114092 0.703075 0.267323
0.130739 0.711788 0.257038
0.15404 0.723323 0.24097
0.205814 0.745937 0.23505
0.276997 0.770596 0.232212
0.359976 0.793469 0.228382
0.447807 0.813367 0.22414
0.532387 0.82974 0.221363
0.606439 0.843336 0.222141
0.658259 0.849393 0.223011
0.697246 0.850355 0.22298
0.715846 0.831266 0.158297
0.759762 0.790845 0.118242
0.780774 0.766445 0.106706
0.787793 0.760052 0.104448
0.792889 0.757992 0.103548
0.799588 0.750271 0.101686
0.805676 0.744579 0.100237
0.810498 0.743999 0.0997787
0.815457 0.743755 0.099382
0.820447 0.742992 0.0990005
0.0704356 0.763745 0.307607
0.0736858 0.762249 0.305531
0.0774701 0.760266 0.303349
0.0813611 0.75816 0.30106
0.0851759 0.756252 0.298863
0.0889448 0.754025 0.296437
0.0926528 0.75172 0.294209
0.0965286 0.749371 0.291844
