tracker_LUT/LUT/DJIMavicAir_RealEstate (1).cube
#Created by: Adobe Photoshop Export Color Lookup Plugin
#Copyright: (C) Copyright 2019 © Alexander Barrels
TITLE "Dcinelike.png"
#LUT size
LUT_3D_SIZE 8
#data domain
#LUT data points
DOMAIN_MIN 0.000000 0.000000 0.000000
DOMAIN_MAX 0.903226 0.903226 0.903226
0.003937 0.000000 0.000000
0.150024 0.000000 0.000000
0.283478 0.000000 0.000000
0.426575 0.000000 0.001526
0.559143 0.000000 0.000000
0.698944 0.002533 0.000000
0.823914 0.000000 0.003052
0.955353 0.000366 0.000000
0.000519 0.139282 0.000000
0.124603 0.139282 0.007843
0.288422 0.129425 0.001007
0.427673 0.118164 0.001007
0.561188 0.115753 0.002014
0.700836 0.106506 0.003418
0.825958 0.101440 0.000885
0.955353 0.092224 0.000000
0.000000 0.274628 0.000000
0.009369 0.274628 0.000000
0.258942 0.270721 0.001007
0.416443 0.274506 0.001007
0.571045 0.240356 0.000000
0.702362 0.239349 0.002014
0.833801 0.232361 0.001007
0.954193 0.227203 0.000000
0.000000 0.407562 0.001526
0.000519 0.408081 0.000519
0.177979 0.410858 0.001007
0.381897 0.404541 0.000000
0.555756 0.411865 0.000519
0.706665 0.376587 0.001404
0.834808 0.357483 0.001526
0.955719 0.353180 0.004303
0.000000 0.541443 0.000000
0.000000 0.543335 0.000000
0.003784 0.540558 0.000000
0.302582 0.541443 0.000000
0.498322 0.533478 0.003784
0.686523 0.556122 0.001892
0.828705 0.518921 0.002899
0.961151 0.478699 0.000000
0.003937 0.674255 0.003937
0.003418 0.673767 0.000000
0.002899 0.675781 0.005432
0.176666 0.672882 0.003021
0.438354 0.674255 0.003296
0.621887 0.670349 0.006439
0.805084 0.688568 0.002533
0.954712 0.650726 0.001007
0.000885 0.800385 0.000000
0.003052 0.804321 0.000000
0.004059 0.798370 0.000000
0.003296 0.803436 0.003296
0.341339 0.804169 0.002899
0.563202 0.800903 0.002533
0.739410 0.796478 0.000000
0.925354 0.819611 0.003052
0.007080 0.925110 0.000000
0.000000 0.928009 0.000000
0.000763 0.933960 0.005432
0.007080 0.931824 0.000000
0.136810 0.931580 0.000000
0.478455 0.929291 0.000000
0.678680 0.927399 0.000000
0.856934 0.923981 0.000000
0.007324 0.032898 0.120667
0.130432 0.000519 0.130920
0.277039 0.000519 0.124084
0.416809 0.000000 0.109406
0.554718 0.000519 0.105499
0.696411 0.000000 0.098541
0.823914 0.002533 0.087036
0.948395 0.000366 0.070953
0.000000 0.134857 0.121185
0.141693 0.128021 0.132446
0.274628 0.122589 0.123596
0.416809 0.116638 0.106903
0.559143 0.101959 0.102081
0.692993 0.099548 0.090179
0.818359 0.088806 0.084747
0.954834 0.077026 0.069580
0.000000 0.264374 0.142181
0.034271 0.268311 0.117249
0.248688 0.265778 0.108917
0.421356 0.245148 0.079956
0.562927 0.236816 0.077911
0.703247 0.230988 0.070587
0.832275 0.226166 0.061859
0.952301 0.225677 0.047546
0.000000 0.407074 0.111694
0.000000 0.409485 0.107788
0.174561 0.406067 0.100555
0.382904 0.404663 0.099060
0.560028 0.403656 0.028564
0.703857 0.362396 0.005432
0.829346 0.354584 0.004059
0.957764 0.350647 0.010376
0.000000 0.539917 0.088287
0.003937 0.540070 0.089172
0.003784 0.538666 0.084747
0.303589 0.541809 0.073608
0.496796 0.533600 0.066650
0.685272 0.548767 0.001892
0.831268 0.512482 0.001007
0.961823 0.474792 0.001526
0.000519 0.672363 0.062744
0.000519 0.668823 0.053619
0.000000 0.671997 0.053009
0.181854 0.673767 0.045532
0.439209 0.666931 0.034271
0.620361 0.670349 0.022766
0.809631 0.689697 0.000885
0.951935 0.652527 0.000000
0.003052 0.799377 0.022888
0.000000 0.804932 0.026062
0.005066 0.801270 0.015686
0.003540 0.801270 0.013641
0.341583 0.804810 0.003021
0.565979 0.799500 0.004059
0.742950 0.793060 0.003143
0.928772 0.817474 0.002533
0.000000 0.931427 0.001526
0.006439 0.931061 0.001007
0.001892 0.933075 0.000763
0.002533 0.931702 0.000000
0.133270 0.926758 0.002014
0.482239 0.928772 0.003052
0.685028 0.924988 0.000000
0.854156 0.923981 0.000366
0.000000 0.091217 0.242249
0.005951 0.011261 0.243378
0.256042 0.000000 0.258942
0.404541 0.000519 0.258423
0.546509 0.000000 0.248169
0.689941 0.001526 0.233521
0.817078 0.001007 0.231354
0.944214 0.003540 0.223663
0.002899 0.175568 0.244263
0.058319 0.145721 0.256409
0.258423 0.115753 0.258423
0.401245 0.110321 0.262360
0.553223 0.074127 0.250580
0.688171 0.058990 0.230621
0.818970 0.081970 0.226562
0.950409 0.069702 0.227203
0.000000 0.261841 0.252991
0.106384 0.261841 0.251617
0.259827 0.260834 0.262878
0.407074 0.248566 0.241364
0.549408 0.234406 0.233398
0.694885 0.229095 0.230621
0.823029 0.221619 0.225555
0.952423 0.214294 0.213531
0.000000 0.394806 0.265381
0.063629 0.397705 0.269684
0.193176 0.399628 0.243774
0.382141 0.394287 0.244659
0.559052 0.376709 0.204926
0.699310 0.352539 0.191772
0.829224 0.347748 0.198120
0.952057 0.348236 0.196564
0.002014 0.532593 0.258942
0.000519 0.535126 0.242371
0.009979 0.536499 0.235413
0.305969 0.533600 0.224792
0.502228 0.532593 0.227570
0.687775 0.537018 0.190247
0.830750 0.492493 0.155090
0.962189 0.470367 0.158356
0.002899 0.668823 0.231995
0.002777 0.668060 0.228088
0.002014 0.667938 0.228088
0.175903 0.671356 0.222260
0.437836 0.667053 0.222137
0.623810 0.665039 0.221252
0.808228 0.677795 0.174683
0.956604 0.639496 0.130798
0.004791 0.798492 0.214935
0.000885 0.799011 0.212372
0.000000 0.800385 0.210602
0.006317 0.800903 0.212250
0.342346 0.799500 0.205048
0.558777 0.800751 0.204041
0.742584 0.797363 0.198090
0.928528 0.814301 0.140656
0.004547 0.923981 0.205688
0.004059 0.924866 0.206451
0.001770 0.929413 0.204041
0.003052 0.929810 0.204315
0.126434 0.929810 0.188751
0.481354 0.928894 0.191772
0.682983 0.925110 0.182404
0.859222 0.922821 0.178223
0.001526 0.134857 0.369873
0.000000 0.061340 0.369751
0.171143 0.007324 0.376190
0.382538 0.000000 0.391266
0.530701 0.000000 0.390381
0.677826 0.000000 0.389496
0.814301 0.000885 0.372284
0.943970 0.001526 0.352173
0.000000 0.214783 0.364838
0.003418 0.181519 0.370880
0.169128 0.133850 0.382904
0.384552 0.093109 0.389862
0.530701 0.088165 0.388855
0.673401 0.044128 0.385071
0.818115 0.001526 0.374939
0.944336 0.001526 0.349121
0.000000 0.308014 0.361023
0.003540 0.302094 0.365845
0.209869 0.277527 0.382019
0.383026 0.246155 0.385956
0.533966 0.240356 0.392792
0.681610 0.227448 0.373169
0.819611 0.206055 0.362427
0.948914 0.228455 0.358887
0.001526 0.394287 0.382538
0.031891 0.398712 0.387451
0.238831 0.393280 0.382019
0.388855 0.387085 0.387970
0.540436 0.372650 0.376068
0.684631 0.360504 0.362793
0.824554 0.352661 0.355713
0.948639 0.345215 0.348755
0.003937 0.526276 0.396179
0.000000 0.523346 0.396698
0.207092 0.524231 0.394806
0.322296 0.532471 0.376953
0.507294 0.522858 0.368500
0.684143 0.509552 0.335114
0.833405 0.472260 0.312561
0.959778 0.467834 0.317902
0.000000 0.658691 0.413910
0.004456 0.658203 0.408112
0.007202 0.660217 0.386444
0.231720 0.664673 0.367859
0.439362 0.664398 0.363434
0.629211 0.663147 0.356110
0.810760 0.664520 0.324219
0.958771 0.618988 0.288422
0.001526 0.793427 0.379486
0.002411 0.792053 0.377228
0.002014 0.794312 0.362396
0.006958 0.794952 0.353577
0.341705 0.797852 0.356476
0.568909 0.795441 0.350281
0.747894 0.791656 0.343323
0.931580 0.801514 0.304108
0.001526 0.926880 0.355225
0.001007 0.930817 0.356720
0.004791 0.924469 0.354706
0.004822 0.925995 0.348114
0.147797 0.928284 0.339905
0.480225 0.927521 0.342804
0.688446 0.925873 0.336975
0.864014 0.923981 0.333069
0.000000 0.178619 0.490479
0.000000 0.140289 0.491974
0.000000 0.060852 0.500214
0.310547 0.001892 0.509552
0.511963 0.002014 0.514008
0.653900 0.001404 0.520447
0.802429 0.000000 0.520966
0.941681 0.000000 0.510590
0.000519 0.248718 0.492493
0.000000 0.224548 0.493866
0.004425 0.149017 0.505127
0.302185 0.115265 0.511230
0.513489 0.045013 0.517029
0.657684 0.019073 0.519318
0.799622 0.005432 0.521210
0.938629 0.001526 0.504242
0.000000 0.349274 0.485535
0.001526 0.339417 0.492859
0.077087 0.299164 0.504120
0.313202 0.258301 0.510071
0.511078 0.230469 0.515869
0.658325 0.225525 0.515015
0.800385 0.217712 0.517914
0.935089 0.190765 0.501343
0.000000 0.432495 0.490845
0.002014 0.435394 0.493378
0.194031 0.433533 0.496796
0.340271 0.404541 0.507050
0.517914 0.374176 0.517395
0.660095 0.372681 0.519806
0.805817 0.361023 0.506042
0.942566 0.341278 0.491974
0.003937 0.529694 0.508057
0.002411 0.523346 0.508179
0.200104 0.524750 0.507019
0.371155 0.519928 0.506805
0.517914 0.513855 0.515900
0.674896 0.500336 0.503754
0.817352 0.486542 0.484650
0.951813 0.475159 0.477570
0.004791 0.652771 0.520172
0.003937 0.652374 0.520813
0.164795 0.654663 0.525146
0.346222 0.651733 0.529816
0.457581 0.657196 0.502228
0.631622 0.654419 0.497681
0.815063 0.634308 0.456177
0.964081 0.594055 0.430115
0.000000 0.786713 0.535492
0.000519 0.785706 0.537384
0.104980 0.782806 0.534607
0.260864 0.788116 0.517914
0.384460 0.790527 0.496277
0.574982 0.793427 0.488190
0.756226 0.788635 0.482635
0.936737 0.790771 0.450867
0.004425 0.917267 0.554718
0.000000 0.918152 0.551178
0.003906 0.920044 0.518311
0.004547 0.923981 0.485016
0.259491 0.924347 0.483521
0.489319 0.925354 0.484009
0.689941 0.921936 0.480347
0.869598 0.919678 0.480713
0.000000 0.232513 0.615448
0.002014 0.204559 0.629242
0.000000 0.102478 0.627350
0.152222 0.051117 0.631256
0.447327 0.000000 0.644928
0.638977 0.001404 0.649353
0.781281 0.005585 0.647949
0.927277 0.002899 0.645813
0.000000 0.288422 0.618622
0.003418 0.262360 0.623932
0.001404 0.192657 0.632141
0.147949 0.145599 0.633911
0.446320 0.082336 0.641144
0.638977 0.001404 0.649353
0.787109 0.000000 0.651367
0.920441 0.003540 0.649475
0.000000 0.389862 0.615448
0.001526 0.375702 0.620880
0.001526 0.333466 0.628357
0.148956 0.270325 0.634155
0.443909 0.241364 0.643036
0.641510 0.204926 0.649353
0.786346 0.198090 0.646057
0.927032 0.185699 0.645416
0.004944 0.482605 0.615448
0.003937 0.481598 0.615936
0.027893 0.471710 0.618866
0.254211 0.428558 0.630890
0.442139 0.384918 0.643402
0.639618 0.357971 0.646454
0.790497 0.355591 0.649475
0.925873 0.348267 0.640625
0.002014 0.565491 0.623413
0.000519 0.565979 0.623413
0.096863 0.564453 0.620239
0.327087 0.559540 0.626068
0.468079 0.534119 0.632263
0.643524 0.504120 0.649475
0.786865 0.501709 0.651001
0.931824 0.487061 0.637573
0.006439 0.661102 0.640106
0.000000 0.659210 0.638214
0.092072 0.659729 0.639252
0.332062 0.656158 0.637939
0.498810 0.651886 0.643768
0.649353 0.644043 0.640350
0.797485 0.633148 0.625305
0.934204 0.620880 0.612274
0.000519 0.778748 0.638580
0.001007 0.783325 0.642120
0.005035 0.785065 0.646576
0.302795 0.788757 0.645294
0.478577 0.786102 0.655792
0.593689 0.787231 0.632782
0.760651 0.778748 0.628479
0.943085 0.765472 0.595093
0.000000 0.913605 0.655029
0.000763 0.916779 0.660583
0.002777 0.912720 0.659332
0.284332 0.912201 0.666168
0.427612 0.917145 0.649353
0.524384 0.923584 0.632263
0.698944 0.920044 0.621887
0.875000 0.913605 0.620117
0.000885 0.299316 0.745483
0.000000 0.264404 0.746887
0.004059 0.187347 0.749268
0.000000 0.101959 0.765717
0.324615 0.001892 0.765228
0.582062 0.000000 0.772949
0.765106 0.000885 0.779907
0.909180 0.000000 0.780273
0.003418 0.333466 0.751953
0.000885 0.313843 0.752808
0.000000 0.259827 0.756378
0.001770 0.176086 0.761047
0.327667 0.121185 0.768127
0.577118 0.003418 0.767365
0.765594 0.001404 0.774445
0.914734 0.002899 0.775970
0.002014 0.427704 0.748535
0.000000 0.410370 0.747009
0.000000 0.369629 0.756989
0.002899 0.286407 0.757751
0.326538 0.258057 0.763336
0.573303 0.209351 0.773315
0.766998 0.148987 0.779755
0.913727 0.128876 0.777374
0.000000 0.521301 0.740936
0.001526 0.519775 0.744476
0.007477 0.504730 0.747375
0.027527 0.458557 0.762695
0.329956 0.393036 0.763458
0.578613 0.361389 0.775604
0.765991 0.333954 0.778381
0.916138 0.326111 0.779510
0.000000 0.615204 0.741699
0.000000 0.613678 0.737122
0.003052 0.614044 0.742554
0.232758 0.596985 0.750824
0.401428 0.554230 0.763062
0.573822 0.509552 0.767761
0.770020 0.486664 0.775970
0.919434 0.482483 0.771027
0.002533 0.694885 0.752441
0.000519 0.696411 0.754486
0.003052 0.693237 0.757019
0.258545 0.693115 0.751434
0.459991 0.689056 0.760040
0.608002 0.661102 0.765106
0.771027 0.635681 0.775970
0.917023 0.631500 0.774445
0.003937 0.792542 0.762054
0.003937 0.792542 0.762054
0.001007 0.793701 0.763184
0.255127 0.794067 0.764465
0.455292 0.785583 0.776093
0.625305 0.779633 0.777222
0.776855 0.775085 0.775970
0.927887 0.761169 0.764587
0.003540 0.915619 0.768646
0.002899 0.914856 0.767761
0.005432 0.907776 0.768005
0.203247 0.908783 0.771027
0.439880 0.908295 0.769379
0.612030 0.912720 0.780792
0.722717 0.913208 0.767365
0.888184 0.912598 0.760406
0.000000 0.394928 0.880829
0.003052 0.370911 0.884369
0.000366 0.304260 0.885132
0.001526 0.144226 0.894775
0.002411 0.054260 0.891479
0.471741 0.001404 0.899811
0.715759 0.003052 0.910583
0.892975 0.003937 0.908661
0.000000 0.378113 0.876526
0.000000 0.361298 0.880341
0.000000 0.315765 0.880066
0.004822 0.193665 0.885132
0.002655 0.143951 0.892853
0.472870 0.010864 0.901855
0.712738 0.000000 0.911591
0.893097 0.003052 0.911835
0.001404 0.464630 0.884369
0.002533 0.448334 0.882996
0.000366 0.412018 0.879059
0.004059 0.328522 0.888672
0.001007 0.271698 0.897034
0.466827 0.217072 0.900574
0.711578 0.099274 0.902466
0.891602 0.002533 0.907532
0.003540 0.564575 0.875397
0.000519 0.556976 0.875641
0.002411 0.538635 0.880066
0.001526 0.486908 0.885529
0.002930 0.399597 0.892731
0.467316 0.364685 0.897278
0.704742 0.313843 0.904999
0.900055 0.259552 0.906647
0.002014 0.656677 0.874146
0.001526 0.653137 0.872864
0.000000 0.647461 0.877686
0.001892 0.632782 0.874542
0.280609 0.579773 0.885529
0.469727 0.512970 0.899414
0.700592 0.478058 0.900818
0.896515 0.445801 0.909790
0.000000 0.741577 0.877533
0.002899 0.743713 0.880066
0.002899 0.744476 0.880463
0.022736 0.741058 0.877533
0.368286 0.721313 0.882233
0.537018 0.681091 0.897430
0.709198 0.634674 0.906403
0.897522 0.610138 0.904358
0.000885 0.825806 0.884247
0.000000 0.824921 0.883362
0.000366 0.825806 0.882751
0.027405 0.822784 0.887787
0.391815 0.821869 0.886536
0.584076 0.821014 0.884247
0.731964 0.788635 0.894104
0.900330 0.758118 0.901825
0.003540 0.932190 0.893372
0.000519 0.934113 0.893616
0.002899 0.930420 0.897034
0.000000 0.924347 0.895660
0.375366 0.919922 0.894501
0.585480 0.915741 0.898682
0.748383 0.911713 0.896515
0.904755 0.903992 0.904358
