tracker_LUT/LUT/DJIMavicAir_RealEstate (1).cube
#Created by: Adobe Photoshop Export Color Lookup Plugin
#Copyright: (C) Copyright 2019 © Alexander Barrels
TITLE "Dcinelike.png"
#LUT size
LUT_3D_SIZE 5
#data domain
#LUT data points
DOMAIN_MIN 0.000000 0.000000 0.000000
DOMAIN_MAX 0.903226 0.903226 0.903226
0.003937 0.000000 0.000000
0.251862 0.000000 0.000000
0.495514 0.002167 0.002167
0.732208 0.002655 0.000000
0.955353 0.000366 0.000000
0.000000 0.238831 0.000885
0.220490 0.240601 0.003937
0.493835 0.212646 0.003540
0.731323 0.209595 0.002136
0.952698 0.197968 0.003052
0.002167 0.477661 0.000000
0.002655 0.473724 0.000000
0.430603 0.471954 0.002167
0.734863 0.457672 0.001770
0.957886 0.417053 0.000366
0.002655 0.706024 0.007843
0.000885 0.704376 0.000885
0.302032 0.706024 0.000000
0.650970 0.700836 0.000000
0.941803 0.696533 0.000885
0.007080 0.925110 0.000000
0.000000 0.931427 0.000000
0.000000 0.931427 0.000000
0.532959 0.930542 0.000000
0.856934 0.923981 0.000000
0.000000 0.075378 0.208344
0.222260 0.000000 0.217957
0.481567 0.000885 0.224426
0.723480 0.000885 0.198364
0.948395 0.003937 0.191406
0.000000 0.230988 0.222260
0.229218 0.224915 0.227051
0.485107 0.208740 0.210480
0.731323 0.193909 0.193542
0.950409 0.180878 0.180756
0.000885 0.468933 0.230103
0.018738 0.466766 0.205292
0.434906 0.466766 0.198730
0.733459 0.433624 0.132935
0.958771 0.407959 0.134735
0.000000 0.700073 0.192657
0.001770 0.701721 0.183411
0.300262 0.703491 0.179626
0.650726 0.695648 0.169495
0.944824 0.687805 0.067017
0.000000 0.926636 0.164703
0.002655 0.924866 0.162170
0.003052 0.928284 0.154694
0.532227 0.927002 0.143829
0.858063 0.925385 0.128143
0.002167 0.154694 0.431366
0.004303 0.047943 0.439331
0.451965 0.003937 0.451965
0.699066 0.003021 0.451477
0.940033 0.000000 0.432373
0.000000 0.305481 0.424042
0.069214 0.263245 0.436676
0.444122 0.202637 0.450195
0.705139 0.189117 0.454132
0.945740 0.139893 0.430084
0.003937 0.459808 0.448425
0.173920 0.459808 0.447662
0.454529 0.454529 0.454529
0.712585 0.429718 0.426178
0.951813 0.412750 0.412781
0.002655 0.689972 0.471069
0.094086 0.689453 0.475494
0.332031 0.694244 0.429718
0.655548 0.694763 0.417572
0.957123 0.654663 0.363037
0.001770 0.923981 0.451599
0.001648 0.923096 0.420105
0.005341 0.923981 0.417053
0.540924 0.926636 0.413635
0.871216 0.920044 0.410980
0.000000 0.245789 0.647186
0.000000 0.159515 0.659088
0.288879 0.008759 0.669464
0.672119 0.002655 0.679962
0.920441 0.001251 0.675018
0.001770 0.372284 0.649841
0.001251 0.325989 0.656799
0.291046 0.230103 0.665527
0.665924 0.149017 0.679077
0.923096 0.120300 0.677307
0.000000 0.537384 0.649475
0.003418 0.535614 0.645935
0.351257 0.484619 0.668182
0.673889 0.423645 0.676941
0.925751 0.421875 0.681213
0.002655 0.696899 0.672119
0.002655 0.690338 0.670715
0.403534 0.683380 0.671600
0.677307 0.674774 0.676025
0.936615 0.654541 0.653381
0.000000 0.913483 0.683746
0.001770 0.914856 0.690460
0.375183 0.913849 0.692352
0.577484 0.920929 0.661621
0.881714 0.915253 0.656799
0.000000 0.394928 0.880829
0.000000 0.330048 0.886536
0.003540 0.109833 0.893982
0.538666 0.000000 0.899048
0.892975 0.003937 0.908661
0.000366 0.436676 0.876404
0.002655 0.394806 0.885651
0.000885 0.256165 0.889954
0.530060 0.150635 0.897278
0.887665 0.006592 0.909546
0.003540 0.604919 0.875153
0.003937 0.597473 0.878693
0.006073 0.529663 0.881989
0.526520 0.430206 0.896149
0.894348 0.354706 0.908661
0.001251 0.761810 0.879944
0.001770 0.762299 0.874756
0.258667 0.759796 0.877045
0.587860 0.709167 0.892609
0.902222 0.645935 0.906281
0.003540 0.932190 0.893372
0.003937 0.931427 0.900055
0.234619 0.927124 0.896149
0.624542 0.913086 0.903595
0.904755 0.903992 0.904358
