tracker_LUT/LUT/DJIMavicAir_RealEstate (1).cube
#Created by: Adobe Photoshop Export Color Lookup Plugin
#Copyright: (C) Copyright 2019 © Alexander Barrels
TITLE "Dcinelike.png"
#LUT size
LUT_3D_SIZE 32
#data domain
DOMAIN_MIN 0.0 0.0 0.0
DOMAIN_MAX 1.0 1.0 1.0
#LUT data points
0.003937 0.000000 0.000000
0.035919 0.003784 0.003784
0.075775 0.003662 0.003662
0.103088 0.000366 0.000000
0.150024 0.000000 0.000000
0.175079 0.000000 0.000000
0.216309 0.000000 0.007843
0.251862 0.000000 0.000000
0.283478 0.000000 0.000000
0.315491 0.000000 0.000000
0.350006 0.005310 0.001251
0.389618 0.001404 0.000000
0.426575 0.000000 0.001526
0.455261 0.001648 0.001648
0.495514 0.002167 0.002167
0.527130 0.002014 0.000000
0.559143 0.000000 0.000000
0.596863 0.000000 0.001770
0.628082 0.000000 0.000000
0.656677 0.006317 0.002411
0.698944 0.002533 0.000000
0.732208 0.002655 0.000000
0.763580 0.000000 0.000000
0.795959 0.003937 0.000000
0.823914 0.000000 0.003052
0.858948 0.003174 0.000000
0.891602 0.003296 0.006592
0.923462 0.003937 0.007324
0.955353 0.000366 0.000000
0.987213 0.003937 0.000244
0.996063 0.000000 0.000000
0.996063 0.000000 0.000000
0.000000 0.035675 0.000000
0.031891 0.035919 0.003937
0.075531 0.035797 0.000122
0.107635 0.028320 0.000000
0.146729 0.027954 0.000000
0.180145 0.025299 0.000122
0.219482 0.030365 0.000000
0.255646 0.024933 0.000763
0.288300 0.024170 0.000122
0.318268 0.027832 0.001007
0.354065 0.024170 0.000000
0.393677 0.023895 0.002655
0.419464 0.018585 0.001404
0.457672 0.019470 0.007721
0.493347 0.019989 0.002167
0.528748 0.012268 0.000122
0.557129 0.014282 0.001892
0.593170 0.008362 0.002014
0.624817 0.008484 0.000000
0.664398 0.008087 0.002289
0.700317 0.004303 0.000000
0.729553 0.000244 0.000000
0.766235 0.002777 0.001129
0.795959 0.001129 0.002777
0.823914 0.000000 0.000000
0.859711 0.003937 0.000763
0.888184 0.000122 0.000000
0.923340 0.004059 0.000000
0.951294 0.000122 0.000000
0.983307 0.000000 0.000000
0.996063 0.000000 0.000000
0.996063 0.000000 0.000000
0.000000 0.064270 0.000244
0.019623 0.071350 0.000122
0.063751 0.075256 0.007324
0.103729 0.068176 0.000519
0.146851 0.063995 0.000000
0.186829 0.059570 0.006958
0.222626 0.056915 0.000244
0.249329 0.063263 0.000244
0.283234 0.056427 0.000000
0.323090 0.059570 0.000244
0.357239 0.056427 0.000244
0.390381 0.058197 0.004791
0.416931 0.056061 0.003937
0.462616 0.049957 0.004181
0.488403 0.054382 0.000000
0.523438 0.048065 0.000000
0.561035 0.044159 0.001892
0.589661 0.045929 0.000000
0.630768 0.042511 0.000000
0.664673 0.041992 0.000000
0.701477 0.034271 0.001404
0.730438 0.031372 0.000000
0.764069 0.027313 0.002777
0.795715 0.023132 0.000244
0.824158 0.019989 0.000000
0.860718 0.016937 0.000000
0.891327 0.012787 0.003052
0.926636 0.008850 0.003418
0.947632 0.004547 0.000000
0.983307 0.001251 0.000000
0.996063 0.001007 0.000000
1.000000 0.004181 0.004181
0.000000 0.107391 0.000000
0.004059 0.100311 0.000000
0.047821 0.103851 0.000000
0.091705 0.103485 0.000366
0.135986 0.108032 0.000366
0.183167 0.103088 0.006836
0.219482 0.092102 0.000000
0.258423 0.092102 0.000763
0.283234 0.092102 0.000641
0.317902 0.093353 0.002777
0.358368 0.088562 0.003418
0.390503 0.088806 0.000000
0.419952 0.087799 0.000366
0.455658 0.086517 0.000000
0.500946 0.085266 0.001770
0.529510 0.086517 0.000000
0.562714 0.083862 0.001648
0.591522 0.081726 0.000000
0.628723 0.080322 0.000366
0.665039 0.079956 0.000000
0.699310 0.073883 0.000366
0.729919 0.076904 0.001251
0.764465 0.071716 0.001129
0.792053 0.064636 0.000000
0.821259 0.064270 0.000366
0.857300 0.061096 0.000000
0.887665 0.056793 0.000641
0.923462 0.052887 0.000000
0.954590 0.049713 0.000000
0.986603 0.042358 0.000000
0.999481 0.041107 0.000000
1.000000 0.029724 0.000366
0.000519 0.139282 0.000000
0.000366 0.139404 0.000000
0.020111 0.139526 0.000000
0.083099 0.138763 0.007721
0.124603 0.139282 0.007843
0.178741 0.146606 0.000519
0.218201 0.139771 0.000244
0.256531 0.128510 0.003052
0.288422 0.129425 0.001007
0.323822 0.120300 0.000000
0.358246 0.122833 0.004181
0.386078 0.120544 0.003052
0.427673 0.118164 0.001007
0.458679 0.113464 0.000000
0.498016 0.113098 0.001251
0.531036 0.113220 0.000519
0.561188 0.115753 0.002014
0.596863 0.116241 0.001007
0.631653 0.111816 0.001770
0.665039 0.110321 0.002899
0.700836 0.106506 0.003418
0.731689 0.107910 0.002167
0.767487 0.104492 0.000519
0.792542 0.105988 0.002533
0.825958 0.101440 0.000885
0.859711 0.100067 0.000000
0.888794 0.096649 0.000000
0.922455 0.093231 0.000000
0.955353 0.092224 0.000000
0.987976 0.088562 0.000763
0.999878 0.087799 0.000519
0.996582 0.084869 0.001007
0.006592 0.172424 0.004547
0.003296 0.175079 0.003296
0.003784 0.175079 0.000000
0.055420 0.168121 0.003937
0.108276 0.175079 0.007202
0.152191 0.170532 0.006592
0.210480 0.176331 0.003296
0.249969 0.175079 0.003052
0.292847 0.169769 0.000000
0.326630 0.158264 0.001129
0.360657 0.154205 0.001251
0.385956 0.152313 0.002777
0.425934 0.154572 0.001526
0.459198 0.148621 0.000000
0.498413 0.149384 0.001770
0.522552 0.149506 0.003296
0.563568 0.147614 0.002014
0.598389 0.145844 0.001526
0.630371 0.147614 0.000000
0.664520 0.145477 0.004181
0.703613 0.141174 0.002533
0.736877 0.142426 0.004059
0.763947 0.137634 0.002167
0.794312 0.136871 0.000000
0.826080 0.137360 0.000641
0.857697 0.133331 0.001251
0.894257 0.131317 0.003296
0.924744 0.128632 0.000641
0.955353 0.127625 0.006195
0.983551 0.124969 0.000244
0.999756 0.120941 0.000641
0.996063 0.117523 0.000000
0.000763 0.203796 0.006317
0.000000 0.206329 0.003296
0.000763 0.206940 0.000000
0.028717 0.207336 0.000000
0.090942 0.210114 0.000000
0.144196 0.210114 0.003784
0.179504 0.207703 0.000000
0.243011 0.215546 0.000885
0.283478 0.213776 0.000244
0.319031 0.200623 0.000763
0.352173 0.198364 0.002655
0.392151 0.188232 0.000763
0.431244 0.181763 0.001526
0.462982 0.180389 0.002289
0.492462 0.180511 0.000000
0.535217 0.174316 0.001892
0.566254 0.178986 0.006561
0.600006 0.175568 0.000000
0.631775 0.178741 0.003937
0.660461 0.177216 0.003174
0.701080 0.173035 0.000000
0.734100 0.178253 0.000000
0.766113 0.174835 0.004059
0.793060 0.171661 0.002167
0.825439 0.168488 0.011139
0.859711 0.164581 0.000763
0.894135 0.167114 0.003174
0.919556 0.164581 0.000000
0.957367 0.163422 0.000000
0.990387 0.159882 0.000000
0.996063 0.156738 0.000000
1.000000 0.153564 0.003174
0.000000 0.238831 0.000885
0.003052 0.242004 0.003937
0.003052 0.242737 0.003937
0.006073 0.239716 0.003052
0.061981 0.239716 0.000519
0.120544 0.242126 0.003296
0.169250 0.238831 0.000763
0.220490 0.240601 0.003937
0.281708 0.246796 0.000885
0.319153 0.246155 0.000000
0.348236 0.241119 0.000366
0.393799 0.227448 0.000000
0.434387 0.223389 0.001770
0.466034 0.213776 0.000000
0.493835 0.212646 0.003540
0.531036 0.213409 0.002899
0.563202 0.209076 0.000000
0.601257 0.208740 0.002167
0.636047 0.207703 0.003052
0.666931 0.205933 0.000000
0.702606 0.205811 0.001648
0.731323 0.209595 0.002136
0.768005 0.206451 0.000000
0.794067 0.204559 0.000000
0.826569 0.197449 0.000000
0.865906 0.201904 0.000000
0.891602 0.201782 0.000641
0.923462 0.195679 0.000885
0.952698 0.197968 0.003052
0.988098 0.194794 0.000000
0.996063 0.192657 0.000885
0.999115 0.192657 0.000000
0.000000 0.274628 0.000000
0.001007 0.274628 0.005829
0.000763 0.271729 0.002899
0.003296 0.272339 0.000000
0.009369 0.274628 0.000000
0.102203 0.274994 0.000641
0.154694 0.273865 0.000000
0.204285 0.270721 0.000000
0.258942 0.270721 0.001007
0.304626 0.279816 0.001007
0.350403 0.283234 0.000519
0.387726 0.275787 0.008362
0.416443 0.274506 0.001007
0.462494 0.260956 0.002289
0.494110 0.250580 0.000000
0.531921 0.242249 0.005951
0.571045 0.240356 0.000000
0.600769 0.242249 0.000000
0.638458 0.243256 0.004181
0.670959 0.240845 0.001526
0.702362 0.239349 0.002014
0.731567 0.239349 0.000000
0.768005 0.237183 0.000000
0.796967 0.234528 0.000000
0.833801 0.232361 0.001007
0.860992 0.231506 0.004181
0.891602 0.232513 0.002289
0.922089 0.229095 0.003418
0.954193 0.227203 0.000000
0.989258 0.223663 0.000244
0.999878 0.225433 0.005707
0.994171 0.219727 0.001007
0.000000 0.305359 0.002777
0.000000 0.306519 0.000000
0.002014 0.306244 0.002777
0.000000 0.306122 0.000000
0.000000 0.309784 0.000000
0.051117 0.301453 0.000000
0.135376 0.307648 0.002777
0.186584 0.305634 0.001129
0.236298 0.306519 0.003784
0.275146 0.302582 0.000000
0.334839 0.314484 0.000000
0.387329 0.318024 0.000000
0.418213 0.316376 0.000366
0.453613 0.306519 0.000000
0.491821 0.295258 0.002258
0.534973 0.284241 0.004181
0.566864 0.276276 0.000000
0.605713 0.273987 0.000000
0.640503 0.272339 0.002258
0.671234 0.272736 0.004059
0.700073 0.272858 0.006958
0.732086 0.270081 0.001251
0.768005 0.268433 0.000000
0.801788 0.267944 0.000000
0.832520 0.261475 0.001892
0.864014 0.262604 0.000000
0.894379 0.263367 0.003296
0.921814 0.259949 0.000000
0.956482 0.259460 0.001129
0.984955 0.258575 0.000000
0.996063 0.258301 0.001129
0.998871 0.252747 0.001129
0.001251 0.339661 0.000000
0.005310 0.342316 0.002655
0.000000 0.339661 0.002533
0.000366 0.341034 0.001648
0.002258 0.340790 0.003296
0.011139 0.339661 0.000000
0.097656 0.340271 0.000763
0.170898 0.338898 0.000885
0.217957 0.340912 0.000000
0.273865 0.340790 0.005310
0.312195 0.341034 0.002655
0.359131 0.346466 0.001251
0.412903 0.359894 0.002533
0.452362 0.347107 0.001129
0.494598 0.339539 0.008728
0.525208 0.333832 0.000000
0.563843 0.321289 0.000000
0.602020 0.312561 0.000000
0.638855 0.304718 0.000000
0.679077 0.301575 0.001129
0.701599 0.301941 0.000000
0.732208 0.300446 0.000000
0.770660 0.297913 0.001129
0.803802 0.296509 0.003540
0.830505 0.295258 0.000000
0.864899 0.292084 0.000000
0.895508 0.294617 0.001251
0.923462 0.289185 0.001251
0.959656 0.292206 0.005554
0.988220 0.286133 0.003662
0.996063 0.286133 0.002655
0.998749 0.286133 0.006592
0.000000 0.375580 0.000000
0.001526 0.374176 0.000000
0.002533 0.374176 0.000244
0.001007 0.373810 0.001007
0.000519 0.374176 0.005066
0.002533 0.376190 0.003174
0.045166 0.371643 0.003540
0.141052 0.372803 0.000519
0.197968 0.373047 0.002533
0.248566 0.370758 0.000000
0.298920 0.372772 0.001404
0.340271 0.375336 0.001404
0.393524 0.377106 0.000366
0.456543 0.390106 0.004547
0.491180 0.383789 0.000763
0.520416 0.377838 0.001526
0.566132 0.366455 0.003296
0.597473 0.361664 0.001404
0.642761 0.348633 0.000885
0.673523 0.336487 0.003021
0.701721 0.332428 0.003662
0.733582 0.332428 0.001251
0.771912 0.332184 0.001129
0.801270 0.326599 0.001007
0.830383 0.329407 0.000000
0.862488 0.327118 0.001770
0.891602 0.323822 0.001892
0.928040 0.321808 0.004059
0.957123 0.320679 0.001404
0.992523 0.321808 0.003662
0.997467 0.317902 0.003937
0.997467 0.317902 0.003937
0.000000 0.407562 0.001526
0.002411 0.408478 0.002411
0.002411 0.406555 0.000244
0.000000 0.407562 0.001526
0.000519 0.408081 0.000519
0.005066 0.403015 0.004547
0.005432 0.409973 0.002411
0.098053 0.409973 0.005676
0.177979 0.410858 0.001007
0.241119 0.409607 0.002411
0.283600 0.408722 0.000244
0.333069 0.406067 0.000000
0.381897 0.404541 0.000000
0.418182 0.407959 0.003296
0.478149 0.421997 0.002014
0.517120 0.419342 0.000000
0.555756 0.411865 0.000519
0.597717 0.408691 0.001526
0.633423 0.396698 0.003784
0.670227 0.387085 0.000000
0.706665 0.376587 0.001404
0.734985 0.368347 0.000000
0.770660 0.362915 0.003021
0.806702 0.360016 0.006836
0.834808 0.357483 0.001526
0.866669 0.357483 0.000763
0.896149 0.356842 0.000000
0.930298 0.357086 0.000000
0.955719 0.353180 0.004303
0.989624 0.351166 0.000000
0.996979 0.349640 0.000000
0.996063 0.348755 0.001526
0.000000 0.445770 0.001648
0.005554 0.437927 0.001648
0.005951 0.442108 0.006439
0.000366 0.443115 0.003937
0.006836 0.440216 0.007324
0.003540 0.439972 0.002899
0.002289 0.440460 0.000000
0.035400 0.442505 0.000885
0.144470 0.440857 0.002014
0.216583 0.436798 0.002289
0.267181 0.446167 0.002289
0.313446 0.438202 0.002777
0.356842 0.440216 0.000000
0.412140 0.437286 0.003937
0.452728 0.441589 0.000000
0.515228 0.459442 0.001648
0.553833 0.456909 0.008087
0.593445 0.450836 0.001770
0.632019 0.439575 0.000000
0.672272 0.430847 0.000000
0.705139 0.421356 0.004181
0.736115 0.412384 0.001648
0.770294 0.400848 0.000000
0.805084 0.391235 0.001007
0.837067 0.391113 0.000000
0.865265 0.386963 0.000000
0.895508 0.390259 0.000000
0.926758 0.383545 0.001648
0.957001 0.384674 0.000000
0.993439 0.383026 0.002014
0.998352 0.379120 0.002289
0.998352 0.379120 0.002289
0.002167 0.477661 0.000000
0.002289 0.475769 0.000000
0.000000 0.475494 0.002167
0.000000 0.475494 0.002167
0.002167 0.477661 0.004303
0.003418 0.472717 0.002167
0.003540 0.478058 0.000000
0.002655 0.473724 0.000000
0.094879 0.472992 0.003021
0.179749 0.475250 0.003418
0.243134 0.472076 0.000000
0.299683 0.467285 0.001404
0.345856 0.473724 0.000000
0.392151 0.469421 0.000000
0.430603 0.471954 0.002167
0.490295 0.471954 0.000000
0.543976 0.493347 0.001892
0.585846 0.488647 0.003540
0.623047 0.485107 0.001648
0.663147 0.475983 0.003540
0.699310 0.461975 0.003540
0.734863 0.457672 0.001770
0.769135 0.446411 0.000000
0.800629 0.439056 0.000000
0.837433 0.424530 0.003540
0.870361 0.419220 0.001770
0.900970 0.416168 0.002411
0.931305 0.414917 0.003540
0.957886 0.417053 0.000366
0.991272 0.412750 0.001770
0.999878 0.407593 0.000000
1.000000 0.408844 0.001770
0.000000 0.511444 0.005829
0.002167 0.505737 0.004059
0.004059 0.507629 0.004059
0.002014 0.509796 0.000000
0.000000 0.509033 0.001892
0.005188 0.507507 0.000000
0.000763 0.509521 0.001526
0.001892 0.509521 0.002014
0.012115 0.508514 0.001892
0.142700 0.505493 0.000763
0.221497 0.510162 0.000000
0.278809 0.509521 0.000000
0.337128 0.507507 0.001526
0.378876 0.507263 0.001648
0.424408 0.505493 0.000000
0.470306 0.507507 0.001892
0.510742 0.507904 0.000000
0.572083 0.527374 0.000275
0.618591 0.527130 0.000000
0.653290 0.519897 0.001892
0.691986 0.510803 0.000000
0.725616 0.503448 0.000000
0.765228 0.492828 0.001892
0.800903 0.482971 0.001007
0.832916 0.471344 0.001892
0.870087 0.459167 0.001282
0.898926 0.449310 0.000000
0.937775 0.444763 0.003784
0.962677 0.442627 0.001648
0.996704 0.441223 0.001770
0.999878 0.439087 0.002014
0.997986 0.442871 0.002014
0.000000 0.541443 0.000000
0.002167 0.539551 0.000000
0.004059 0.543335 0.000000
0.003296 0.541443 0.000000
0.000000 0.543335 0.000000
0.006317 0.545990 0.000000
0.000000 0.544617 0.000000
0.000000 0.542328 0.000885
0.003784 0.540558 0.000000
0.065186 0.545227 0.003021
0.183136 0.547272 0.003418
0.253448 0.540314 0.004181
0.302582 0.541443 0.000000
0.366058 0.540192 0.004181
0.414520 0.543610 0.000000
0.452606 0.541443 0.000000
0.498322 0.533478 0.003784
0.548004 0.541687 0.000000
0.602020 0.555359 0.000244
0.649078 0.563080 0.000000
0.686523 0.556122 0.001892
0.723602 0.547394 0.002655
0.762054 0.536011 0.003784
0.793945 0.529938 0.001892
0.828705 0.518921 0.002899
0.865662 0.507812 0.000000
0.898041 0.493134 0.001251
0.928772 0.483765 0.000000
0.961151 0.478699 0.000000
0.993439 0.473389 0.000000
0.999878 0.469086 0.000000
1.000000 0.468964 0.000000
0.001770 0.573334 0.000000
0.000000 0.573456 0.000000
0.000000 0.577240 0.000000
0.002533 0.573334 0.000000
0.003418 0.577759 0.000000
0.000641 0.575714 0.000000
0.005585 0.576599 0.002167
0.001770 0.577637 0.001282
0.000000 0.576843 0.005310
0.010986 0.574982 0.000000
0.137573 0.576843 0.005676
0.225647 0.572327 0.000000
0.285858 0.573334 0.000000
0.343170 0.569519 0.000000
0.390228 0.577240 0.003937
0.438690 0.571289 0.000000
0.482239 0.573334 0.000000
0.528412 0.571167 0.000000
0.574219 0.571930 0.000244
0.624176 0.592926 0.003021
0.678955 0.597107 0.000000
0.721191 0.588013 0.000000
0.759033 0.576599 0.002777
0.794952 0.572571 0.002899
0.825684 0.559784 0.002167
0.861481 0.549805 0.000763
0.897797 0.540802 0.001129
0.928650 0.531952 0.001770
0.957886 0.523102 0.000000
0.993561 0.506653 0.000000
0.997833 0.504486 0.000000
0.997833 0.500580 0.003937
0.000000 0.607483 0.000000
0.003937 0.607880 0.002167
0.000000 0.610748 0.000000
0.002014 0.611389 0.000000
0.003418 0.606842 0.004547
0.000000 0.613678 0.005585
0.002411 0.608368 0.000000
0.000000 0.609131 0.000000
0.001007 0.611023 0.000000
0.000000 0.610260 0.001648
0.056458 0.609131 0.004913
0.188202 0.609131 0.001648
0.257904 0.603546 0.000000
0.324585 0.606842 0.000000
0.376312 0.607727 0.003296
0.424255 0.605194 0.002014
0.472351 0.606842 0.007599
0.515137 0.605194 0.002167
0.556488 0.602905 0.000000
0.601532 0.604431 0.000000
0.660980 0.620239 0.000000
0.711578 0.629364 0.003540
0.752319 0.622162 0.003937
0.789398 0.614685 0.000000
0.820007 0.608124 0.000000
0.856689 0.597870 0.000000
0.886658 0.586853 0.000000
0.921814 0.577240 0.002777
0.958008 0.569672 0.000000
0.987732 0.555115 0.000000
0.993927 0.541718 0.001526
0.989868 0.535248 0.000000
0.000000 0.640991 0.006958
0.000122 0.639496 0.002289
0.003937 0.640991 0.001526
0.004822 0.644165 0.000000
0.002411 0.639496 0.000000
0.006317 0.643402 0.001526
0.000000 0.643402 0.000000
0.001526 0.642517 0.001526
0.002014 0.641510 0.000000
0.005188 0.639740 0.001526
0.002533 0.644928 0.000000
0.130463 0.641113 0.005188
0.222107 0.639496 0.001526
0.293945 0.639496 0.004791
0.355042 0.640137 0.002411
0.404541 0.637604 0.000000
0.452759 0.640106 0.000366
0.499054 0.638092 0.000000
0.541046 0.637207 0.002411
0.591522 0.639496 0.003021
0.627716 0.637329 0.000000
0.685638 0.649353 0.000000
0.744110 0.660217 0.002411
0.780273 0.655670 0.000000
0.814301 0.648224 0.000000
0.851105 0.637207 0.002411
0.890320 0.631653 0.003296
0.923096 0.617981 0.003937
0.949402 0.610901 0.000366
0.986084 0.599243 0.000000
0.998474 0.587250 0.003784
1.000000 0.576752 0.003937
0.003937 0.674255 0.003937
0.000000 0.672882 0.002411
0.000000 0.672882 0.002533
0.001404 0.674011 0.000000
0.003418 0.673767 0.000000
0.000000 0.670349 0.000000
0.000000 0.674652 0.002533
0.000885 0.673126 0.001404
0.002899 0.675781 0.005432
0.000000 0.670349 0.001404
0.001404 0.671478 0.000000
0.043213 0.674255 0.000000
0.176666 0.672882 0.003021
0.264343 0.671997 0.002533
0.323181 0.671478 0.000000
0.388184 0.671478 0.005676
0.438354 0.674255 0.003296
0.481598 0.673645 0.000000
0.535004 0.668945 0.001404
0.579529 0.667938 0.001404
0.621887 0.670349 0.006439
0.667053 0.669067 0.000000
0.721191 0.681213 0.000000
0.774200 0.696014 0.002533
0.805084 0.688568 0.002533
0.847198 0.681488 0.002533
0.883118 0.671356 0.003296
0.917389 0.659332 0.000000
0.954712 0.650726 0.001007
0.982178 0.646820 0.002533
0.998474 0.634918 0.003937
0.997467 0.621887 0.001404
0.002655 0.706024 0.007843
0.000122 0.704620 0.001251
0.004181 0.702362 0.001526
0.002289 0.708679 0.002655
0.002655 0.707672 0.002167
0.003143 0.705383 0.000000
0.001251 0.704010 0.002655
0.000885 0.704376 0.000885
0.002258 0.705750 0.001007
0.001251 0.706268 0.001526
0.006592 0.704742 0.001404
0.005310 0.702209 0.004059
0.109711 0.705536 0.000000
0.228943 0.702484 0.002655
0.302032 0.706024 0.000000
0.360504 0.706635 0.000000
0.412659 0.702728 0.003296
0.472504 0.704742 0.000000
0.518036 0.703125 0.003540
0.560791 0.702087 0.004822
0.607361 0.697021 0.002533
0.650970 0.700836 0.000000
0.698669 0.700958 0.000000
0.741577 0.707275 0.001526
0.798492 0.725250 0.000366
0.842010 0.722595 0.005310
0.879211 0.717285 0.000641
0.909302 0.707397 0.000000
0.941803 0.696533 0.000885
0.982910 0.686798 0.000000
0.999878 0.679962 0.005310
0.996063 0.669464 0.000000
0.001129 0.740540 0.002258
0.000122 0.738159 0.000000
0.003662 0.736877 0.001648
0.000763 0.737762 0.003174
0.005066 0.741180 0.000000
0.002777 0.737762 0.000000
0.001129 0.737396 0.004669
0.005829 0.734619 0.008087
0.003143 0.739410 0.001129
0.003296 0.741699 0.000000
0.002533 0.736755 0.001526
0.002808 0.739410 0.000000
0.023102 0.735626 0.000000
0.174255 0.734985 0.001129
0.267639 0.732697 0.000000
0.338745 0.735504 0.000000
0.394440 0.736267 0.000000
0.453400 0.735992 0.001129
0.494507 0.736633 0.001129
0.548767 0.738647 0.003540
0.595062 0.732452 0.000000
0.639221 0.736633 0.000122
0.680084 0.735504 0.000000
0.720581 0.730042 0.000000
0.772034 0.737396 0.000244
0.830231 0.753448 0.002777
0.874146 0.752319 0.002777
0.909424 0.746643 0.000000
0.940796 0.737000 0.000366
0.976074 0.728149 0.000244
1.000000 0.718811 0.003784
0.997223 0.709167 0.000000
0.002899 0.769531 0.003937
0.001007 0.772430 0.001007
0.000000 0.771423 0.000000
0.001007 0.772064 0.001404
0.002014 0.771423 0.002411
0.003296 0.770142 0.003296
0.002899 0.767487 0.001007
0.002014 0.768494 0.002899
0.002899 0.770538 0.002899
0.004059 0.769653 0.002258
0.002899 0.767487 0.003937
0.002014 0.771423 0.000000
0.002411 0.767395 0.006592
0.094116 0.767242 0.000000
0.226898 0.765594 0.000000
0.302582 0.772430 0.001007
0.364227 0.768494 0.001007
0.427460 0.769257 0.001007
0.483398 0.765228 0.000000
0.531311 0.769012 0.000000
0.581909 0.765991 0.001404
0.626068 0.767242 0.002899
0.673492 0.764587 0.000000
0.711578 0.764587 0.006836
0.753326 0.764709 0.003937
0.801910 0.772949 0.002014
0.854156 0.786224 0.001251
0.899445 0.790527 0.000000
0.936127 0.780029 0.000000
0.969391 0.770905 0.000000
0.995819 0.763702 0.000000
1.000000 0.755737 0.000000
0.000885 0.800385 0.000000
0.000000 0.804321 0.000000
0.003296 0.804047 0.000000
0.006073 0.800385 0.000000
0.003052 0.804321 0.000000
0.003937 0.802551 0.000885
0.003937 0.803436 0.000000
0.004791 0.804321 0.000000
0.004059 0.798370 0.000000
0.002655 0.803436 0.000000
0.003052 0.803436 0.000000
0.002258 0.803436 0.000000
0.003296 0.803436 0.003296
0.007568 0.807098 0.000000
0.169189 0.800781 0.004700
0.270782 0.802795 0.000000
0.341339 0.804169 0.002899
0.407745 0.800385 0.000000
0.461761 0.799500 0.000000
0.511841 0.800385 0.000000
0.563202 0.800903 0.002533
0.610748 0.797363 0.000885
0.653015 0.796722 0.000244
0.704376 0.796600 0.000000
0.739410 0.796478 0.000000
0.785339 0.795837 0.003052
0.830475 0.803284 0.000000
0.878937 0.813416 0.003937
0.925354 0.819611 0.003052
0.965210 0.811768 0.003296
0.992920 0.803558 0.006958
1.000000 0.795593 0.000000
0.000763 0.832275 0.003937
0.003937 0.832275 0.000763
0.000763 0.835419 0.000763
0.000763 0.835052 0.000000
0.008362 0.834930 0.001526
0.000000 0.834290 0.000000
0.007080 0.836182 0.001526
0.003052 0.835541 0.000000
0.002014 0.832520 0.000000
0.000000 0.835052 0.000763
0.003815 0.834930 0.000000
0.004303 0.836182 0.000000
0.002258 0.833923 0.000763
0.003052 0.833130 0.000763
0.070221 0.836823 0.002533
0.220825 0.833008 0.000000
0.303864 0.832275 0.001526
0.377869 0.834656 0.000000
0.436951 0.836304 0.001526
0.496033 0.828339 0.000000
0.541565 0.831512 0.000000
0.591278 0.829590 0.000519
0.637848 0.831116 0.000000
0.681732 0.835419 0.000000
0.729553 0.828979 0.000000
0.769531 0.829102 0.000000
0.810120 0.825317 0.000000
0.853638 0.833282 0.000000
0.909790 0.844788 0.000366
0.963959 0.848206 0.003418
0.991791 0.847321 0.003296
1.000000 0.832275 0.000000
0.003296 0.863525 0.000000
0.000000 0.867950 0.000122
0.000641 0.864014 0.003540
0.000641 0.867065 0.003296
0.001129 0.866913 0.000000
0.003296 0.864777 0.000000
0.000641 0.865540 0.003296
0.001526 0.868073 0.004181
0.003296 0.866791 0.001251
0.000000 0.868073 0.001129
0.004547 0.868073 0.008484
0.002533 0.862244 0.006592
0.003540 0.868073 0.003540
0.002899 0.867432 0.001648
0.003021 0.865417 0.000000
0.153595 0.863007 0.008972
0.265930 0.866180 0.001251
0.346893 0.867432 0.001770
0.416840 0.866791 0.000000
0.479340 0.860840 0.000000
0.522217 0.864899 0.000763
0.577362 0.861481 0.000641
0.622406 0.864136 0.005585
0.671600 0.860229 0.006592
0.706909 0.864136 0.000000
0.754089 0.864014 0.000000
0.797485 0.859589 0.000000
0.838593 0.859711 0.000000
0.881714 0.865021 0.000000
0.937134 0.876678 0.003662
0.984436 0.883759 0.004425
1.000000 0.875275 0.000000
0.004425 0.895508 0.000000
0.004303 0.896637 0.000000
0.000519 0.899445 0.000000
0.000000 0.899933 0.000000
0.000519 0.899445 0.001007
0.000000 0.894379 0.000000
0.002533 0.900696 0.000000
0.004425 0.896515 0.001770
0.003418 0.894104 0.001007
0.000519 0.899445 0.000000
0.003174 0.897797 0.000000
0.003418 0.900452 0.000000
0.001526 0.900330 0.000000
0.004303 0.900574 0.000519
0.001007 0.899933 0.000000
0.051392 0.896149 0.000000
