tracker_LUT/LUT/Green_G09.cube
TITLE "Generated by Resolve"
LUT_3D_SIZE 9
0 0 0
0 0 0
0 0 0
0 0 0
0 0 0
0.062211 0.00709544 0.0372015
0.180774 0.016907 0.104005
0.339437 0.0150759 0.184039
0.519966 0.00679026 0.269917
0 0 0
0 0.000686656 0
0.0423743 0.035935 0.017792
0.127886 0.0599222 0.0526436
0.248157 0.0729076 0.103456
0.387167 0.079118 0.164569
0.534676 0.0826276 0.231556
0.678691 0.0863661 0.299702
0.810773 0.0926833 0.365576
0.0324559 0.114015 0.0134432
0.0740978 0.154803 0.0246738
0.141375 0.189471 0.0173495
0.263798 0.204547 0.0433814
0.408011 0.208637 0.105394
0.554864 0.209216 0.175296
0.6972 0.209522 0.24715
0.834211 0.209155 0.316838
0.967437 0.207126 0.382956
0.0808423 0.283757 0.013962
0.149126 0.313512 0.0412909
0.228229 0.340627 0.0452888
0.342794 0.35491 0.0538338
0.483574 0.354482 0.104311
0.629725 0.347677 0.166323
0.778866 0.336568 0.229221
0.927138 0.322454 0.292515
1 0.30898 0.357031
0.164752 0.427314 0.056733
0.231876 0.450614 0.0761273
0.306188 0.47126 0.071107
0.406683 0.481132 0.0562448
0.538781 0.475044 0.0850538
0.683619 0.462913 0.13579
0.83386 0.448417 0.195224
0.988693 0.432212 0.25713
1 0.414801 0.3205
0.229694 0.547646 0.0750591
0.292531 0.56434 0.082887
0.364767 0.580468 0.0705577
0.461128 0.590402 0.0477302
0.59028 0.586526 0.0614786
0.736629 0.574945 0.103731
0.89012 0.559823 0.159625
1 0.542672 0.220722
1 0.524346 0.283833
0.283024 0.656306 0.0742351
0.348043 0.672999 0.0772259
0.422553 0.688746 0.0617075
0.518196 0.699229 0.0354162
0.644419 0.697551 0.0356909
0.790524 0.686778 0.0704356
0.946212 0.671565 0.120668
1 0.653742 0.179553
1 0.634806 0.242298
0.335256 0.766567 0.0610361
0.402289 0.7832 0.0592203
0.479057 0.79855 0.0406958
0.574548 0.808988 0.0119478
0.698054 0.809552 0.00117494
0.842908 0.799863 0.0287327
0.999237 0.785107 0.0722515
1 0.767071 0.127123
1 0.747631 0.188327
0.387793 0.877256 0.0431525
0.456809 0.893706 0.0370947
0.535698 0.908675 0.0159457
0.631739 0.919066 0
0.753033 0.921019 0
0.896406 0.912627 0
1 0.898528 0.0239414
1 0.880644 0.0738231
1 0.860899 0.13228
0 0 0
0 0 0
0 0 0
0 0 0
0.00569161 0 0.0084535
0.0713664 0.0207065 0.0706493
0.171481 0.0356146 0.14992
0.302953 0.0412909 0.238819
0.454582 0.0409247 0.329656
0 0 0
0.0034638 0.0161898 0.0154726
0.0389105 0.0530251 0.0599069
0.0962387 0.0840467 0.112169
0.177722 0.107988 0.170642
0.285481 0.123018 0.236789
0.412192 0.132265 0.30634
0.543679 0.139422 0.373816
0.672114 0.146014 0.437339
0.0109102 0.136355 0.0619516
0.0550088 0.17351 0.0982834
0.123293 0.203098 0.142992
0.205539 0.228046 0.187076
0.339025 0.236118 0.236622
0.466667 0.24213 0.302983
0.590829 0.247959 0.365209
0.716106 0.251011 0.425101
0.842039 0.250492 0.482689
0.0572366 0.302663 0.0997482
0.135546 0.326421 0.148577
0.21857 0.347539 0.196612
0.29691 0.370398 0.217746
0.417121 0.3785 0.228992
0.563714 0.370916 0.288487
0.709667 0.35935 0.350347
0.847257 0.348318 0.412558
0.980163 0.33846 0.47303
0.148959 0.440467 0.151492
0.223697 0.458015 0.193698
0.29633 0.474144 0.224552
0.367803 0.489982 0.22417
0.474891 0.495445 0.210422
0.619135 0.484443 0.253254
0.770245 0.46978 0.311894
0.925505 0.453407 0.37322
1 0.437461 0.437263
0.217914 0.555016 0.176928
0.28571 0.568017 0.207477
0.354192 0.582238 0.224948
0.427771 0.597604 0.215244
0.531868 0.60499 0.191257
0.674372 0.59588 0.220325
0.828641 0.580804 0.273533
0.986801 0.563439 0.334051
1 0.545022 0.396735
0.27512 0.661662 0.184619
0.342367 0.675669 0.208408
0.411368 0.690623 0.216876
0.487755 0.705592 0.20061
0.591119 0.713832 0.172015
0.730785 0.706874 0.187945
0.886259 0.692149 0.232929
1 0.674281 0.290791
1 0.655192 0.353155
0.329534 0.77055 0.179431
0.396612 0.78529 0.195956
0.466865 0.800656 0.196475
0.546059 0.815152 0.175265
0.649393 0.823789 0.143938
0.78584 0.819013 0.147601
0.940505 0.805158 0.184329
1 0.787381 0.237003
1 0.767803 0.297581
0.382956 0.880339 0.16762
0.450568 0.895582 0.177569
0.52256 0.911055 0.171664
0.604425 0.925109 0.146822
0.708171 0.933791 0.113588
0.841901 0.930922 0.106279
0.995224 0.918013 0.136767
1 0.90071 0.183108
1 0.880903 0.240284
0 0 0
0 0 0
0 0 0
0 0 0
0.019028 0.0083772 0.0368658
0.0842756 0.0323339 0.117006
0.178851 0.0480659 0.209674
0.296193 0.0576486 0.303426
0.426276 0.0638132 0.392096
0 0 0
0.00315862 0.0332647 0.0428931
0.0323949 0.0711223 0.102037
0.0853437 0.102449 0.167849
0.162692 0.126619 0.235782
0.257923 0.145449 0.302495
0.362493 0.161654 0.365728
0.470909 0.175952 0.426001
0.585763 0.186145 0.487282
0 0.159777 0.113634
0.0282139 0.196139 0.160327
0.0968338 0.224842 0.211612
0.18233 0.247593 0.264714
0.275502 0.266377 0.317205
0.371695 0.282887 0.369589
0.478782 0.29337 0.426871
0.596948 0.297292 0.485634
0.719799 0.296651 0.542824
0.0297246 0.323751 0.170306
0.109148 0.346899 0.218997
0.193881 0.366613 0.268101
0.281804 0.382864 0.31667
0.370443 0.395666 0.362463
0.499458 0.39379 0.403464
0.622736 0.388327 0.459815
0.744228 0.38265 0.512795
0.868635 0.376425 0.565866
0.12137 0.458991 0.218875
0.197894 0.475074 0.262257
0.277592 0.486488 0.304448
0.35906 0.494606 0.3449
0.434455 0.506691 0.358618
0.558999 0.505257 0.364797
0.710796 0.490455 0.422614
0.860975 0.475319 0.484581
1 0.463004 0.547189
0.191546 0.570153 0.243534
0.265919 0.580514 0.282704
0.344594 0.589487 0.322103
0.420371 0.600015 0.350683
0.496468 0.614191 0.34493
0.616739 0.615686 0.334401
0.770871 0.60119 0.382147
0.929564 0.583688 0.442374
1 0.565469 0.505165
0.255955 0.674067 0.25893
0.330983 0.684321 0.296834
0.406088 0.695109 0.328496
0.479194 0.707774 0.34342
0.558694 0.722087 0.326162
0.676585 0.725383 0.304677
0.829694 0.712154 0.340871
0.991424 0.694286 0.397406
1 0.67509 0.459525
0.317586 0.779644 0.264988
0.390036 0.791257 0.296742
0.462638 0.803662 0.318853
0.535744 0.817594 0.32192
0.618906 0.831525 0.297536
0.735073 0.835981 0.269322
0.885359 0.824628 0.293568
1 0.807202 0.342657
1 0.787518 0.402655
0.375326 0.887175 0.262943
0.446204 0.899916 0.287938
0.517845 0.913298 0.300999
0.592493 0.927855 0.295079
0.679026 0.941222 0.266209
0.794293 0.946197 0.234058
0.941924 0.936828 0.247578
1 0.920256 0.288746
1 0.90045 0.344381
0 0 0
0 0 0
0 0 0
0 0 0.00807202
0.0287938 0.0213474 0.0759289
0.0915694 0.0449378 0.172656
0.182132 0.0610208 0.277073
0.293919 0.0717784 0.377188
0.415793 0.0801404 0.466102
0 0.00943008 0.0166018
0 0.0516365 0.079057
0.0200504 0.0902571 0.152438
0.0701457 0.121584 0.229175
0.145205 0.145541 0.303578
0.23856 0.164813 0.373526
0.340719 0.181476 0.436194
0.443732 0.197238 0.491447
0.547372 0.210941 0.545022
0 0.183261 0.170474
0.000869764 0.218647 0.224735
0.0711986 0.246265 0.279881
0.15816 0.268132 0.33344
0.25156 0.286305 0.385092
0.347631 0.30219 0.436637
0.445197 0.315175 0.487205
0.543359 0.324742 0.536202
0.647623 0.328893 0.587884
0.00486763 0.344274 0.238315
0.0845502 0.366873 0.286381
0.169238 0.385809 0.334615
0.256718 0.401038 0.38201
0.345953 0.412589 0.428138
0.436164 0.420432 0.472602
0.528099 0.424933 0.516365
0.635767 0.423545 0.567651
0.755215 0.418708 0.621378
0.0955215 0.477256 0.283726
0.171664 0.49221 0.325948
0.250797 0.502449 0.366842
0.333074 0.509834 0.407553
0.419364 0.516197 0.449454
0.505928 0.523323 0.48246
0.648539 0.512047 0.530022
0.777508 0.503975 0.586801
0.905241 0.496605 0.641138
0.164508 0.586145 0.305348
0.239399 0.596353 0.344335
0.319524 0.604807 0.384649
0.40354 0.611612 0.425788
0.489494 0.61825 0.465675
0.57084 0.630381 0.464378
0.715145 0.620966 0.48716
0.874556 0.603586 0.547509
1 0.587366 0.611276
0.229664 0.689906 0.319966
0.306737 0.699382 0.359472
0.388663 0.707225 0.400229
0.47219 0.714351 0.439307
0.550851 0.724849 0.462318
0.635584 0.737865 0.442023
0.775326 0.731579 0.447028
0.937636 0.71397 0.501076
1 0.694652 0.563073
0.294697 0.794202 0.328679
0.373434 0.803113 0.368566
0.453651 0.811429 0.406027
0.532036 0.821515 0.434302
0.608408 0.834409 0.440177
0.697765 0.846937 0.410651
0.833234 0.843244 0.402731
0.995636 0.826703 0.445777
1 0.806928 0.505104
0.359609 0.898695 0.335454
0.436408 0.908553 0.371542
0.513085 0.918685 0.401175
0.588846 0.930694 0.417975
0.666224 0.944549 0.4112
0.759457 0.956207 0.376715
0.892164 0.954543 0.358755
1 0.939422 0.39263
1 0.919661 0.44596
0 0 0
0 0 0
0 0 0
0 0.00395209 0.030396
0.0328374 0.0348669 0.124437
0.0928054 0.0586404 0.236835
0.179675 0.0752422 0.349844
0.286275 0.0868544 0.452445
0.403388 0.0970169 0.541268
0 0.0270695 0.0465095
0 0.0714427 0.124727
0.00234989 0.110338 0.210559
0.051133 0.141436 0.295521
0.125505 0.165179 0.373938
0.217884 0.184512 0.444282
0.318639 0.20145 0.504372
0.420874 0.216663 0.557855
0.524559 0.229969 0.610895
0 0.206653 0.231846
0 0.241032 0.291295
0.0462959 0.267384 0.347921
0.135103 0.288258 0.400336
0.228504 0.305913 0.451362
0.324346 0.32108 0.502068
0.4215 0.333227 0.551659
0.518944 0.341787 0.599405
0.616388 0.347158 0.64535
0 0.364508 0.304723
0.0607919 0.386465 0.352132
0.145281 0.404608 0.399512
0.232242 0.418738 0.445762
0.32105 0.429404 0.490898
0.410574 0.436103 0.534127
0.502022 0.440635 0.576989
0.59617 0.44416 0.620493
0.694347 0.446479 0.666056
0.0702525 0.495033 0.347005
0.145907 0.508843 0.388067
0.22472 0.518196 0.428046
0.307393 0.52549 0.468605
0.394049 0.531762 0.510338
0.483986 0.536919 0.552895
0.576608 0.540871 0.595987
0.677394 0.542214 0.643397
0.79649 0.537438 0.697368
0.138247 0.602029 0.36614
0.213596 0.6121 0.404974
0.293965 0.620295 0.444999
0.3785 0.627146 0.486122
0.466667 0.632898 0.528237
0.557977 0.637598 0.571145
0.660761 0.640803 0.591165
0.812863 0.625544 0.652049
0.947921 0.615564 0.710414
0.204044 0.705638 0.380118
0.281544 0.714992 0.419501
0.363577 0.722484 0.459876
0.449729 0.728923 0.501472
0.539239 0.734234 0.543923
0.625132 0.741268 0.576654
0.723857 0.74995 0.557092
0.884672 0.733532 0.603571
1 0.714229 0.665675
0.269581 0.809842 0.388342
0.348745 0.818631 0.428153
0.432181 0.82565 0.468879
0.519402 0.831739 0.510643
0.604379 0.839124 0.545693
0.683665 0.850523 0.553811
0.786007 0.859525 0.520775
0.943374 0.846052 0.548257
1 0.82623 0.606561
0.335515 0.914 0.3953
0.416144 0.922286 0.435477
0.500114 0.929183 0.475761
0.583139 0.937194 0.510765
0.662852 0.94757 0.531472
0.742748 0.96054 0.522072
0.8486 0.969009 0.484062
1 0.958236 0.497093
1 0.938689 0.546578
0 0 0
0 0 0
0 0 0.00721752
0 0.0185702 0.0709697
0.0310063 0.0496986 0.184253
0.0879072 0.0735637 0.308736
0.171756 0.0907149 0.427222
0.274723 0.103334 0.530266
0.387533 0.114916 0.615961
0 0.0468605 0.0867323
0 0.0924849 0.179736
0 0.131289 0.275792
0.0285801 0.161547 0.365652
0.103593 0.18529 0.446189
0.196033 0.204501 0.514778
0.296315 0.221485 0.571206
0.398398 0.236133 0.624018
0.501762 0.248753 0.676249
0 0.230457 0.297841
0 0.263233 0.359777
0.0220798 0.288212 0.415808
0.111986 0.307973 0.466514
0.205524 0.325307 0.517128
0.30103 0.339696 0.566979
0.39736 0.350652 0.615305
0.494484 0.35848 0.662211
0.59115 0.362737 0.706935
0 0.384588 0.370703
0.0370794 0.405814 0.417411
0.121294 0.423102 0.46392
0.207767 0.436286 0.509163
0.295918 0.445838 0.553124
0.385031 0.451728 0.595468
0.4766 0.456031 0.638041
0.571206 0.459632 0.681544
0.66807 0.462486 0.725612
0.0448157 0.512444 0.409781
0.119905 0.525048 0.449668
0.198718 0.533913 0.489128
0.281804 0.541176 0.52961
0.36878 0.547356 0.571191
0.459022 0.552438 0.613611
0.551904 0.556283 0.656535
0.64773 0.559487 0.700374
0.745708 0.561959 0.744762
0.112078 0.617899 0.426902
0.187869 0.627863 0.465644
0.268513 0.635843 0.505455
0.353475 0.64271 0.546532
0.441947 0.648386 0.588525
0.533394 0.652888 0.631174
0.627619 0.656458 0.67454
0.724804 0.659175 0.718883
0.841428 0.655131 0.772229
0.178439 0.721401 0.440345
0.256291 0.730602 0.479576
0.33872 0.738048 0.51989
0.425177 0.744396 0.561364
0.514977 0.74963 0.603693
0.607462 0.753613 0.64654
0.701701 0.757458 0.68867
0.831418 0.75317 0.706554
0.987396 0.736263 0.769345
0.244419 0.825498 0.448142
0.323766 0.833997 0.487678
0.407721 0.841123 0.528481
0.495384 0.847059 0.570275
0.586252 0.851926 0.612894
0.678233 0.856199 0.654231
0.761669 0.866392 0.665187
0.890944 0.865278 0.652781
1 0.845426 0.708385
0.31075 0.92958 0.454734
0.39147 0.93753 0.494575
0.476722 0.944289 0.535775
0.565469 0.949874 0.577844
0.654932 0.955062 0.618006
0.738994 0.963607 0.643519
0.822782 0.976181 0.629709
0.951461 0.976425 0.605509
1 0.957977 0.648127
0 0 0
0 0 0
0 0 0.0251621
0 0.0343786 0.123919
0.0223392 0.0657816 0.254505
0.0767071 0.0898299 0.388067
0.15819 0.107439 0.508934
0.258564 0.12105 0.610239
0.368048 0.133867 0.690745
0 0.0683604 0.137728
0 0.114717 0.244205
0 0.153094 0.348058
0.00277714 0.182635 0.440833
0.0793011 0.205905 0.520684
0.172671 0.224872 0.585565
0.27277 0.241291 0.638895
0.374884 0.255604 0.691264
0.477852 0.267475 0.742672
0 0.254307 0.368338
0 0.285344 0.430594
0 0.308675 0.484062
0.0882124 0.328008 0.534096
0.181506 0.344656 0.583978
0.2766 0.358236 0.632959
0.372351 0.368246 0.680278
0.468711 0.37499 0.726024
0.56495 0.37847 0.769894
0 0.404654 0.437827
0.0123445 0.425101 0.483803
0.0958724 0.441184 0.529122
0.182071 0.453651 0.573602
0.269474 0.462058 0.616358
0.358572 0.467552 0.658259
0.450416 0.471778 0.700694
0.545281 0.475319 0.74406
0.64239 0.478111 0.788006
0.0181888 0.529656 0.47361
0.0927138 0.541146 0.512383
0.17171 0.549706 0.551568
0.255299 0.557046 0.592081
0.342565 0.563149 0.633555
0.432807 0.56791 0.675608
0.526223 0.571939 0.718654
0.622293 0.575082 0.762356
0.7205 0.577493 0.806607
0.0850233 0.633967 0.489174
0.161212 0.643809 0.527794
0.242191 0.651698 0.567514
0.327459 0.658488 0.608484
0.416205 0.664088 0.650355
0.507759 0.668391 0.692775
0.60238 0.672023 0.736141
0.69955 0.674784 0.780163
0.798672 0.676753 0.824598
0.151888 0.737362 0.502129
0.230045 0.746395 0.541207
0.312856 0.753811 0.581476
0.399603 0.760082 0.622843
0.489647 0.765225 0.665049
0.582391 0.769162 0.707805
0.678096 0.772412 0.751461
0.776272 0.774838 0.795758
0.886198 0.772824 0.845487
0.21828 0.841367 0.509544
0.297902 0.849714 0.548943
0.382223 0.856809 0.5897
0.470146 0.862684 0.631403
0.561105 0.867338 0.673762
0.654963 0.871077 0.716915
0.751553 0.874022 0.760815
0.843076 0.881285 0.775784
1 0.865263 0.813657
0.284871 0.945296 0.515709
0.366018 0.953231 0.555566
0.45156 0.959915 0.596658
0.540566 0.965423 0.638636
0.632364 0.96965 0.681178
0.727184 0.973205 0.72462
0.817182 0.979232 0.757366
0.907729 0.990143 0.737026
1 0.977676 0.753155
0 0 0
0 0 0.0074464
0 0.0139773 0.0622568
0 0.0516823 0.190509
0.0053254 0.0835431 0.337041
0.057557 0.10782 0.477165
0.137118 0.125689 0.597574
0.235782 0.140398 0.695567
0.342809 0.154299 0.769116
0 0.0918135 0.201953
0 0.13843 0.320363
0 0.176043 0.429816
0 0.204822 0.523659
0.0505684 0.227451 0.600763
0.145602 0.246036 0.660243
0.245563 0.261891 0.712291
0.347417 0.275624 0.764004
0.449897 0.286687 0.814496
0 0.278614 0.446525
0 0.30779 0.507134
0 0.329763 0.557717
0.0606088 0.348592 0.607217
0.153552 0.364523 0.656306
0.24802 0.377127 0.70425
0.343221 0.386236 0.750591
0.438727 0.391836 0.795102
0.53492 0.394965 0.838544
0 0.425223 0.510475
0 0.444846 0.555642
0.0667735 0.459983 0.600015
0.1523 0.471382 0.643381
0.238987 0.478721 0.685008
0.328084 0.483925 0.726558
0.420417 0.488304 0.76907
0.515511 0.491783 0.812299
0.612696 0.494392 0.855985
0 0.547173 0.542763
0.0616922 0.557778 0.580697
0.141146 0.5664 0.619883
0.225025 0.573663 0.660288
0.312566 0.579705 0.70164
0.403052 0.584405 0.743572
0.496696 0.588373 0.78648
0.592981 0.591455 0.830076
0.691096 0.593576 0.87396
0.0543069 0.650752 0.557183
0.130587 0.660243 0.595483
0.212131 0.668299 0.635325
0.297658 0.675013 0.676188
0.386664 0.680552 0.717937
0.478447 0.684794 0.760235
0.573297 0.688365 0.803494
0.670665 0.691066 0.847395
0.769802 0.692851 0.891569
0.121645 0.75404 0.56968
0.199985 0.762844 0.60853
0.283207 0.770321 0.648829
0.370214 0.776532 0.690089
0.460243 0.781384 0.731975
0.553475 0.785489 0.774838
0.649393 0.788678 0.818387
0.747753 0.791058 0.862547
0.847807 0.792523 0.906981
0.188403 0.857969 0.57673
0.26833 0.866239 0.616022
0.352926 0.873259 0.656687
0.441108 0.879057 0.698283
0.532174 0.883558 0.740459
0.626352 0.887327 0.783581
0.723156 0.890242 0.827375
0.822171 0.89221 0.871672
0.924056 0.893187 0.917082
0.255283 0.961776 0.582498
0.336767 0.969696 0.622309
0.422568 0.976303 0.66331
0.511757 0.981704 0.70515
0.60383 0.985916 0.747631
0.698894 0.989395 0.790997
0.79649 0.99202 0.835019
0.894835 0.994171 0.877821
1 0.998428 0.871122
0 0 0
0 0 0.0259709
0 0.0315709 0.119112
0 0.0706035 0.270497
0 0.102632 0.428412
0.0330205 0.127031 0.571405
0.112154 0.145266 0.689097
0.209979 0.160662 0.780682
0.315618 0.175418 0.845487
0 0.116701 0.277333
0 0.163012 0.404486
0 0.199237 0.515862
0 0.227375 0.608682
0.0210269 0.24921 0.680797
0.117845 0.267247 0.735241
0.217548 0.282536 0.786679
0.31899 0.295552 0.837598
0.42089 0.30576 0.887175
0 0.302663 0.526879
0 0.329839 0.583642
0 0.350835 0.632319
0.0321202 0.369131 0.681239
0.124636 0.384268 0.729488
0.218296 0.395773 0.776303
0.312932 0.404028 0.821698
0.407706 0.408576 0.86511
0.504021 0.411597 0.90837
0 0.445701 0.584039
0 0.464363 0.628275
0.0366217 0.478599 0.671733
0.12137 0.488869 0.713924
0.207721 0.495537 0.754849
0.297032 0.500664 0.796262
0.389609 0.505013 0.838682
0.484932 0.508446 0.881804
0.582238 0.510933 0.925307
0 0.564416 0.612711
0.0300145 0.57467 0.650309
0.109834 0.583276 0.689464
0.193973 0.590463 0.729763
0.281636 0.596323 0.770886
0.372473 0.601083 0.812818
0.466331 0.60499 0.855634
0.562814 0.608026 0.899107
0.661128 0.610101 0.942885
0.0228275 0.667704 0.626474
0.0994278 0.677104 0.664698
0.181247 0.685084 0.704433
0.267033 0.691722 0.74519
0.355993 0.696956 0.786618
0.448264 0.701396 0.829038
0.543313 0.704906 0.87219
0.640696 0.707408 0.915831
0.7402 0.7093 0.960052
0.090425 0.770718 0.638392
0.169223 0.779614 0.677333
0.25272 0.78703 0.717525
0.339971 0.793164 0.758694
0.430198 0.797971 0.800473
0.523644 0.802014 0.843229
0.61976 0.805158 0.886687
0.717998 0.807248 0.93051
0.81854 0.808896 0.975097
0.157443 0.87451 0.645045
0.237903 0.882948 0.684474
0.322744 0.889891 0.725063
0.411154 0.895644 0.766552
0.502434 0.900084 0.808637
0.596826 0.903807 0.851667
0.693797 0.906661 0.895369
0.792844 0.908476 0.939437
0.894133 0.909865 0.984222
0.224765 0.978378 0.650629
0.30663 0.986343 0.690471
0.392676 0.992889 0.73138
0.481849 0.998032 0.772946
0.574365 1 0.815518
0.669627 1 0.858793
0.767376 1 0.902708
0.86717 1 0.947005
0.968505 1 0.991516
