tracker_LUT/LUT/Green_G09.cube
TITLE "Generated by Resolve"
LUT_3D_SIZE 5
0 0 0
0 0 0
0 0 0
0.180774 0.016907 0.104005
0.519966 0.00679026 0.269917
0.0324559 0.114015 0.0134432
0.141375 0.189471 0.0173495
0.408011 0.208637 0.105394
0.6972 0.209522 0.24715
0.967437 0.207126 0.382956
0.164752 0.427314 0.056733
0.306188 0.47126 0.071107
0.538781 0.475044 0.0850538
0.83386 0.448417 0.195224
1 0.414801 0.3205
0.283024 0.656306 0.0742351
0.422553 0.688746 0.0617075
0.644419 0.697551 0.0356909
0.946212 0.671565 0.120668
1 0.634806 0.242298
0.387793 0.877256 0.0431525
0.535698 0.908675 0.0159457
0.753033 0.921019 0
1 0.898528 0.0239414
1 0.860899 0.13228
0 0 0
0 0 0
0.019028 0.0083772 0.0368658
0.178851 0.0480659 0.209674
0.426276 0.0638132 0.392096
0 0.159777 0.113634
0.0968338 0.224842 0.211612
0.275502 0.266377 0.317205
0.478782 0.29337 0.426871
0.719799 0.296651 0.542824
0.12137 0.458991 0.218875
0.277592 0.486488 0.304448
0.434455 0.506691 0.358618
0.710796 0.490455 0.422614
1 0.463004 0.547189
0.255955 0.674067 0.25893
0.406088 0.695109 0.328496
0.558694 0.722087 0.326162
0.829694 0.712154 0.340871
1 0.67509 0.459525
0.375326 0.887175 0.262943
0.517845 0.913298 0.300999
0.679026 0.941222 0.266209
0.941924 0.936828 0.247578
1 0.90045 0.344381
0 0 0
0 0 0
0.0328374 0.0348669 0.124437
0.179675 0.0752422 0.349844
0.403388 0.0970169 0.541268
0 0.206653 0.231846
0.0462959 0.267384 0.347921
0.228504 0.305913 0.451362
0.4215 0.333227 0.551659
0.616388 0.347158 0.64535
0.0702525 0.495033 0.347005
0.22472 0.518196 0.428046
0.394049 0.531762 0.510338
0.576608 0.540871 0.595987
0.79649 0.537438 0.697368
0.204044 0.705638 0.380118
0.363577 0.722484 0.459876
0.539239 0.734234 0.543923
0.723857 0.74995 0.557092
1 0.714229 0.665675
0.335515 0.914 0.3953
0.500114 0.929183 0.475761
0.662852 0.94757 0.531472
0.8486 0.969009 0.484062
1 0.938689 0.546578
0 0 0
0 0 0.0251621
0.0223392 0.0657816 0.254505
0.15819 0.107439 0.508934
0.368048 0.133867 0.690745
0 0.254307 0.368338
0 0.308675 0.484062
0.181506 0.344656 0.583978
0.372351 0.368246 0.680278
0.56495 0.37847 0.769894
0.0181888 0.529656 0.47361
0.17171 0.549706 0.551568
0.342565 0.563149 0.633555
0.526223 0.571939 0.718654
0.7205 0.577493 0.806607
0.151888 0.737362 0.502129
0.312856 0.753811 0.581476
0.489647 0.765225 0.665049
0.678096 0.772412 0.751461
0.886198 0.772824 0.845487
0.284871 0.945296 0.515709
0.45156 0.959915 0.596658
0.632364 0.96965 0.681178
0.817182 0.979232 0.757366
1 0.977676 0.753155
0 0 0
0 0.0315709 0.119112
0 0.102632 0.428412
0.112154 0.145266 0.689097
0.315618 0.175418 0.845487
0 0.302663 0.526879
0 0.350835 0.632319
0.124636 0.384268 0.729488
0.312932 0.404028 0.821698
0.504021 0.411597 0.90837
0 0.564416 0.612711
0.109834 0.583276 0.689464
0.281636 0.596323 0.770886
0.466331 0.60499 0.855634
0.661128 0.610101 0.942885
0.090425 0.770718 0.638392
0.25272 0.78703 0.717525
0.430198 0.797971 0.800473
0.61976 0.805158 0.886687
0.81854 0.808896 0.975097
0.224765 0.978378 0.650629
0.392676 0.992889 0.73138
0.574365 1 0.815518
0.767376 1 0.902708
0.968505 1 0.991516
