tracker_LUT/LUT/Green_G09.cube
TITLE "Generated by Resolve"
LUT_3D_SIZE 33
0 0 0
0 0 0
0 0 0
0 0 0
0 0 0
0 0 0
0 0 0
0 0 0
0 0 0
0 0 0
0 0 0
0 0 0
0 0 0
0 0 0
0 0 0
0 0 0
0 0 0
0.00808728 0 0
0.0199741 0 0.00959792
0.0392004 0.0021973 0.0225681
0.062211 0.00709544 0.0372015
0.0876173 0.0108186 0.0524453
0.115785 0.0137179 0.0686503
0.146929 0.0157168 0.0858778
0.180774 0.016907 0.104005
0.217517 0.0173953 0.123186
0.256703 0.0172427 0.143191
0.297215 0.0164187 0.163378
0.339437 0.0150759 0.184039
0.383062 0.0133364 0.205081
0.427726 0.0112764 0.226368
0.473838 0.00906386 0.248203
0.519966 0.00679026 0.269917
0 0 0
0 0 0
0 0 0
0 0 0
0 0 0
0 0 0
0 0 0
0 0 0
0 0 0
0 0 0
0 0 0
0 0 0
0 0 0
0 0 0
0.00848402 0 0.0009308
0.0225528 0.00106813 0.0115358
0.0407111 0.0071107 0.0234989
0.0615396 0.0123751 0.0363622
0.0851148 0.0169223 0.0501869
0.111986 0.0207828 0.0652781
0.140841 0.0236667 0.0807813
0.172213 0.025803 0.0971084
0.205844 0.0272679 0.114153
0.24155 0.0280919 0.131838
0.279469 0.0284276 0.150317
0.319295 0.0283055 0.169482
0.359869 0.0276799 0.188632
0.401526 0.0267185 0.208118
0.444099 0.0254673 0.227832
0.487297 0.0240482 0.2477
0.531258 0.0226291 0.267933
0.57525 0.0211643 0.288106
0.618402 0.0197299 0.307851
0 0 0
0 0 0
0 0 0
0 0 0
0 0 0
0 0 0
0 0 0
0 0 0
0 0 0
0 0 0
0 0 0
0.0090486 0 0.00161746
0.0243381 0.00590524 0.0120394
0.0413519 0.0124666 0.0227359
0.0606851 0.0183719 0.0341344
0.0823529 0.0236057 0.0462654
0.106508 0.0281224 0.0591897
0.133104 0.0319371 0.0729076
0.162646 0.0352636 0.0877852
0.193637 0.0377356 0.102907
0.226642 0.0395819 0.1187
0.261524 0.0408789 0.135103
0.297871 0.0417182 0.15201
0.336431 0.0423438 0.169909
0.37525 0.0424201 0.18764
0.414939 0.0422065 0.205692
0.455299 0.0417792 0.223972
0.496086 0.0412299 0.242405
0.537377 0.040589 0.261082
0.579049 0.0400854 0.280034
0.619852 0.0394446 0.298543
0.660258 0.0389105 0.316915
0.699748 0.0386358 0.335058
0 0 0
0 0 0
0 0 0
0 0 0
0 0 0
0 0 0
0 0 0
0 0 0
0.00860609 0.00395209 0.000823987
0.0220645 0.0117647 0.00909438
0.0381628 0.0192264 0.0181582
0.0562295 0.0258335 0.0277562
0.0763867 0.031754 0.0380865
0.0988174 0.0370031 0.0491798
0.1234 0.0415961 0.0610208
0.150088 0.0455634 0.0736248
0.179507 0.0491951 0.0873884
0.210071 0.0519722 0.101411
0.242298 0.0542611 0.11606
0.276036 0.0560616 0.131304
0.311147 0.0574197 0.147051
0.347402 0.0584268 0.163272
0.385245 0.0594034 0.180362
0.423041 0.0598917 0.197253
0.461341 0.0601968 0.21442
0.499931 0.0603799 0.231769
0.538643 0.060502 0.249226
0.577356 0.0606699 0.266835
0.616281 0.0610361 0.284749
0.654246 0.061265 0.302205
0.691493 0.0616617 0.319524
0.727962 0.0622416 0.336645
0.763149 0.0631876 0.353445
0 0 0
0 0 0
0 0 0
0 0 0
0 0.000686656 0
0.0059968 0.0100099 0.0012665
0.0158083 0.0192721 0.00634775
0.0278172 0.027985 0.0115663
0.0423743 0.035935 0.017792
0.0598459 0.0433661 0.0251926
0.0798352 0.0497902 0.0334325
0.10251 0.0552834 0.0425116
0.127886 0.0599222 0.0526436
0.155367 0.0638895 0.0638743
0.184527 0.0672923 0.076112
0.2159 0.0704509 0.0895552
0.248157 0.0729076 0.103456
0.281529 0.0749218 0.117952
0.315938 0.0766003 0.133028
0.351186 0.0780041 0.148592
0.387167 0.079118 0.164569
0.424369 0.0803235 0.181338
0.461082 0.0811627 0.19791
0.497887 0.0819104 0.214664
0.534676 0.0826276 0.231556
0.571252 0.0833448 0.248524
0.60795 0.0844587 0.265949
0.64361 0.085359 0.282872
0.678691 0.0863661 0.299702
0.712963 0.0875563 0.316396
0.746166 0.0890059 0.332845
0.778515 0.0906691 0.349111
0.810773 0.0926833 0.365576
0 0 0
0 0.00515755 0
0.00514229 0.0151827 0.00225834
0.013077 0.0252689 0.00796521
0.0214237 0.0351568 0.0128786
0.0306554 0.0449836 0.0166781
0.0413825 0.054612 0.0188449
0.054963 0.0635538 0.0201724
0.0726329 0.0716106 0.024094
0.0933242 0.0781109 0.0298924
0.116915 0.0836347 0.0375067
0.14313 0.0882734 0.0465553
0.171923 0.0920577 0.0568093
0.203433 0.0952773 0.0683299
0.236683 0.097734 0.0808728
0.270878 0.0996414 0.0944686
0.305898 0.101228 0.10898
0.341482 0.102556 0.124193
0.377462 0.1037 0.139986
0.414054 0.104997 0.156542
0.450416 0.105989 0.17319
0.486549 0.106889 0.190005
0.522332 0.107851 0.206928
0.557717 0.108873 0.223941
0.592554 0.109987 0.240955
0.627131 0.111589 0.25835
0.660639 0.112963 0.275227
0.693049 0.114595 0.291936
0.725109 0.116258 0.308522
0.757275 0.1178 0.325002
0.789471 0.119219 0.341375
0.82208 0.120867 0.358053
0.854093 0.122133 0.374136
0.00987259 0.0312963 0.00611887
0.0167086 0.0421149 0.0107881
0.0240787 0.0525216 0.0150607
0.0322576 0.0627756 0.0189364
0.0413672 0.0729229 0.0220798
0.0516213 0.0829023 0.0239414
0.0636912 0.0927749 0.0240482
0.0787823 0.102083 0.0227207
0.098085 0.109728 0.0227359
0.121492 0.115724 0.0271153
0.148104 0.120562 0.0339971
0.177234 0.124422 0.043122
0.208804 0.127672 0.054078
0.242222 0.130205 0.0663005
0.277058 0.131975 0.0793774
0.313344 0.133227 0.0933547
0.350408 0.134112 0.108324
0.387564 0.134844 0.124193
0.424887 0.135775 0.141009
0.461616 0.136568 0.158129
0.49781 0.137301 0.175448
0.533318 0.138155 0.19295
0.567941 0.139193 0.210498
0.601648 0.140414 0.228016
0.63476 0.142214 0.245853
0.667292 0.143633 0.263111
0.699779 0.144991 0.280217
0.73225 0.146242 0.297154
0.764797 0.147356 0.313954
0.797635 0.148684 0.330983
0.830213 0.149599 0.347509
0.862928 0.150301 0.363867
0.895079 0.151049 0.37998
0.0230869 0.0715038 0.0131685
0.0302434 0.0822614 0.0165103
0.0384833 0.0927596 0.0197604
0.0478065 0.102998 0.0226749
0.0582589 0.113039 0.0248417
0.0700694 0.123003 0.025742
0.0837262 0.13283 0.0248569
0.0999924 0.141741 0.0220188
0.120424 0.149401 0.019379
0.145571 0.155184 0.0213931
0.174212 0.159518 0.0277104
0.205753 0.16318 0.0369879
0.238972 0.165606 0.0483253
0.273564 0.167422 0.0612955
0.309209 0.16878 0.0753948
0.345769 0.169741 0.0903792
0.383215 0.170535 0.106233
0.421134 0.171099 0.122774
0.458473 0.171435 0.139834
0.495033 0.171878 0.157458
0.530709 0.172457 0.175463
0.565545 0.173175 0.193591
0.600076 0.174197 0.211856
0.634211 0.175097 0.229877
0.667979 0.17586 0.247578
0.701503 0.176577 0.265095
0.734859 0.177249 0.282429
0.768048 0.177829 0.29958
0.80148 0.178561 0.316899
0.834607 0.178958 0.333761
0.867521 0.179217 0.350332
0.900374 0.179324 0.366735
0.932784 0.179416 0.382834
0.0324559 0.114015 0.0134432
0.0409857 0.124575 0.0165713
0.050782 0.134783 0.0196841
0.0617533 0.144701 0.0224613
0.0740978 0.154803 0.0246738
0.087541 0.164233 0.0252995
0.102602 0.173373 0.0240787
0.12015 0.181933 0.0210269
0.141375 0.189471 0.0173495
0.167269 0.195377 0.016846
0.197253 0.199695 0.0228275
0.229587 0.202548 0.0317693
0.263798 0.204547 0.0433814
0.299092 0.205951 0.0570687
0.334936 0.206973 0.0721752
0.371344 0.207858 0.0883803
0.408011 0.208637 0.105394
0.444541 0.209003 0.122621
0.4813 0.209216 0.140002
0.518212 0.209247 0.157504
0.554864 0.209216 0.175296
0.591241 0.2094 0.193454
0.627054 0.209567 0.211551
0.662303 0.209552 0.229404
0.6972 0.209522 0.24715
0.731762 0.209461 0.264744
0.766033 0.209339 0.28217
0.800336 0.209476 0.299794
0.834211 0.209155 0.316838
0.867887 0.208728 0.333684
0.901289 0.208225 0.350271
0.934539 0.207568 0.366644
0.967437 0.207126 0.382956
0.041062 0.15758 0.0108186
0.0514382 0.167636 0.0145113
0.0631266 0.17731 0.0181582
0.076112 0.187121 0.0216678
0.0900282 0.196231 0.0240787
0.105119 0.205127 0.0251469
0.121645 0.213733 0.0244297
0.140307 0.221866 0.0218814
0.162173 0.229129 0.0185397
0.188327 0.235279 0.0172732
0.21828 0.239231 0.0213169
0.250843 0.24181 0.0305791
0.285161 0.243549 0.0423896
0.320394 0.244694 0.0565805
0.356191 0.245869 0.0728008
0.39205 0.246403 0.0893111
0.428199 0.246693 0.106172
0.464652 0.246769 0.123201
0.501411 0.246632 0.140322
0.538552 0.246372 0.157565
0.576242 0.245975 0.175021
0.613581 0.245228 0.192355
0.650355 0.244465 0.209857
0.686702 0.243656 0.227405
0.722637 0.242802 0.244923
0.758297 0.242054 0.262547
0.793606 0.241245 0.280049
0.828412 0.240208 0.297169
0.862989 0.239033 0.314137
0.897292 0.237751 0.330892
0.931212 0.236393 0.347387
0.965072 0.23508 0.363867
0.998215 0.233677 0.379889
0.0511177 0.200946 0.00851453
0.0636454 0.210666 0.013489
0.0772869 0.219715 0.0181735
0.0918593 0.228412 0.0223392
0.107408 0.236881 0.0256199
0.123949 0.245151 0.0275731
0.141726 0.253147 0.0278782
0.161593 0.261112 0.0269322
0.183795 0.267948 0.0245975
0.20943 0.273579 0.0231632
0.238788 0.277607 0.0259098
0.270893 0.280095 0.0347601
0.304738 0.281727 0.046128
0.339971 0.283085 0.0597086
0.375479 0.28365 0.074403
0.411399 0.283864 0.0901045
0.447593 0.283803 0.106371
0.484031 0.283497 0.122942
0.52079 0.283009 0.139742
0.557992 0.28249 0.156817
0.595346 0.281407 0.173602
0.632944 0.280079 0.190387
0.670527 0.278584 0.207141
0.707744 0.276967 0.224079
0.74464 0.275395 0.24126
0.78117 0.273823 0.258503
0.817105 0.271962 0.275456
0.852628 0.270008 0.292287
0.887877 0.267933 0.30898
0.922759 0.265736 0.32549
0.957458 0.263722 0.342077
0.991562 0.26128 0.358083
1 0.258854 0.373724
0.0641794 0.243427 0.00915541
0.0785229 0.252079 0.0153353
0.0938735 0.260304 0.0212253
0.110002 0.268284 0.026566
0.12694 0.276066 0.0309911
0.144686 0.28365 0.0341497
0.163729 0.291341 0.0362707
0.183948 0.29836 0.0363775
0.206149 0.304814 0.03505
0.231083 0.310369 0.0333867
0.259358 0.31458 0.034165
0.290639 0.31725 0.0401007
0.324178 0.319142 0.0505684
0.358755 0.319982 0.0623026
0.394064 0.320287 0.0756542
0.429892 0.320165 0.0902724
0.466041 0.319692 0.10573
0.502708 0.319265 0.122042
0.5393 0.318242 0.138216
0.57612 0.31696 0.154513
0.61326 0.315373 0.17084
0.650614 0.313512 0.187152
0.68809 0.311467 0.203418
0.725978 0.309377 0.219898
0.763409 0.306844 0.236164
0.800412 0.304204 0.252537
0.836973 0.301427 0.26891
0.873106 0.298558 0.285237
0.90898 0.295583 0.301549
0.944579 0.292607 0.317876
0.979629 0.289509 0.333898
1 0.286458 0.349889
1 0.283619 0.365743
0.0808423 0.283757 0.013962
0.096788 0.291493 0.0215457
0.113603 0.298939 0.0287938
0.130999 0.306172 0.0354467
0.149126 0.313512 0.0412909
0.167529 0.320699 0.045243
0.186435 0.327672 0.0470893
0.206455 0.334401 0.0469368
0.228229 0.340627 0.0452888
0.252399 0.34609 0.0428779
0.279866 0.350652 0.042359
0.310185 0.353491 0.0455024
0.342794 0.35491 0.0538338
0.376806 0.35555 0.06421
0.411734 0.355566 0.0761578
0.447318 0.355077 0.0895247
0.483574 0.354482 0.104311
0.519799 0.353231 0.119402
0.556222 0.351675 0.134874
0.592828 0.349844 0.150561
0.629725 0.347677 0.166323
0.666789 0.345235 0.182086
0.704158 0.342824 0.198108
0.741436 0.339834 0.213703
0.778866 0.336568 0.229221
0.816297 0.333028 0.244709
0.853376 0.329381 0.260334
0.890242 0.325841 0.276234
0.927138 0.322454 0.292515
0.963607 0.318929 0.308644
0.999725 0.315511 0.324804
1 0.312139 0.340978
1 0.30898 0.357031
0.101442 0.321538 0.024094
0.118425 0.328588 0.0326848
0.135775 0.335546 0.0402991
0.15349 0.342641 0.0469825
0.171435 0.34963 0.0521401
0.189624 0.35639 0.0554055
0.208377 0.363043 0.0567788
0.228153 0.369451 0.0562295
0.24947 0.375402 0.0540475
0.273198 0.380865 0.0514534
0.29955 0.385092 0.0493477
0.328771 0.387884 0.0501717
0.360586 0.389212 0.0560616
0.393957 0.389548 0.0652018
0.428351 0.389242 0.075761
0.463783 0.388647 0.0881056
0.499458 0.387259 0.10132
0.535424 0.385473 0.115389
0.571603 0.383337 0.130007
0.607919 0.38088 0.144915
0.644724 0.378317 0.160296
0.681453 0.375235 0.175433
0.718166 0.371878 0.190478
0.755138 0.368322 0.20557
0.792432 0.36466 0.220752
0.830045 0.360876 0.236027
0.868208 0.357259 0.251713
0.90602 0.353384 0.267338
0.943725 0.349508 0.283253
0.981201 0.345693 0.299336
1 0.341955 0.315511
1 0.338308 0.331792
1 0.335058 0.348241
0.123369 0.357717 0.0361486
0.140246 0.364492 0.0441749
0.157748 0.371511 0.0515908
0.175128 0.378088 0.0573739
0.192782 0.384588 0.0617075
0.210788 0.390997 0.0643626
0.229328 0.397253 0.0651865
0.248951 0.403418 0.0643626
0.269978 0.409155 0.0619059
0.292851 0.414023 0.0583505
0.318227 0.417945 0.0550546
0.346441 0.420584 0.0540475
0.37731 0.421775 0.0572366
0.410117 0.421973 0.0652018
0.443931 0.421363 0.0745556
0.478569 0.420005 0.0851606
0.513802 0.418097 0.0970474
0.549386 0.415732 0.109926
0.585214 0.41297 0.123522
0.621393 0.410071 0.137804
0.657816 0.406806 0.1523
0.694499 0.403372 0.167056
0.731365 0.399863 0.181964
0.768536 0.396246 0.19704
0.806027 0.392523 0.212222
0.844099 0.388937 0.227802
0.8822 0.385 0.243168
0.920638 0.380972 0.258625
0.959243 0.376852 0.274281
0.997665 0.372763 0.290211
1 0.368765 0.30631
1 0.365057 0.322866
1 0.361303 0.339071
0.144518 0.393011 0.0470741
0.161425 0.399725 0.0547646
0.178424 0.406027 0.0610666
0.19559 0.412222 0.0661631
0.213001 0.418326 0.0697795
0.230762 0.424308 0.0717479
0.249149 0.430228 0.0721141
0.268452 0.435966 0.0707561
0.288869 0.441062 0.0675212
0.311116 0.445502 0.0633402
0.335653 0.449058 0.0590524
0.362829 0.451423 0.0564736
0.392828 0.452567 0.0575418
0.42475 0.452323 0.0634012
0.45774 0.451148 0.0713817
0.491691 0.449287 0.0805982
0.526421 0.446876 0.0911421
0.561776 0.444144 0.102983
0.597833 0.441413 0.116167
0.634028 0.438239 0.129809
0.670665 0.434882 0.144015
0.707591 0.431388 0.158602
0.744686 0.427817 0.173434
0.782269 0.424323 0.188663
0.82002 0.420615 0.203906
0.858015 0.416724 0.219196
0.8963 0.412741 0.234562
0.93489 0.408652 0.250019
0.973922 0.40441 0.265583
1 0.400336 0.281559
1 0.396109 0.29749
1 0.391913 0.313634
1 0.387915 0.329793
0.164752 0.427314 0.056733
0.181186 0.433341 0.0634012
0.197894 0.439216 0.0689555
0.214755 0.444984 0.0732738
0.231876 0.450614 0.0761273
0.249592 0.456397 0.0777447
0.267506 0.461677 0.0772412
0.286244 0.466682 0.0749676
0.306188 0.47126 0.071107
0.32781 0.475181 0.0662547
0.351568 0.478355 0.0611276
0.377905 0.480507 0.0573892
0.406683 0.481132 0.0562448
0.43772 0.480552 0.0596323
0.470237 0.479149 0.0666819
0.50396 0.477256 0.0751049
0.538781 0.475044 0.0850538
0.57435 0.47248 0.0963607
0.610346 0.469505 0.10869
0.646754 0.466316 0.121889
0.683619 0.462913 0.13579
0.720775 0.459373 0.150164
0.758267 0.455909 0.165057
0.795972 0.452262 0.180102
0.83386 0.448417 0.195224
0.872038 0.44448 0.210483
0.910506 0.440436 0.225849
0.949279 0.436301 0.241306
0.988693 0.432212 0.25713
1 0.427878 0.272831
1 0.423453 0.288533
1 0.419028 0.304479
1 0.414801 0.3205
0.183444 0.459922 0.0643778
0.199542 0.465492 0.0702525
0.215915 0.470893 0.0749981
0.232425 0.476143 0.0784924
0.249409 0.481514 0.0808728
0.266468 0.486427 0.0812848
0.283986 0.491142 0.0800183
0.302266 0.495537 0.0770123
0.321675 0.499504 0.0724346
0.342702 0.502892 0.0669566
0.365942 0.505837 0.0612497
0.391531 0.507713 0.0563821
0.419852 0.508507 0.0540627
0.450553 0.508202 0.0557565
0.482902 0.506935 0.0619211
0.516594 0.505226 0.0698558
0.5514 0.50312 0.0791943
0.586892 0.500481 0.089662
0.623011 0.497536 0.101396
0.659602 0.494331 0.114107
0.696681 0.490913 0.127642
0.734325 0.487572 0.142061
0.771862 0.483894 0.156573
0.809689 0.48011 0.171389
0.847791 0.476219 0.186435
0.886168 0.472221 0.201648
0.924971 0.468254 0.217166
0.964034 0.464164 0.232761
1 0.459846 0.248341
1 0.455421 0.263996
1 0.450935 0.279698
1 0.446372 0.295476
1 0.442115 0.311528
0.200595 0.490929 0.0700694
0.216297 0.495964 0.0751049
0.232242 0.500801 0.0789807
0.248554 0.505745 0.0819104
0.264851 0.510231 0.0830243
0.281468 0.514519 0.0825666
0.298589 0.518639 0.0805219
0.316625 0.522637 0.0769818
0.336126 0.52665 0.0724346
0.357092 0.529992 0.0667582
0.380011 0.532799 0.0605478
0.405341 0.534798 0.0551919
0.433295 0.53579 0.051957
0.463691 0.535744 0.0522927
0.496071 0.53489 0.057435
0.529564 0.533165 0.064744
0.564157 0.530983 0.0733043
0.599649 0.528405 0.0831464
0.635843 0.52549 0.0942397
0.672633 0.522377 0.106538
0.710079 0.519112 0.11986
0.747677 0.515496 0.133669
0.785443 0.511788 0.147951
0.823484 0.507942 0.162615
0.861784 0.504005 0.177554
0.900481 0.500069 0.192844
0.939467 0.49604 0.208316
0.978576 0.491798 0.223758
1 0.487419 0.239338
1 0.482948 0.254994
1 0.478416 0.27071
1 0.47396 0.286687
1 0.469505 0.302525
0.215961 0.520088 0.0735943
0.231373 0.524742 0.0779889
0.246876 0.529 0.0809644
0.262592 0.533165 0.0827344
0.278737 0.537331 0.0832532
0.295384 0.541482 0.0823835
0.312642 0.545571 0.0801099
0.331044 0.549798 0.0767376
0.350423 0.553536 0.0717327
0.37142 0.556878 0.0659648
0.394247 0.559731 0.0595407
0.419348 0.561837 0.0537881
0.447013 0.562997 0.0498207
0.477287 0.563378 0.0492561
0.509239 0.562509 0.0526131
0.542626 0.560876 0.0594339
0.577127 0.55877 0.0674601
0.612589 0.556252 0.0767224
0.648875 0.553445 0.0872969
0.685908 0.550469 0.0991989
0.723339 0.547021 0.111849
0.761105 0.543389 0.125277
0.799069 0.539651 0.1393
0.837308 0.535775 0.153765
0.876097 0.532021 0.168872
0.91487 0.527916 0.183932
0.953887 0.52372 0.199191
0.993179 0.519432 0.214588
1 0.514992 0.230152
1 0.510567 0.24593
1 0.506142 0.26183
1 0.501472 0.277623
1 0.49691 0.29337
0.229694 0.547646 0.0750591
0.244846 0.551873 0.0786755
0.26038 0.556023 0.0812238
0.276234 0.560189 0.0826734
0.292531 0.56434 0.082887
0.309316 0.56846 0.0817426
0.32697 0.572793 0.0795758
0.345281 0.57673 0.0757
0.364767 0.580468 0.0705577
0.385794 0.583795 0.0646982
0.40856 0.586679 0.0581064
0.433722 0.589105 0.0523079
0.461128 0.590402 0.0477302
0.490883 0.590738 0.0458839
0.522591 0.590082 0.0478828
0.555856 0.58854 0.0539254
0.59028 0.586526 0.0614786
0.62594 0.584329 0.0704967
0.662181 0.581506 0.0804456
0.699092 0.578378 0.0915389
0.736629 0.574945 0.103731
0.774563 0.571298 0.116762
0.812741 0.567559 0.130495
0.851423 0.563851 0.144991
0.89012 0.559823 0.159625
0.929076 0.555673 0.174578
0.968292 0.551431 0.189746
1 0.547082 0.205097
1 0.542672 0.220722
1 0.538277 0.236576
1 0.533654 0.252293
1 0.528954 0.268086
1 0.524346 0.283833
0.243046 0.574762 0.0756847
0.258259 0.578943 0.0789197
0.27393 0.583078 0.0811322
0.289921 0.587228 0.0822614
0.306508 0.591531 0.0823835
0.323522 0.595728 0.0810864
0.3411 0.599771 0.0783703
0.359564 0.603693 0.0743114
0.379156 0.607401 0.0690471
0.400244 0.610712 0.0630961
0.423194 0.61384 0.056611
0.448035 0.616129 0.0502785
0.475196 0.617533 0.045182
0.504677 0.618021 0.0425116
0.536156 0.617563 0.0433051
0.569284 0.616175 0.0482795
0.603861 0.614466 0.0557107
0.6392 0.612085 0.0639506
0.675425 0.609323 0.0733806
0.712367 0.606241 0.0839551
0.750011 0.602823 0.095613
0.788083 0.599191 0.108248
0.826673 0.595636 0.121889
0.865278 0.591699 0.135851
0.904173 0.587625 0.150286
0.943313 0.583444 0.165072
0.982696 0.579156 0.180133
1 0.57499 0.195712
1 0.570474 0.2112
1 0.56585 0.22681
1 0.561196 0.242527
1 0.556451 0.258305
1 0.551843 0.274113
0.256413 0.601846 0.0759289
0.271748 0.606012 0.0788434
0.287526 0.610147 0.0807355
0.303792 0.614435 0.0817578
0.320455 0.618662 0.0814832
0.33756 0.622751 0.0798199
0.355291 0.626764 0.0768749
0.373892 0.630655 0.0726482
0.393591 0.634348 0.0672465
0.414969 0.637919 0.0614328
0.437736 0.640818 0.0546273
0.462455 0.643122 0.0479896
0.489433 0.644633 0.0424659
0.518669 0.645258 0.0390936
0.550088 0.645151 0.0390936
0.583124 0.644007 0.0428626
0.617365 0.642115 0.0496223
0.652644 0.639796 0.057435
0.688838 0.637095 0.0663615
0.725795 0.634043 0.0764324
0.763745 0.6309 0.0878767
0.801953 0.627283 0.100084
0.840406 0.623484 0.113054
0.879179 0.619532 0.126711
0.918242 0.615427 0.140902
0.957565 0.6112 0.155505
0.997436 0.607111 0.170733
1 0.60267 0.185916
1 0.598108 0.201343
1 0.593454 0.216922
1 0.588739 0.232593
1 0.583978 0.248417
1 0.579477 0.264424
0.269749 0.628977 0.0755322
0.285267 0.633234 0.078233
0.301335 0.637537 0.0800183
0.317586 0.641657 0.0805371
0.33431 0.645762 0.0798505
0.351553 0.649836 0.0779126
0.369436 0.653834 0.0747539
0.388296 0.657816 0.0705119
0.40824 0.661601 0.0651255
0.42945 0.664927 0.058793
0.452247 0.667826 0.051957
0.47689 0.670161 0.0451362
0.503716 0.671763 0.0392309
0.532891 0.672679 0.0354467
0.563973 0.672633 0.0344244
0.59678 0.671595 0.0369268
0.63093 0.669779 0.0430762
0.666133 0.667521 0.0504921
0.702281 0.664881 0.0589761
0.739452 0.662104 0.0688029
0.777218 0.658793 0.07953
0.815503 0.655177 0.0912184
0.854063 0.651392 0.103838
0.892989 0.647425 0.117144
0.932204 0.643305 0.13106
0.972 0.639277 0.145754
1 0.634913 0.160525
1 0.630442 0.175601
1 0.625834 0.190936
1 0.621134 0.206455
1 0.616617 0.222385
1 0.61178 0.238148
1 0.60705 0.25388
0.283024 0.656306 0.0742351
0.298756 0.66067 0.0767681
0.314794 0.66479 0.0780041
0.331182 0.66891 0.0782177
0.348043 0.672999 0.0772259
0.365438 0.677043 0.0750439
0.383566 0.681132 0.0717784
0.402594 0.685115 0.0673838
0.422553 0.688746 0.0617075
0.443809 0.692058 0.0552224
0.466651 0.694942 0.0483406
0.491249 0.697322 0.0413367
0.518196 0.699229 0.0354162
0.547005 0.700099 0.0308995
0.577783 0.700114 0.0289921
0.610376 0.699245 0.0304265
0.644419 0.697551 0.0356909
0.679683 0.695506 0.0429236
0.715877 0.693019 0.0511025
0.752789 0.690089 0.0602274
0.790524 0.686778 0.0704356
0.82884 0.683207 0.0816663
0.867506 0.679438 0.0938277
0.906767 0.675639 0.106996
0.946212 0.671565 0.120668
0.985855 0.667292 0.134829
1 0.662898 0.149401
1 0.658396 0.164324
1 0.653742 0.179553
1 0.649226 0.19527
1 0.64445 0.210864
1 0.639582 0.226596
1 0.634806 0.242298
0.296315 0.683894 0.0722057
0.311986 0.688045 0.0741588
0.328145 0.692164 0.0750896
0.344656 0.696269 0.0749828
0.361685 0.700389 0.0737469
0.379446 0.704631 0.0715648
0.397635 0.708583 0.0679637
0.416663 0.712398 0.0632029
0.436744 0.715999 0.0573892
0.458076 0.71931 0.0507668
0.481041 0.722255 0.0439307
0.505776 0.724834 0.0369573
0.532357 0.726558 0.0304723
0.560983 0.72752 0.0254978
0.591531 0.727672 0.0229038
0.623911 0.726955 0.0233616
0.657954 0.725551 0.0276799
0.693111 0.723537 0.0345464
0.729107 0.721019 0.0422217
0.765957 0.718135 0.0509194
0.803677 0.714885 0.0606546
0.842008 0.71136 0.0714122
0.880934 0.707774 0.083299
0.920165 0.703883 0.095964
0.959655 0.699748 0.109239
0.999451 0.69546 0.123095
1 0.691035 0.137453
1 0.686503 0.152193
1 0.682063 0.167575
1 0.677287 0.18291
1 0.672465 0.198413
1 0.667552 0.214099
1 0.662745 0.22977
0.309361 0.711376 0.0691234
0.325139 0.715526 0.0707713
0.341405 0.719646 0.0713664
0.358053 0.723751 0.0709697
0.375418 0.728054 0.0697032
0.393118 0.732067 0.0670024
0.41146 0.735988 0.0631876
0.430625 0.739788 0.0582589
0.450828 0.743358 0.0523232
0.472313 0.7467 0.045655
0.495445 0.749767 0.03888
0.519982 0.752194 0.0315709
0.546456 0.753964 0.0248264
0.574914 0.755016 0.0194705
0.605249 0.755291 0.0162509
0.63769 0.754971 0.0161288
0.671427 0.753597 0.0191653
0.706355 0.751537 0.0254063
0.74226 0.749081 0.0327306
0.779049 0.746273 0.0410163
0.816831 0.743175 0.0504311
0.855344 0.739834 0.0608988
0.894102 0.73611 0.0721447
0.933303 0.732174 0.0843061
0.9729 0.728038 0.0972
1 0.723751 0.110765
1 0.719448 0.125017
1 0.714992 0.139666
1 0.710292 0.154589
1 0.705486 0.169802
1 0.700633 0.185214
1 0.695689 0.200824
1 0.691005 0.216663
0.322347 0.738933 0.0653849
0.338216 0.743084 0.0667124
0.354833 0.747448 0.0673075
0.371603 0.751537 0.0665904
0.388891 0.755581 0.0647593
0.406744 0.759579 0.0618296
0.425223 0.763485 0.0578012
0.444526 0.767239 0.0527047
0.465095 0.771054 0.0469368
