tracker_LUT/LUT/INDUSTRIAL__75.P1077115.cube
TITLE "Generated by Resolve"
LUT_3D_SIZE 33
0 0 0
0 0 0
0 0 0
0 0 0
0 0 0
0 0 0
0 0 0
0 0 0
0.00387579 0.000289921 0.00030518
0.0131228 0.00613413 0.00616464
0.0214847 0.00988785 0.00993362
0.0300908 0.0119936 0.0120546
0.0420691 0.0139467 0.0140688
0.056611 0.0151217 0.0152895
0.07364 0.0155184 0.0157778
0.0926986 0.014847 0.0152132
0.114229 0.0132906 0.0137789
0.137819 0.0110933 0.0117342
0.162921 0.00836194 0.00915541
0.189044 0.00535592 0.00631724
0.214496 0.0021973 0.00329595
0.239231 0 0.000411994
0.263767 0 0
0.288533 0 0
0.313664 0 0
0.33933 0 0
0.365118 0 0
0.391577 0 0
0.418967 0 0
0.446845 0 0
0.475898 0 0
0.505592 0 0
0.536171 0 0
0 0 0
0 0 0
0 0 0
0 0 0
0 0 0
0.00381476 0.00383001 0.00381476
0.00985733 0.00970474 0.00961318
0.0154879 0.0135958 0.0131533
0.0208743 0.0166323 0.0157778
0.0279545 0.0202182 0.0188449
0.0361334 0.0231632 0.0209049
0.0464637 0.0252384 0.0218967
0.0605173 0.0260319 0.0231327
0.0768444 0.0259098 0.0231327
0.0954452 0.0250858 0.0223239
0.116716 0.0233921 0.0206607
0.140261 0.0208591 0.0181888
0.165988 0.0176699 0.0150759
0.193042 0.0139925 0.01149
0.220539 0.0101167 0.00770581
0.247745 0.0062562 0.00393683
0.273884 0.00262455 0.000396735
0.299519 0 0
0.325307 0 0
0.351308 0 0
0.37847 0 0
0.405768 0 0
0.433692 0 0
0.462364 0 0
0.49189 0 0
0.522927 0 0
0.555001 0 0
0.587762 0 0
0 0 0
0 0 0
0.0062562 0.00628672 0.0062562
0.0113222 0.011368 0.0113222
0.0149233 0.0150149 0.0149386
0.0190127 0.0191348 0.019028
0.0231937 0.0233616 0.023209
0.0284581 0.0271153 0.026276
0.034226 0.0303349 0.0286259
0.0408026 0.0330968 0.0304112
0.0488441 0.0354009 0.0315251
0.0594492 0.0370794 0.0315099
0.073518 0.0375982 0.0288853
0.0917372 0.0364996 0.0278782
0.11281 0.0343938 0.0267643
0.136278 0.031632 0.0243839
0.162112 0.0281987 0.0211185
0.190295 0.0241703 0.0172122
0.21944 0.0196689 0.0128176
0.248936 0.0150607 0.00830091
0.277913 0.0105592 0.00387579
0.305791 0.00642405 0
0.333013 0.00250248 0
0.360494 0 0
0.388174 0 0
0.416587 0 0
0.445747 0 0
0.475776 0 0
0.506737 0 0
0.538216 0 0
0.571176 0 0
0.605631 0 0
0.641047 0 0
0.0130159 0.013077 0.0130312
0.0165255 0.0166323 0.0165408
0.0206455 0.0207828 0.020676
0.0247044 0.0248875 0.0247196
0.0286564 0.0288853 0.028687
0.0322423 0.032517 0.0322728
0.0356756 0.0360266 0.0357214
0.0400702 0.0392767 0.0380102
0.0454261 0.0421759 0.0395209
0.0518654 0.0447547 0.0405585
0.0597543 0.0466316 0.0406653
0.0702831 0.0476997 0.0395514
0.0848859 0.0478065 0.0353857
0.103288 0.0467384 0.0308995
0.12575 0.0441749 0.0282292
0.152789 0.0400702 0.0265202
0.181415 0.0357366 0.0229191
0.211765 0.0308537 0.0184176
0.243549 0.0256199 0.0133974
0.275547 0.0203708 0.00828565
0.306828 0.0153658 0.00334173
0.336568 0.0107729 0
0.365637 0.00645457 0
0.395117 0.00218204 0
0.42504 0 0
0.455497 0 0
0.48658 0 0
0.518807 0 0
0.552209 0 0
0.586038 0 0
0.620539 0 0
0.655894 0 0
0.693858 0 0
0.0262455 0.0264591 0.026276
0.0299535 0.0301976 0.029984
0.0334936 0.0337987 0.0335393
0.0370184 0.0373846 0.0370642
0.0403601 0.0407874 0.0404212
0.043595 0.0440681 0.0436561
0.0466926 0.0472267 0.0467689
0.0505226 0.0501259 0.0482338
0.0553597 0.0528572 0.049073
0.061326 0.0551766 0.0492714
0.0691081 0.0569162 0.0486
0.0798047 0.0578164 0.0465858
0.0948959 0.0575723 0.0423743
0.114199 0.0563821 0.0345464
0.137194 0.0538186 0.029221
0.165789 0.0495155 0.0259556
0.198352 0.0439307 0.0232547
0.231922 0.0381933 0.0186007
0.266407 0.0322728 0.0132143
0.301137 0.0263981 0.00761425
0.335073 0.0209354 0.00225834
0.367437 0.0160067 0
0.398764 0.0113985 0
0.430274 0.00688182 0
0.46247 0.0024567 0
0.495247 0 0
0.528252 0 0
0.561624 0 0
0.596902 0 0
0.634028 0 0
0.673457 0 0
0.714717 0 0
0.758999 0 0
0.0382239 0.0386053 0.0382849
0.0415961 0.0420386 0.0416571
0.044831 0.0453346 0.044892
0.0478523 0.0484016 0.0479286
0.050782 0.0514076 0.0508736
0.0536812 0.0543679 0.0537881
0.0566262 0.0572976 0.05626
0.0602884 0.0602579 0.0572671
0.064622 0.0628214 0.0576181
0.0702068 0.0650492 0.0572671
0.0778058 0.0667582 0.0559548
0.0886702 0.0676432 0.0532235
0.104372 0.0673228 0.0483406
0.124697 0.0660716 0.0390631
0.148867 0.0634775 0.0313115
0.177661 0.0594186 0.0250095
0.213352 0.0532387 0.0220645
0.25098 0.0465858 0.0179751
0.289113 0.0399634 0.0126192
0.327016 0.0335088 0.00679026
0.363684 0.0276341 0.00115969
0.398795 0.0224765 0
0.432792 0.017792 0
0.46627 0.0133059 0
0.499748 0.00906386 0
0.534752 0.00483711 0
0.571588 0.000427253 0
0.609918 0 0
0.650263 0 0
0.693812 0 0
0.74049 0 0
0.788663 0 0
0.838758 0 0
0.0475776 0.0502022 0.047715
0.051545 0.0527504 0.051545
0.0547646 0.0554818 0.0548714
0.0576028 0.058381 0.0577096
0.0603799 0.0612192 0.060502
0.0630655 0.0640879 0.0627146
0.0659342 0.0669566 0.0640879
0.0693523 0.0698253 0.0650339
0.0734874 0.0724804 0.0653391
0.0788739 0.0748455 0.0647898
0.0863966 0.0767071 0.0631113
0.0973678 0.0776989 0.0598001
0.113603 0.077409 0.0542458
0.134829 0.0760357 0.046067
0.160723 0.0737621 0.0341955
0.191058 0.0697948 0.025803
0.226123 0.0643931 0.0187839
0.268666 0.0567636 0.0159609
0.311101 0.049424 0.0112917
0.352758 0.0425422 0.00578317
0.39205 0.0364233 0.000427253
0.429358 0.0312505 0
0.466423 0.0265812 0
0.504219 0.021973 0
0.542687 0.0172732 0
0.582864 0.0125277 0
0.625696 0.00772107 0
0.670466 0.00282292 0
0.716838 0 0
0.765072 0 0
0.817212 0 0
0.871687 0 0
0.926513 0 0
0.0543984 0.0612802 0.0546731
0.0586252 0.0635691 0.0581826
0.0623484 0.0659648 0.0615091
0.0656748 0.068513 0.0645609
0.0687266 0.0711986 0.067155
0.0717021 0.0740063 0.069276
0.074815 0.0768902 0.0709544
0.078294 0.0797589 0.0720989
0.0823682 0.0824903 0.0724956
0.0876783 0.0850538 0.0720073
0.0952163 0.0872358 0.0702373
0.106416 0.0885786 0.0666361
0.123201 0.0885023 0.0605173
0.145373 0.0872053 0.0522621
0.172793 0.0851911 0.0385138
0.205081 0.08159 0.0277714
0.241733 0.0765698 0.0187381
0.282689 0.0702678 0.0113069
0.330419 0.0620432 0.00846876
0.377478 0.0545052 0.00411994
0.422034 0.0479744 0
0.464637 0.0421759 0
0.507088 0.0370031 0
0.550912 0.0321202 0
0.595315 0.0273594 0
0.640742 0.0225071 0
0.68838 0.0178073 0
0.738827 0.0133364 0
0.79086 0.00898756 0
0.842741 0.00480659 0
0.896132 0.000839246 0
0.950713 0 0
1 0 0
0.0595407 0.0724041 0.0600137
0.0641794 0.0745556 0.0632792
0.0684215 0.0768444 0.0664683
0.072343 0.0793011 0.0695048
0.0760204 0.0818647 0.0722057
0.07953 0.0845808 0.0745403
0.0831464 0.0874952 0.0765698
0.0870527 0.0905318 0.0781872
0.0914473 0.0935073 0.079057
0.0968643 0.0963149 0.0788891
0.104448 0.0988632 0.0772869
0.115862 0.10074 0.0736553
0.133257 0.101244 0.0673075
0.156298 0.100313 0.058854
0.184695 0.0983597 0.0473487
0.21915 0.0955215 0.0313878
0.258427 0.0910506 0.0200504
0.302296 0.0851759 0.00975052
0.350134 0.0783246 0.000808728
0.401343 0.0709087 0
0.455741 0.0626688 0
0.50486 0.0564889 0
0.552331 0.051194 0
0.601587 0.0467079 0
0.651698 0.0426184 0
0.701976 0.0387884 0
0.752331 0.0352178 0
0.803693 0.0322271 0
0.855924 0.0299992 0
0.907027 0.0284428 0
0.957244 0.0271611 0
1 0.026627 0
1 0.0270542 0
0.0628061 0.0843824 0.0635691
0.0679942 0.0864576 0.0666209
0.0728618 0.088716 0.069688
0.0775616 0.0912184 0.072755
0.0821241 0.0938582 0.0756542
0.0864424 0.0966506 0.078294
0.0907301 0.0995956 0.0806744
0.0953384 0.1028 0.082826
0.100496 0.106172 0.0844892
0.106523 0.109453 0.0851606
0.114366 0.112428 0.084184
0.125933 0.114916 0.0809033
0.143847 0.116228 0.0745251
0.168109 0.116075 0.0657816
0.19826 0.114504 0.054551
0.23537 0.112093 0.0360723
0.27837 0.108278 0.0208896
0.326452 0.10312 0.00779736
0.378256 0.0968643 0
0.431952 0.0905318 0
0.486336 0.0848859 0
0.539467 0.0802319 0
0.590906 0.0760967 0
0.642573 0.0723125 0
0.695811 0.0689708 0
0.747967 0.066804 0
0.797971 0.0654917 0
0.846418 0.064744 0
0.893629 0.0648661 0
0.938613 0.0659648 0
0.982284 0.0674907 0
1 0.069749 0
1 0.0731823 0
0.0633402 0.098085 0.0645304
0.069398 0.100282 0.0675059
0.0750896 0.102632 0.0704967
0.0806592 0.105211 0.0735637
0.0862898 0.10808 0.0767071
0.0917525 0.111177 0.0797894
0.0971084 0.114382 0.0827039
0.102708 0.117769 0.0854658
0.108888 0.121431 0.0879377
0.116014 0.125277 0.089662
0.124773 0.128939 0.0897231
0.136873 0.132113 0.0870985
0.15552 0.134463 0.0808576
0.181247 0.135424 0.071809
0.213748 0.134844 0.0603342
0.253223 0.132753 0.0453956
0.300084 0.130083 0.0229801
0.352712 0.126131 0.00656138
0.409171 0.121294 0
0.466194 0.116289 0
0.52224 0.112139 0
0.57586 0.109606 0
0.626795 0.108293 0
0.675761 0.107515 0
0.723003 0.107439 0
0.768673 0.108293 0
0.812512 0.10988 0
0.854414 0.111955 0
0.894667 0.114717 0
0.934112 0.118212 0
0.974166 0.121889 0
1 0.125612 0
1 0.12961 0
0.058793 0.115053 0.0607462
0.0662089 0.117464 0.0637217
0.0732128 0.120119 0.066865
0.0800031 0.122896 0.0701152
0.0868849 0.125978 0.0734722
0.0936751 0.129519 0.0769818
0.100481 0.133364 0.0804761
0.107408 0.137255 0.0837568
0.114961 0.141375 0.0868238
0.123735 0.145861 0.0895552
0.134356 0.150408 0.0911116
0.147982 0.154482 0.0899672
0.167514 0.157687 0.084535
0.194507 0.160021 0.0756847
0.229343 0.161181 0.0643931
0.271565 0.160647 0.0504768
0.320729 0.158724 0.0330663
0.376715 0.156741 0.00923171
0.435782 0.153796 0
0.494514 0.150896 0
0.550378 0.148623 0
0.601877 0.147814 0
0.649622 0.148379 0
0.694774 0.149706 0
0.737408 0.15169 0
0.778302 0.154513 0
0.818631 0.157977 0
0.858671 0.161669 0
0.898619 0.165438 0
0.938186 0.169696 0
0.978424 0.174243 0
1 0.179004 0
1 0.183825 0
0.0429389 0.138216 0.0487221
0.0554208 0.139971 0.0518959
0.0645457 0.142947 0.0555276
0.0729992 0.146288 0.0591135
0.0812695 0.149813 0.0626078
0.0894179 0.153933 0.0663462
0.0978103 0.158648 0.0703593
0.10663 0.163577 0.0744335
0.116075 0.168475 0.0782483
0.126986 0.173678 0.0819867
0.140383 0.179263 0.0852522
0.157183 0.184695 0.0866865
0.179202 0.189136 0.0839246
0.207568 0.192721 0.0769207
0.243549 0.195453 0.066865
0.287175 0.196948 0.0546578
0.337499 0.19675 0.0402228
0.393118 0.195422 0.0234989
0.451865 0.194293 0.00125124
0.509285 0.193103 0
0.562905 0.192569 0
0.611215 0.193378 0
0.655879 0.195529 0
0.699001 0.198444 0
0.740841 0.201724 0
0.781857 0.205341 0
0.822309 0.209552 0
0.862562 0.214206 0
0.902785 0.218936 0
0.942504 0.22385 0
0.982879 0.228977 0.00369268
1 0.23444 0.0104067
1 0.239979 0.0175326
0.0216526 0.167391 0.0256046
0.030869 0.170962 0.0277104
0.0439307 0.174166 0.0296025
0.0577859 0.177539 0.0325933
0.0684825 0.181643 0.0400092
0.0785077 0.186374 0.0461585
0.088838 0.191989 0.0517891
0.100023 0.198322 0.0576333
0.112261 0.204746 0.063386
0.125978 0.210986 0.068864
0.142473 0.217304 0.0741436
0.163043 0.22359 0.0785077
0.188952 0.229099 0.0798199
0.219699 0.233646 0.076936
0.256229 0.237247 0.0701915
0.29929 0.239734 0.0606699
0.348577 0.240848 0.049134
0.402548 0.240681 0.0362707
0.458427 0.240314 0.0235142
0.51397 0.24065 0.0105745
0.566766 0.242039 0
0.614786 0.244083 0
0.659434 0.247089 0
0.702647 0.250874 0
0.744717 0.255146 0
0.785992 0.259602 0.00354009
0.82652 0.264424 0.00909438
0.866835 0.269627 0.0164034
0.906966 0.274861 0.0269932
0.946807 0.280339 0.0357519
0.987259 0.285939 0.043595
1 0.291875 0.0516518
1 0.298024 0.0597391
0 0.202838 0
0.00320439 0.208194 0.000946059
0.0129549 0.213703 0.00268559
0.0256504 0.219318 0.00479133
0.0461585 0.223529 0.00624094
0.0609751 0.229328 0.010956
0.074403 0.235569 0.0196841
0.0881971 0.242283 0.0335393
0.103761 0.24979 0.0434577
0.12108 0.257099 0.0525063
0.141024 0.263828 0.0607614
0.165362 0.270253 0.0684062
0.194781 0.275471 0.0734874
0.228244 0.279927 0.075288
0.26569 0.283665 0.0734112
0.308202 0.286885 0.0683604
0.356176 0.289174 0.0603494
0.408881 0.29041 0.0502632
0.463539 0.291173 0.0399023
0.51809 0.292287 0.0309758
0.570184 0.294377 0.0249638
0.618158 0.297505 0.0225834
0.662791 0.301381 0.0231937
0.706004 0.305867 0.0261082
0.748241 0.310933 0.030808
0.789776 0.316243 0.0363012
0.830549 0.321767 0.0423743
0.871061 0.327611 0.049073
0.91165 0.333745 0.0562295
0.951873 0.340032 0.0636454
0.992523 0.346166 0.0706798
1 0.352468 0.0779736
1 0.358892 0.0854047
0 0.246723 0
0 0.254459 0
0 0.261875 0
0 0.269245 0
0.0100252 0.276356 0
0.0365454 0.281422 0
0.0564431 0.288106 0
0.0747692 0.295109 0.00129702
0.0933242 0.301793 0.0215915
0.114031 0.308827 0.0358129
0.137377 0.315297 0.0480507
0.164797 0.320943 0.0588693
0.197467 0.325826 0.0674754
0.233829 0.330312 0.0732586
0.273106 0.334325 0.0753796
0.316014 0.337865 0.0736553
0.363546 0.340917 0.0686351
0.415534 0.343297 0.0612192
0.469383 0.345251 0.0530709
0.523125 0.347295 0.0459297
0.574655 0.350195 0.0415808
0.622461 0.354238 0.0408942
0.667094 0.358999 0.0427863
0.710307 0.364141 0.0461128
0.75259 0.369802 0.0508888
0.794217 0.37583 0.0566567
0.835142 0.38201 0.0628977
0.875761 0.388266 0.0694133
0.91632 0.394675 0.0762341
0.956466 0.401266 0.0834363
0.997101 0.40766 0.0903182
1 0.414008 0.0971695
1 0.42031 0.10399
0 0.299702 0
0 0.308949 0
0 0.317922 0
0 0.326223 0
0 0.333898 0
0.00399786 0.340612 0
0.0363928 0.344869 0
0.0608072 0.351049 0
0.084123 0.357549 0
0.107607 0.363745 0.0204471
0.133623 0.370245 0.0373236
0.163378 0.376028 0.0505226
0.198352 0.380911 0.0610208
0.237232 0.385428 0.0691997
0.278859 0.389685 0.0745098
0.323232 0.393484 0.0762341
0.371176 0.396902 0.074464
0.422873 0.399969 0.0699168
0.476249 0.402884 0.0643168
0.529366 0.405829 0.0590677
0.580316 0.40943 0.0560464
0.627771 0.41413 0.0563058
0.672312 0.419623 0.0590524
0.715465 0.425376 0.0628977
0.757549 0.431418 0.0677501
0.798917 0.437751 0.0734264
0.839719 0.444251 0.0796216
0.880171 0.450706 0.0859693
0.920501 0.457115 0.0923323
0.960235 0.463569 0.0989395
1 0.46981 0.105226
1 0.475944 0.111452
1 0.481895 0.117479
0 0.35845 0
0 0.367453 0
0 0.376196 0
0 0.384283 0
0 0.391608 0
0 0.39884 0
0.0128481 0.404715 0
0.0482643 0.408972 0
0.0750134 0.415518 0
0.101823 0.422568 0
0.129396 0.428717 0.0258946
0.161242 0.434684 0.042237
0.198199 0.439582 0.054551
0.239582 0.444343 0.0650187
0.283284 0.448569 0.0725414
0.329442 0.452461 0.0770581
0.378378 0.455909 0.0780804
0.430594 0.459525 0.0768292
0.483665 0.462821 0.0735637
0.536294 0.466285 0.0701762
0.586664 0.470329 0.0683452
0.633814 0.475608 0.0696574
0.677882 0.481239 0.0724956
0.720623 0.487221 0.0765087
0.762325 0.493446 0.0813458
0.803189 0.499763 0.0867018
0.843488 0.506127 0.0923781
0.883482 0.512444 0.0981918
0.923339 0.518639 0.103944
0.962448 0.524697 0.109682
1 0.530373 0.1149
1 0.535958 0.120104
1 0.541329 0.125109
0 0.416999 0
0 0.425177 0
0 0.433585 0
0 0.442008 0
0 0.450065 0
0 0.457923 0
0 0.465232 0
0.0371862 0.469657 0
0.068452 0.476097 0
0.0973983 0.483116 0
0.127016 0.48957 0.0161593
0.160647 0.495689 0.0372473
0.199588 0.500877 0.0517281
0.242405 0.505364 0.0631266
0.287938 0.509651 0.0724041
0.335927 0.51371 0.0792096
0.386389 0.517296 0.0828107
0.438849 0.520623 0.0835279
0.492027 0.524056 0.0825208
0.544472 0.527825 0.0811017
0.594491 0.532158 0.0806744
0.640925 0.53727 0.0821851
0.684504 0.542962 0.0853285
0.72665 0.548898 0.0893111
0.767697 0.554971 0.0938735
0.807904 0.561013 0.0986801
0.84744 0.566934 0.103517
0.886625 0.572717 0.108339
0.925704 0.578363 0.1131
0.96405 0.583825 0.1178
1 0.588739 0.121721
1 0.593454 0.12546
1 0.598016 0.129122
0 0.47364 0
0 0.482429 0
0 0.491417 0
0 0.500511 0
0 0.509346 0
0 0.517861 0
0 0.52578 0
0.03299 0.530877 0
0.068101 0.537194 0
0.0987869 0.544457 0
0.129656 0.55108 0.0177615
0.164446 0.557366 0.0404059
0.20473 0.562829 0.0559854
0.248905 0.567437 0.0682383
0.295491 0.571633 0.078233
0.344518 0.575494 0.0859846
0.396017 0.578882 0.0909438
0.448966 0.582025 0.0933089
0.502159 0.585168 0.0936904
0.554253 0.588632 0.09337
0.603708 0.592706 0.0936751
0.649516 0.597467 0.0953384
0.692393 0.602869 0.098436
0.733562 0.608286 0.101839
0.773571 0.613626 0.105379
0.812787 0.618982 0.109148
0.851575 0.624445 0.113283
0.88957 0.629252 0.116548
0.927611 0.634058 0.119951
0.965042 0.638758 0.123415
1 0.642863 0.125978
1 0.646586 0.128099
1 0.650156 0.130159
0 0.530175 0
0 0.539666 0
0 0.549142 0
0 0.558633 0
0 0.567956 0
0 0.576898 0
0 0.584894 0
0.0413519 0.589807 0
0.0760662 0.59675 0
0.107225 0.604273 0.00294499
0.138384 0.610971 0.0333104
0.173785 0.617594 0.0530404
0.214572 0.623209 0.0682078
0.259419 0.627832 0.0803845
0.306477 0.631922 0.0904402
0.355886 0.635416 0.0982223
0.407752 0.638346 0.103502
0.460822 0.641032 0.106477
0.513954 0.643671 0.107591
0.565545 0.646525 0.107683
0.614267 0.649943 0.108019
0.659434 0.654154 0.10959
0.70135 0.6589 0.112215
0.741588 0.663615 0.114885
0.780667 0.668284 0.117632
0.818982 0.672999 0.120577
0.856611 0.677501 0.123308
0.89369 0.68159 0.125536
0.930571 0.685389 0.127398
0.966949 0.689158 0.129396
1 0.69247 0.130709
1 0.695415 0.131563
1 0.698131 0.132219
0 0.586938 0
0 0.596979 0
0 0.606836 0
0 0.616526 0
0 0.62591 0
0 0.634791 0
0.0181582 0.64213 0
0.0609293 0.646967 0
0.0926833 0.654521 0.00257877
0.122438 0.661723 0.0346075
0.153948 0.669322 0.056733
0.189166 0.676173 0.073991
0.229633 0.681727 0.0878614
0.274311 0.686152 0.0991684
0.321187 0.689967 0.108614
0.370443 0.693019 0.115877
0.422019 0.695293 0.120668
0.474739 0.6972 0.123369
0.527443 0.699123 0.124422
0.578439 0.701213 0.124437
0.626291 0.703746 0.124331
0.670497 0.707012 0.125139
0.711406 0.710933 0.127016
0.750652 0.714809 0.128817
0.788602 0.718517 0.130373
0.825589 0.722042 0.131685
0.862074 0.725536 0.133028
0.898314 0.728969 0.134356
0.934127 0.731853 0.13489
0.969543 0.734798 0.135637
1 0.737499 0.135988
1 0.740001 0.136156
1 0.742351 0.136202
0 0.644007 0
0 0.654231 0
0 0.664302 0
0 0.673869 0
0 0.682918 0
0.00756847 0.690822 0
0.0506294 0.695583 0
0.08336 0.702556 0.00756847
0.112428 0.709972 0.04065
0.141405 0.717845 0.0627909
0.172045 0.725521 0.0810407
0.206485 0.732265 0.0964675
0.246296 0.737652 0.109148
0.290059 0.741497 0.119005
0.336263 0.744747 0.127352
0.384985 0.747189 0.13373
0.435996 0.748684 0.137713
0.488014 0.749645 0.139559
0.539986 0.750576 0.139925
0.590249 0.751781 0.139422
0.637247 0.753368 0.138674
0.6804 0.75555 0.138476
0.720256 0.75845 0.139284
0.758556 0.761486 0.1402
0.795621 0.764401 0.140887
0.831769 0.767224 0.141405
0.867475 0.770092 0.14197
0.902892 0.772854 0.142428
0.938231 0.775433 0.142596
0.973114 0.777996 0.14284
1 0.780331 0.142718
1 0.782559 0.142473
1 0.784649 0.142092
0 0.700938 0
0 0.710994 0
0 0.72079 0
0 0.729992 0
0 0.737987 0
0.0406806 0.743114 0
0.0767376 0.749081 0.0150759
0.10518 0.756146 0.0475624
0.132906 0.764263 0.0695964
0.160891 0.77229 0.0881514
0.190539 0.779812 0.104387
0.223941 0.786267 0.118303
0.262562 0.791074 0.129427
0.305379 0.794369 0.138033
0.350515 0.79678 0.144915
0.398352 0.798383 0.150057
0.448585 0.799023 0.152972
0.499779 0.798978 0.15375
0.55082 0.798764 0.153017
0.600259 0.798932 0.151659
0.64651 0.799634 0.15024
0.688869 0.800946 0.149294
0.72784 0.80293 0.149203
0.765301 0.805142 0.149279
0.801831 0.807614 0.149615
0.837354 0.809888 0.149584
0.872404 0.812207 0.149569
0.907362 0.814649 0.149706
0.94226 0.816938 0.149599
0.976699 0.819226 0.149523
1 0.821271 0.149035
1 0.82327 0.148486
1 0.825147 0.147814
0 0.757626 0
0 0.767163 0
0 0.776226 0
0 0.784329 0
0.0301366 0.790341 0.0034638
0.0713817 0.794369 0.0247654
0.0999008 0.800916 0.0553445
0.126589 0.808774 0.0762951
0.152804 0.816846 0.094667
0.179385 0.824552 0.110903
0.207553 0.831495 0.12517
0.239307 0.83711 0.137057
0.276478 0.841093 0.146502
0.318349 0.843778 0.153918
0.362127 0.845121 0.15906
0.408865 0.845716 0.162707
0.458289 0.845457 0.164446
0.508812 0.844541 0.164309
0.559167 0.843412 0.162661
0.607919 0.842649 0.160479
0.653712 0.842618 0.158526
0.695628 0.843427 0.157351
0.734203 0.844968 0.157031
0.771328 0.84683 0.156985
0.807416 0.848875 0.157031
0.842695 0.85098 0.157046
0.87747 0.853117 0.157015
0.912032 0.855253 0.156909
0.946578 0.857328 0.156634
0.980667 0.859358 0.156329
1 0.861204 0.155612
1 0.862989 0.154849
1 0.864698 0.153979
0 0.812421 0
0 0.821149 0
0 0.829023 0
0.0213169 0.835233 0.012314
0.0641489 0.838163 0.0341497
0.0939498 0.844068 0.0618753
0.120256 0.851331 0.0814374
0.144915 0.858885 0.0988022
0.169436 0.866453 0.114778
0.194629 0.873579 0.129229
0.221363 0.87982 0.141772
0.251789 0.884718 0.152163
0.2878 0.888029 0.160281
0.32842 0.889799 0.166171
0.371435 0.890532 0.170306
0.417258 0.890257 0.172671
0.46595 0.889189 0.173358
0.516075 0.887663 0.172564
0.566186 0.886 0.170565
0.614679 0.884749 0.168124
0.660319 0.88426 0.165972
0.701946 0.884703 0.164721
0.740261 0.885878 0.164279
0.776928 0.887251 0.163851
0.812619 0.888884 0.163607
0.847639 0.890761 0.163577
0.882078 0.892607 0.163378
0.916335 0.894514 0.163149
0.950576 0.896361 0.162737
0.984543 0.898192 0.162249
1 0.899886 0.161486
1 0.901518 0.160571
1 0.90309 0.159594
0 0.865217 0
0 0.872724 0.00077821
0.0139162 0.878874 0.020737
0.0542153 0.8813 0.0450141
0.0863355 0.886076 0.0671855
0.113115 0.892638 0.0855116
0.137331 0.899611 0.101991
0.160143 0.906584 0.11696
0.18291 0.913359 0.1308
0.206622 0.919753 0.143526
0.232166 0.925338 0.154711
0.261311 0.929473 0.163684
0.295933 0.931853 0.170214
0.335637 0.932937 0.17496
0.378134 0.933181 0.178347
0.42359 0.932479 0.180117
0.471992 0.930968 0.18027
0.52192 0.929046 0.17911
0.571939 0.927016 0.176867
0.62031 0.925353 0.174243
0.665873 0.924453 0.171908
0.707271 0.92459 0.170611
0.745434 0.925475 0.170108
0.78204 0.926696 0.169833
0.817594 0.928176 0.169696
0.852384 0.929808 0.169589
0.886625 0.931487 0.169406
0.920623 0.933181 0.1691
0.95462 0.934859 0.168643
0.988525 0.936507 0.168032
1 0.938109 0.167315
1 0.939467 0.166094
1 0.940841 0.164904
0 0.91487 0.00657664
0.00402838 0.920806 0.0256962
0.0366064 0.924727 0.0512703
0.0749523 0.927031 0.0701915
0.102541 0.932265 0.0865339
0.126864 0.938384 0.1019
0.149401 0.944839 0.116381
0.170855 0.951217 0.129747
0.192294 0.957305 0.142061
