tracker_LUT/LUT/INDUSTRIAL__75.P1077115.cube
TITLE "Generated by Resolve"
LUT_3D_SIZE 9
0 0 0
0 0 0
0.00387579 0.000289921 0.00030518
0.0420691 0.0139467 0.0140688
0.114229 0.0132906 0.0137789
0.214496 0.0021973 0.00329595
0.313664 0 0
0.418967 0 0
0.536171 0 0
0.0262455 0.0264591 0.026276
0.0403601 0.0407874 0.0404212
0.0553597 0.0528572 0.049073
0.0948959 0.0575723 0.0423743
0.198352 0.0439307 0.0232547
0.335073 0.0209354 0.00225834
0.46247 0.0024567 0
0.596902 0 0
0.758999 0 0
0.0595407 0.0724041 0.0600137
0.0760204 0.0818647 0.0722057
0.0914473 0.0935073 0.079057
0.133257 0.101244 0.0673075
0.258427 0.0910506 0.0200504
0.455741 0.0626688 0
0.651698 0.0426184 0
0.855924 0.0299992 0
1 0.0270542 0
0.0429389 0.138216 0.0487221
0.0812695 0.149813 0.0626078
0.116075 0.168475 0.0782483
0.179202 0.189136 0.0839246
0.337499 0.19675 0.0402228
0.562905 0.192569 0
0.740841 0.201724 0
0.902785 0.218936 0
1 0.239979 0.0175326
0 0.299702 0
0 0.333898 0
0.084123 0.357549 0
0.198352 0.380911 0.0610208
0.371176 0.396902 0.074464
0.580316 0.40943 0.0560464
0.757549 0.431418 0.0677501
0.920501 0.457115 0.0923323
1 0.481895 0.117479
0 0.530175 0
0 0.567956 0
0.0760662 0.59675 0
0.214572 0.623209 0.0682078
0.407752 0.638346 0.103502
0.614267 0.649943 0.108019
0.780667 0.668284 0.117632
0.930571 0.685389 0.127398
1 0.698131 0.132219
0 0.757626 0
0.0301366 0.790341 0.0034638
0.152804 0.816846 0.094667
0.276478 0.841093 0.146502
0.458289 0.845457 0.164446
0.653712 0.842618 0.158526
0.807416 0.848875 0.157031
0.946578 0.857328 0.156634
1 0.864698 0.153979
0 0.961944 0.0285801
0.114168 0.976562 0.100313
0.199359 0.999741 0.150683
0.307195 1 0.184192
0.481209 1 0.190753
0.674678 1 0.180926
0.825711 1 0.178653
0.961517 1 0.177722
1 1 0.174624
0.0253758 1 0.082826
0.136004 1 0.128283
0.214572 1 0.17084
0.319005 1 0.199924
0.491615 1 0.202686
0.686351 1 0.191653
0.838087 1 0.190295
0.973404 1 0.190661
1 1 0.189837
0 0 0
0 0 0
0.0123293 0.00886549 0.0108186
0.0493019 0.0183261 0.0283665
0.124697 0.0154116 0.0280766
0.227832 0.00262455 0.0170596
0.328725 0 0.00572213
0.436301 0 0
0.556771 0 0
0.0313725 0.031632 0.0314031
0.0448463 0.0453498 0.0449226
0.0565652 0.0573281 0.056672
0.0958114 0.060853 0.0604105
0.203342 0.0454719 0.0460365
0.345937 0.021622 0.0231632
0.477531 0.00280766 0.00511177
0.616678 0 0
0.790448 0 0
0.0653391 0.0750744 0.0699626
0.0828565 0.0843519 0.0830701
0.0949569 0.0968795 0.0952316
0.133227 0.106065 0.091249
0.263401 0.0940261 0.0633249
0.467689 0.0674296 0.0211337
0.673213 0.0472877 0.00518807
0.876463 0.0379797 0
1 0.0393378 0
0.0527047 0.140307 0.0777295
0.0899214 0.153948 0.0925765
0.12723 0.174289 0.112902
0.188235 0.198199 0.127489
0.345312 0.208087 0.0951095
0.567468 0.203586 0.0638743
0.745571 0.213993 0.0662699
0.90808 0.232471 0.0837568
1 0.254902 0.107408
0 0.311452 0
0 0.341634 0.0158389
0.102342 0.365743 0.0756542
0.216403 0.392889 0.122683
0.385351 0.411353 0.138354
0.591897 0.425284 0.124285
0.768704 0.447684 0.135241
0.931243 0.473335 0.156954
1 0.497459 0.179095
0 0.542885 0
0 0.579583 0
0.100359 0.60647 0.0759747
0.235645 0.636912 0.136202
0.425513 0.652827 0.167681
0.628107 0.664256 0.171557
0.791882 0.681666 0.178439
0.939467 0.697124 0.184848
1 0.708751 0.187854
0 0.769696 0.00205997
0.0667277 0.795392 0.0942397
0.173541 0.82771 0.157885
0.293568 0.852064 0.202747
0.47187 0.855604 0.21828
0.664576 0.852293 0.212604
0.816495 0.85832 0.210773
0.954253 0.866316 0.209537
1 0.873503 0.206744
0.0142824 0.967071 0.116365
0.132265 0.983719 0.160204
0.21445 1 0.204028
0.320714 1 0.234928
0.492866 1 0.241138
0.684581 1 0.23212
0.834348 1 0.229953
0.96939 1 0.229252
1 1 0.22652
0.0477913 1 0.148119
0.151537 1 0.184054
0.228443 1 0.222507
0.331411 1 0.249439
0.502388 1 0.251926
0.696025 1 0.242069
0.84683 1 0.240848
0.981765 1 0.241825
1 1 0.241093
0 0 0
0 0 0
0.0191196 0.0133059 0.0192569
0.0560464 0.0223392 0.0410163
0.133867 0.0168002 0.0501411
0.24004 0.00270085 0.0348821
0.343252 0 0.0234226
0.45275 0 0.0106813
0.57731 0 0
0.0333715 0.0370184 0.0399634
0.0490578 0.0496376 0.049134
0.0604715 0.061326 0.0605936
0.0973068 0.0643473 0.0747997
0.207813 0.0465553 0.0775311
0.35584 0.0218967 0.0505226
0.491279 0.00314336 0.0320592
0.638025 0 0.0158846
0.821576 0 0
0.0652018 0.0795605 0.0788128
0.0869764 0.0886244 0.0872206
0.0996567 0.101732 0.0999466
0.132769 0.112016 0.110521
0.269871 0.0983291 0.0981155
0.47866 0.0713664 0.073106
0.692149 0.0525978 0.0551919
0.891234 0.0469673 0.0495918
1 0.052903 0.0552682
0.058854 0.144701 0.101472
0.0988479 0.159503 0.118395
0.140948 0.181155 0.143893
0.198901 0.208392 0.170596
0.352941 0.220905 0.14464
0.574182 0.217395 0.124712
0.752834 0.228946 0.131289
0.916014 0.248722 0.149477
1 0.272206 0.17258
0 0.321004 0.0425269
0.0284123 0.346365 0.0855116
0.122026 0.376226 0.132662
0.235264 0.405341 0.178195
0.400031 0.426154 0.197299
0.603937 0.441794 0.185534
0.780484 0.464775 0.196811
0.942473 0.490181 0.217243
1 0.51339 0.237446
0 0.554864 0
0 0.588281 0.0828565
0.125139 0.618936 0.143435
0.256779 0.650996 0.197116
0.442985 0.66685 0.226993
0.641321 0.677882 0.230381
0.802274 0.69424 0.234943
0.948165 0.708736 0.239536
1 0.719509 0.241413
0 0.77937 0.101839
0.0943923 0.80557 0.160479
0.193866 0.838972 0.215869
0.310018 0.862684 0.256092
0.484916 0.865156 0.26981
0.675181 0.86157 0.264775
0.825315 0.867491 0.262776
0.962142 0.875593 0.261494
1 0.882612 0.258503
0.0452277 0.972061 0.176364
0.150057 0.991547 0.215518
0.229603 1 0.255634
0.334066 1 0.284489
0.50425 1 0.290272
0.694575 1 0.282475
0.843275 1 0.280797
0.977432 1 0.280156
1 1 0.277256
0.0762798 1 0.202182
0.166964 1 0.236912
0.24184 1 0.272435
0.343465 1 0.297902
0.513466 1 0.300893
0.70602 1 0.292103
0.855894 1 0.291188
0.990173 1 0.292409
1 1 0.291783
0 0 0
0.0043183 0 0.014435
0.0301518 0.0153048 0.0442054
0.0649424 0.0236973 0.0673533
0.140887 0.0168307 0.0871748
0.248539 0 0.0918135
0.353506 0 0.0889143
0.465721 0 0.0725414
0.593423 0 0.057496
0.0277867 0.0418097 0.0732433
0.0502327 0.0510262 0.0859998
0.0699016 0.0600137 0.0973983
0.103975 0.0642405 0.108309
0.210788 0.046128 0.130068
0.361715 0.0183719 0.132952
0.499702 0 0.128023
0.655695 0 0.118486
0.84947 0 0.0969711
0.0522774 0.0847944 0.119005
0.0773632 0.0933547 0.126741
0.101778 0.104509 0.135393
0.13994 0.114916 0.145418
0.272648 0.101167 0.166583
0.48838 0.0724041 0.172091
0.702953 0.0539101 0.187961
0.894514 0.0509041 0.199527
1 0.060502 0.212696
0.0503395 0.150835 0.153368
0.0958114 0.166659 0.168276
0.145037 0.190249 0.190021
0.211688 0.218997 0.212726
0.350271 0.232776 0.23357
0.574533 0.228229 0.231403
0.754757 0.240452 0.243793
0.919081 0.261128 0.263996
1 0.285389 0.287541
0 0.326513 0.158328
0.0497444 0.350515 0.18938
0.141375 0.383261 0.231174
0.257465 0.41326 0.275746
0.412268 0.437263 0.30631
0.609033 0.455817 0.295033
0.785763 0.478691 0.306737
0.947601 0.503349 0.326268
1 0.525002 0.344625
0 0.558846 0.15378
0.0273747 0.591424 0.205295
0.146899 0.627283 0.256489
0.276555 0.660105 0.304509
0.460182 0.675731 0.335653
0.650568 0.687129 0.340734
0.806943 0.702876 0.342489
0.950683 0.716335 0.3449
1 0.726207 0.345754
0 0.785489 0.230991
0.115648 0.81181 0.274586
0.210529 0.845426 0.322133
0.323888 0.868269 0.357412
0.496956 0.869963 0.371313
0.683589 0.866331 0.369299
0.830304 0.872572 0.367605
0.964874 0.880644 0.36553
1 0.887602 0.362142
0.0690013 0.97322 0.286732
0.163287 0.994827 0.321279
0.241093 1 0.356878
0.344518 1 0.383169
0.514061 1 0.389792
0.702525 1 0.384741
0.848814 1 0.383948
0.981186 1 0.383566
1 1 0.381018
0.0914321 1 0.310521
0.177951 1 0.341268
0.252064 1 0.373495
0.352972 1 0.396948
0.52221 1 0.400305
0.713588 1 0.393622
0.861952 1 0.393713
0.995148 1 0.395865
1 1 0.395422
0 0 0.0170291
0.0119478 0.00427253 0.0555123
0.0379187 0.0147555 0.0986343
0.0770733 0.0195468 0.132738
0.150103 0.012253 0.157412
0.255299 0 0.177783
0.360281 0 0.194263
0.473182 0 0.207492
0.602274 0 0.217899
0.0220798 0.0419318 0.146563
0.0475776 0.0484016 0.171237
0.0725567 0.0544137 0.193561
0.118547 0.0544594 0.211414
0.221683 0.0380407 0.23418
0.366888 0.0111543 0.255818
0.507042 0 0.274418
0.669795 0 0.296513
0.870832 0 0.321981
0.0295872 0.085832 0.227848
0.0644846 0.0910201 0.245884
0.0964828 0.0995804 0.266178
0.156283 0.104509 0.283955
0.285466 0.0943923 0.304646
0.498009 0.0668956 0.343786
0.709712 0.0499428 0.385992
0.891936 0.0500801 0.411292
1 0.0623178 0.42916
0.0087892 0.158587 0.293477
0.0628824 0.173663 0.32015
0.117021 0.198245 0.353857
0.209049 0.222446 0.37525
0.359426 0.235676 0.383963
0.569863 0.234073 0.410727
0.750103 0.246738 0.434974
0.915328 0.267979 0.460502
1 0.292607 0.486641
0 0.331914 0.342519
0.0396735 0.357092 0.365759
0.13727 0.390799 0.397314
0.260639 0.421836 0.42533
0.429755 0.445136 0.431937
0.598093 0.467674 0.469047
0.778622 0.487892 0.491173
0.94168 0.510597 0.514076
1 0.53048 0.533837
0 0.560998 0.362585
0.0447089 0.59292 0.400092
0.159503 0.631235 0.44361
0.290974 0.663706 0.483665
0.481193 0.675746 0.514992
0.65391 0.688579 0.534966
0.799039 0.705959 0.532265
0.940932 0.718456 0.532876
1 0.727687 0.534585
0 0.785855 0.433783
0.127413 0.812406 0.467979
0.219791 0.845304 0.507607
0.332662 0.866835 0.537118
0.508415 0.866468 0.551324
0.691096 0.86186 0.559091
0.828489 0.870039 0.560265
0.958053 0.879545 0.557122
1 0.886915 0.553017
0.0769055 0.969573 0.481147
0.16907 0.991775 0.510445
0.246479 1 0.541268
0.350301 1 0.564218
0.52134 1 0.571191
0.709178 1 0.57258
0.85098 1 0.576333
0.978531 1 0.576852
1 1 0.573632
0.0964675 1 0.504936
0.181842 1 0.531167
0.255818 1 0.559319
0.356893 1 0.579889
0.527565 1 0.583917
0.718868 1 0.581384
0.865339 1 0.585443
0.995239 1 0.589349
1 1 0.589395
0 0 0.0414588
0.0132296 0.00544747 0.10425
0.041474 0.0133974 0.166247
0.0838483 0.0149996 0.213947
0.161425 0.00485237 0.24654
0.26598 0 0.274464
0.369848 0 0.302922
0.484077 0 0.331411
0.615122 0 0.358892
0.0211185 0.0383459 0.236194
0.0435035 0.0439918 0.275624
0.0752728 0.0467231 0.309697
0.128954 0.0433814 0.34052
0.236393 0.0258793 0.365789
0.378988 0.00047303 0.392706
0.52079 0 0.427863
0.689296 0 0.474006
0.894728 0 0.526711
0.0177768 0.0818494 0.35584
0.0486763 0.0875715 0.388571
0.0902876 0.093431 0.420066
0.160021 0.0952163 0.456168
0.30837 0.0807813 0.492943
0.527047 0.0533608 0.548974
0.724498 0.0429847 0.598047
0.893431 0.0485237 0.626276
1 0.0632029 0.646448
0 0.158526 0.470603
0.0303044 0.176928 0.521965
0.101076 0.198688 0.569726
0.205493 0.220386 0.598581
0.380499 0.229023 0.597559
0.58204 0.233631 0.608103
0.75433 0.250004 0.634653
0.916335 0.272877 0.663874
1 0.298039 0.692714
0 0.33843 0.555856
0 0.36965 0.5794
0.115923 0.400275 0.602029
0.242313 0.432547 0.623758
0.425742 0.453239 0.624262
0.610193 0.473732 0.637018
0.778515 0.495491 0.673976
0.938338 0.516899 0.705211
1 0.534737 0.729229
0 0.567605 0.572869
0.0345006 0.601251 0.604501
0.153613 0.638926 0.640146
0.286091 0.671168 0.67039
0.481453 0.682475 0.678874
0.668238 0.692058 0.671611
0.780926 0.713314 0.705516
0.92636 0.722316 0.717662
1 0.729397 0.725856
0 0.789761 0.640146
0.12665 0.815366 0.667384
0.217563 0.846723 0.700252
0.330739 0.866972 0.723033
0.512474 0.864851 0.728496
0.708522 0.855528 0.740078
0.828092 0.866697 0.758862
0.944976 0.879652 0.752194
1 0.886946 0.748089
0.0747997 0.968292 0.682582
0.167239 0.990021 0.707362
0.244587 1 0.733944
0.34966 1 0.753048
0.525338 1 0.756588
0.720027 1 0.761227
0.858656 1 0.775189
0.975509 1 0.779675
1 1 0.774945
0.0943465 1 0.7066
0.179995 1 0.729168
0.254566 1 0.754208
0.357031 1 0.772259
0.530602 1 0.774365
0.726177 1 0.774472
0.872694 1 0.784436
0.997803 1 0.793194
1 1 0.794583
0 0 0.0629129
0.0158389 0.00700389 0.156817
0.0437324 0.0127718 0.228321
0.0884718 0.0120546 0.283497
0.17052 0 0.322942
0.278431 0 0.356542
0.383444 0 0.391989
0.49865 0 0.429252
0.631632 0 0.467521
0.0196384 0.0365454 0.310567
0.0410773 0.0412299 0.359152
0.0745708 0.0425116 0.402029
0.132921 0.0374456 0.442008
0.246845 0.0180362 0.474922
0.393744 0 0.506676
0.541909 0 0.555489
0.716777 0 0.618967
0.924315 0 0.688182
0.0119783 0.078584 0.459678
0.040177 0.0851759 0.503746
0.0867781 0.0900282 0.546029
0.163424 0.0903487 0.598962
0.326329 0.0729839 0.653971
0.554192 0.045655 0.718349
0.742473 0.0407111 0.763165
0.901061 0.0518807 0.785779
1 0.0694438 0.805158
0 0.158892 0.617365
0.0142367 0.179812 0.686717
0.0957809 0.201328 0.741588
0.207263 0.222889 0.768688
0.39202 0.230564 0.765759
0.598581 0.236042 0.769085
0.767697 0.255329 0.790692
0.926284 0.280522 0.818647
1 0.306905 0.847669
0 0.345312 0.722332
0 0.378988 0.746059
0.110704 0.409598 0.766491
0.240406 0.442298 0.787488
0.43183 0.461173 0.78999
0.631708 0.477668 0.793576
0.793759 0.501198 0.819425
0.946334 0.523278 0.849195
1 0.540352 0.874266
0 0.578393 0.735256
0.0287785 0.613458 0.764767
0.150652 0.650309 0.796201
0.281941 0.682048 0.821836
0.473671 0.693324 0.822446
0.664576 0.700221 0.807309
0.792065 0.717189 0.817243
0.925444 0.727443 0.843519
1 0.7337 0.861479
0 0.798169 0.796002
0.124407 0.82269 0.818952
0.214237 0.85301 0.847883
0.326268 0.872419 0.866087
0.507546 0.870466 0.862837
0.707454 0.861631 0.851072
0.84065 0.870512 0.844877
0.931777 0.887495 0.873442
1 0.892149 0.881743
0.0714885 0.971786 0.832792
0.164324 0.992981 0.854627
0.242054 1 0.878874
0.347356 1 0.894926
0.524346 1 0.892607
0.725536 1 0.888502
0.875135 1 0.904952
0.978698 1 0.925155
1 1 0.9178
0.0927291 1 0.855985
0.178988 1 0.876524
0.253819 1 0.899596
0.356527 1 0.915251
0.53225 1 0.914351
0.732113 1 0.910887
0.884001 1 0.923247
1 1 0.939971
1 1 0.945342
0 0 0.120714
0.0178988 0.00796521 0.214496
0.0433356 0.0125429 0.29305
0.0919356 0.00918593 0.352941
0.178271 0 0.398993
0.290013 0 0.43798
0.398306 0 0.481117
0.516075 0 0.52668
0.649851 0 0.572595
0.0180056 0.0347448 0.384833
0.0387427 0.0386358 0.441062
0.0709544 0.0395209 0.492561
0.13518 0.0323949 0.539971
0.255512 0.0113832 0.581506
0.409735 0 0.621912
0.565789 0 0.685115
0.74815 0 0.765209
0.955688 0 0.84535
0.00875868 0.0750439 0.562921
0.0357519 0.0820783 0.614633
0.0834974 0.0869306 0.67097
0.166873 0.0860456 0.74078
0.342702 0.066743 0.813153
0.57702 0.0408789 0.881056
0.758526 0.0403601 0.917113
0.911482 0.0554055 0.933593
1 0.0759747 0.950378
0 0.159854 0.764111
0.00462348 0.182727 0.846738
0.093843 0.204807 0.902388
0.210941 0.227085 0.922881
0.401526 0.234745 0.920333
0.613336 0.240574 0.921096
0.782803 0.261524 0.938704
0.939467 0.288426 0.963745
1 0.31574 0.990951
0 0.352224 0.876188
0 0.387427 0.899809
0.111254 0.418647 0.919249
0.243305 0.451789 0.939879
0.43917 0.469642 0.943221
0.647364 0.483665 0.944472
0.810758 0.5066 0.962753
0.959152 0.528618 0.986603
1 0.545174 1
0 0.589578 0.886763
0.0270848 0.625345 0.914717
0.150057 0.661189 0.943099
0.280171 0.692027 0.965942
0.470527 0.701976 0.964294
0.667079 0.704875 0.95021
0.809033 0.717098 0.951797
0.937331 0.729152 0.967071
1 0.736843 0.98555
0 0.807462 0.940734
0.121386 0.83064 0.960281
0.209812 0.859648 0.986007
0.320577 0.878218 1
0.500298 0.876417 0.993561
0.697002 0.868864 0.974166
0.835889 0.87631 0.963684
0.942946 0.890379 0.970901
1 0.896696 0.993286
0.0665904 0.977111 0.97171
0.16022 0.99762 0.991104
0.237598 1 1
0.342794 1 1
0.519768 1 1
0.720867 1 1
0.873808 1 1
0.991424 1 0.998337
1 1 1
0.0893721 1 0.99295
0.175937 1 1
0.251102 1 1
0.354421 1 1
0.530358 1 1
0.732845 1 1
0.890211 1 1
1 1 1
1 1 1
0.00148013 0.000991836 0.171878
0.0189822 0.00805676 0.276967
0.0424811 0.0116274 0.362371
0.0945907 0.00607309 0.427665
0.185016 0 0.479591
0.301244 0 0.525048
0.413001 0 0.575936
0.534218 0 0.630304
0.671977 0 0.685954
0.0158083 0.0325628 0.463249
0.0360266 0.0356603 0.526772
0.0647746 0.0369726 0.588144
0.136492 0.027451 0.643076
0.26247 0.00494392 0.691508
0.425544 0 0.745342
0.5906 0 0.825376
0.779767 0 0.921172
0.983948 0 1
0.00943008 0.0699168 0.675502
0.036286 0.0773632 0.736492
0.0798047 0.0837873 0.807263
0.171008 0.0817578 0.89395
0.361196 0.0602121 0.983169
0.595911 0.0376593 1
0.771878 0.0417182 1
0.9234 0.0592966 1
1 0.0828565 1
0 0.161288 0.92221
0 0.185901 1
0.093431 0.208408 1
0.215167 0.231739 1
0.41004 0.23975 1
0.626276 0.245853 1
0.797345 0.26775 1
0.953368 0.295567 1
1 0.323308 1
0 0.359045 1
0 0.39559 1
0.114412 0.427558 1
0.248295 0.461234 1
0.447059 0.478431 1
0.660136 0.490486 1
0.825467 0.51165 1
0.972351 0.532494 1
1 0.548287 1
0 0.600046 1
0.0258946 0.636378 1
0.15082 0.671244 1
0.279911 0.700999 1
0.469581 0.709072 1
0.669795 0.708766 1
0.819059 0.71783 1
0.950027 0.728695 1
1 0.737377 1
0 0.816098 1
0.116899 0.837812 1
0.20444 0.865538 1
0.315114 0.883818 1
0.49398 0.881773 1
0.690669 0.873655 1
0.835874 0.87837 1
0.957565 0.888457 1
1 0.897093 1
0.0581369 0.982727 1
0.153887 1 1
0.231846 1 1
0.336919 1 1
0.513115 1 1
0.712398 1 1
0.863127 1 1
0.985412 1 1
1 1 1
0.0825818 1 1
0.170962 1 1
0.246586 1 1
0.349737 1 1
0.525765 1 1
0.728054 1 1
0.885435 1 1
1 1 1
1 1 1
