tracker_LUT/LUT/INDUSTRIAL__75.P1077115.cube
TITLE "Generated by Resolve"
LUT_3D_SIZE 5
0 0 0
0.00387579 0.000289921 0.00030518
0.114229 0.0132906 0.0137789
0.313664 0 0
0.536171 0 0
0.0595407 0.0724041 0.0600137
0.0914473 0.0935073 0.079057
0.258427 0.0910506 0.0200504
0.651698 0.0426184 0
1 0.0270542 0
0 0.299702 0
0.084123 0.357549 0
0.371176 0.396902 0.074464
0.757549 0.431418 0.0677501
1 0.481895 0.117479
0 0.757626 0
0.152804 0.816846 0.094667
0.458289 0.845457 0.164446
0.807416 0.848875 0.157031
1 0.864698 0.153979
0.0253758 1 0.082826
0.214572 1 0.17084
0.491615 1 0.202686
0.838087 1 0.190295
1 1 0.189837
0 0 0
0.0191196 0.0133059 0.0192569
0.133867 0.0168002 0.0501411
0.343252 0 0.0234226
0.57731 0 0
0.0652018 0.0795605 0.0788128
0.0996567 0.101732 0.0999466
0.269871 0.0983291 0.0981155
0.692149 0.0525978 0.0551919
1 0.052903 0.0552682
0 0.321004 0.0425269
0.122026 0.376226 0.132662
0.400031 0.426154 0.197299
0.780484 0.464775 0.196811
1 0.51339 0.237446
0 0.77937 0.101839
0.193866 0.838972 0.215869
0.484916 0.865156 0.26981
0.825315 0.867491 0.262776
1 0.882612 0.258503
0.0762798 1 0.202182
0.24184 1 0.272435
0.513466 1 0.300893
0.855894 1 0.291188
1 1 0.291783
0 0 0.0170291
0.0379187 0.0147555 0.0986343
0.150103 0.012253 0.157412
0.360281 0 0.194263
0.602274 0 0.217899
0.0295872 0.085832 0.227848
0.0964828 0.0995804 0.266178
0.285466 0.0943923 0.304646
0.709712 0.0499428 0.385992
1 0.0623178 0.42916
0 0.331914 0.342519
0.13727 0.390799 0.397314
0.429755 0.445136 0.431937
0.778622 0.487892 0.491173
1 0.53048 0.533837
0 0.785855 0.433783
0.219791 0.845304 0.507607
0.508415 0.866468 0.551324
0.828489 0.870039 0.560265
1 0.886915 0.553017
0.0964675 1 0.504936
0.255818 1 0.559319
0.527565 1 0.583917
0.865339 1 0.585443
1 1 0.589395
0 0 0.0629129
0.0437324 0.0127718 0.228321
0.17052 0 0.322942
0.383444 0 0.391989
0.631632 0 0.467521
0.0119783 0.078584 0.459678
0.0867781 0.0900282 0.546029
0.326329 0.0729839 0.653971
0.742473 0.0407111 0.763165
1 0.0694438 0.805158
0 0.345312 0.722332
0.110704 0.409598 0.766491
0.43183 0.461173 0.78999
0.793759 0.501198 0.819425
1 0.540352 0.874266
0 0.798169 0.796002
0.214237 0.85301 0.847883
0.507546 0.870466 0.862837
0.84065 0.870512 0.844877
1 0.892149 0.881743
0.0927291 1 0.855985
0.253819 1 0.899596
0.53225 1 0.914351
0.884001 1 0.923247
1 1 0.945342
0.00148013 0.000991836 0.171878
0.0424811 0.0116274 0.362371
0.185016 0 0.479591
0.413001 0 0.575936
0.671977 0 0.685954
0.00943008 0.0699168 0.675502
0.0798047 0.0837873 0.807263
0.361196 0.0602121 0.983169
0.771878 0.0417182 1
1 0.0828565 1
0 0.359045 1
0.114412 0.427558 1
0.447059 0.478431 1
0.825467 0.51165 1
1 0.548287 1
0 0.816098 1
0.20444 0.865538 1
0.49398 0.881773 1
0.835874 0.87837 1
1 0.897093 1
0.0825818 1 1
0.246586 1 1
0.525765 1 1
0.885435 1 1
1 1 1
