tracker_LUT/LUT/lut_3.P1530817.cube
TITLE "Generated by Resolve"
LUT_3D_SIZE 5
0 0 0
0.219867 0 0
0.783749 0 0
1 0 0
1 0 0
0 0.174472 0
0.20911 0.122988 0
0.72401 0.107164 0
1 0.113558 0
1 0.138125 0
0 0.658274 0
0 0.682383 0
0.891768 0.559472 0
1 0.613245 0
1 0.665095 0
0 1 0
0 1 0
0.567849 1 0
1 0.91078 0
1 0.892088 0
0 1 0
0 1 0
0.424002 1 0
1 1 0
1 1 0
0 0 0.344152
0.207019 0 0.313115
0.782757 0 0.214511
1 0 0.165331
1 0 0.141833
0 0.162936 0.246174
0.150942 0.153094 0.173938
0.741527 0.103929 0.156008
1 0.114229 0.152377
1 0.138964 0.167529
0 0.663111 0.0989853
0 0.688045 0.105989
0.783001 0.605432 0.0511025
1 0.65333 0.0438239
1 0.659175 0.0470436
0 1 0.120302
0 1 0.10277
0.504326 1 0.0205539
1 0.937346 0
1 0.933974 0.00247196
0 1 0.0864729
0 1 0.055314
0.419486 1 0
0.955016 1 0
1 1 0
0 0 0.916228
0.156008 0 0.898741
0.748989 0 0.825071
1 0 0.790188
1 0 0.772335
0 0.142611 0.844541
0.0854658 0.133043 0.846006
0.723323 0.0991989 0.80679
1 0.108476 0.802548
1 0.132204 0.814404
0 0.653132 0.726009
0 0.677195 0.744961
0.578729 0.641657 0.690517
1 0.641001 0.68719
1 0.64033 0.674449
0 1 0.727718
0 1 0.710338
0.465248 1 0.610986
1 0.976303 0.524804
1 0.979904 0.507713
0 1 0.677317
0 1 0.645182
0.389883 1 0.543069
0.847028 1 0.474357
1 1 0.437095
0 0 1
0.137407 0 1
0.726375 0 1
1 0 1
1 0 1
0 0.133196 1
0.0823987 0.130983 1
0.714488 0.104143 1
1 0.112398 1
1 0.135164 1
0 0.653864 1
0 0.677546 1
0.556176 0.643244 1
1 0.633463 1
1 0.624918 1
0 1 1
0 1 1
0.452964 1 1
0.952178 0.991821 1
1 0.972702 1
0 1 1
0 1 1
0.379553 1 0.995987
0.830549 1 0.959579
1 1 0.909682
0 0 1
0.127153 0 1
0.713619 0 1
1 0 1
1 0 1
0 0.131212 1
0.085893 0.135988 1
0.715297 0.113649 1
1 0.121401 1
1 0.143908 1
0 0.660624 1
0 0.683375 1
0.559899 0.646708 1
1 0.634699 1
1 0.620386 1
0 1 1
0 1 1
0.452094 1 1
0.918532 0.98883 1
1 0.964614 1
0 1 1
0 1 1
0.378119 1 1
0.830335 1 1
1 1 1
