tracker_LUT/LUT/lut_3.P1530817.cube
TITLE "Generated by Resolve"
LUT_3D_SIZE 9
0 0 0
0 0 0
0.219867 0 0
0.508171 0 0
0.783749 0 0
0.989944 0 0
1 0 0
1 0 0
1 0 0
0 0.00218204 0
0 0 0
0.167544 0 0
0.462272 0 0
0.747753 0 0
0.959594 0 0
1 0 0
1 0 0
1 0 0
0 0.174472 0
0 0.166094 0
0.20911 0.122988 0
0.412314 0.123812 0
0.72401 0.107164 0
0.950683 0.102937 0
1 0.113558 0
1 0.126024 0
1 0.138125 0
0 0.387366 0
0 0.393423 0
0.0289769 0.399313 0
0.543862 0.324361 0
0.743099 0.348013 0
0.906722 0.368612 0
1 0.381231 0
1 0.394507 0
1 0.407111 0
0 0.658274 0
0 0.672496 0
0 0.682383 0
0.261662 0.662409 0
0.891768 0.559472 0
1 0.553185 0
1 0.613245 0
1 0.652613 0
1 0.665095 0
0 0.904616 0
0 0.916991 0
0 0.924987 0
0.228275 0.911513 0
0.713115 0.856352 0
1 0.766781 0
1 0.748241 0
1 0.767926 0
1 0.813901 0
0 1 0
0 1 0
0 1 0
0.222187 1 0
0.567849 1 0
1 0.96228 0
1 0.91078 0
1 0.886671 0
1 0.892088 0
0 1 0
0 1 0
0 1 0
0.19295 1 0
0.47602 1 0
0.900389 1 0
1 1 0
1 1 0
1 1 0
0 1 0
0 1 0
0 1 0
0.160754 1 0
0.424002 1 0
0.755459 1 0
1 1 0
1 1 0
1 1 0
0 0 0.140169
0.0200656 0 0.113359
0.218357 0 0.101823
0.508522 0 0.0571603
0.783673 0 0.0139925
0.991699 0 0
1 0 0
1 0 0
1 0 0
0 0.00492866 0.0898909
0 0 0.0126192
0.179965 0 0.0274052
0.467399 0 0.0147402
0.751644 0 0
0.964691 0 0
1 0 0
1 0 0
1 0 0
0 0.169299 0.0377356
0 0.15639 0.0303655
0.127855 0.139788 0.0420081
0.421393 0.120897 0
0.732677 0.106188 0
0.960296 0.103349 0
1 0.114565 0
1 0.127245 0
1 0.139178 0
0 0.387198 0
0 0.395377 0
0.0419776 0.405646 0
0.485695 0.345464 0
0.690074 0.368612 0
0.913985 0.370352 0
1 0.382818 0
1 0.396155 0
1 0.408545 0
0 0.661494 0
0 0.675441 0
0 0.685481 0
0.25803 0.671656 0
0.841062 0.581994 0
1 0.581552 0
1 0.638849 0
1 0.660792 0
1 0.663432 0
0 0.908965 0
0 0.919875 0
0 0.927123 0
0.230564 0.912932 0
0.630274 0.875624 0
1 0.784482 0
1 0.765515 0
1 0.793103 0
1 0.833127 0
0 1 0
0 1 0
0 1 0
0.223529 1 0
0.524132 1 0
0.993973 0.97998 0
1 0.923858 0
1 0.90013 0
1 0.90898 0
0 1 0
0 1 0
0 1 0
0.191546 1 0
0.462425 1 0
0.823987 1 0
1 1 0
1 1 0
1 1 0
0 1 0
0 1 0
0 1 0
0.158679 1 0
0.421775 1 0
0.711589 1 0
1 1 0
1 1 0
1 1 0
0 0 0.344152
0.022034 0 0.318685
0.207019 0 0.313115
0.502266 0 0.267597
0.782757 0 0.214511
0.992111 0 0.18146
1 0 0.165331
1 0 0.151873
1 0 0.141833
0 0.00199893 0.301701
0 0 0.296971
0.156054 0 0.280613
0.465263 0 0.228199
0.752911 0 0.176776
0.967407 0 0.149722
1 0 0.14406
1 0 0.143938
1 0 0.148058
0 0.162936 0.246174
0 0.156344 0.239841
0.150942 0.153094 0.173938
0.44538 0.117754 0.182666
0.741527 0.103929 0.156008
0.968902 0.102617 0.145846
1 0.114229 0.152377
1 0.126925 0.160281
1 0.138964 0.167529
0 0.385946 0.146136
0 0.395758 0.148333
0.0584573 0.412024 0.132113
0.421256 0.36965 0.107042
0.685237 0.372381 0.101839
0.923476 0.370367 0.100725
1 0.383032 0.109575
1 0.395911 0.118105
1 0.407584 0.125582
0 0.663111 0.0989853
0 0.676997 0.105303
0 0.688045 0.105989
0.247929 0.67538 0.0807965
0.783001 0.605432 0.0511025
0.963607 0.614191 0.0630503
1 0.65333 0.0438239
1 0.65922 0.0479438
1 0.659175 0.0470436
0 0.908965 0.0975814
0 0.921096 0.101595
0 0.927535 0.0996262
0.250996 0.917388 0.0659342
0.56434 0.889937 0.02533
1 0.802304 0.0173648
1 0.78381 0.057557
1 0.820569 0.01561
1 0.847196 0
0 1 0.120302
0 1 0.114
0 1 0.10277
0.225391 1 0.0637369
0.504326 1 0.0205539
0.909087 0.998795 0
1 0.937346 0
1 0.91426 0.0280766
1 0.933974 0.00247196
0 1 0.112215
0 1 0.0963455
0 1 0.0812085
0.186908 1 0.0408942
0.458137 1 0
0.758724 1 0
1 1 0
1 1 0
1 1 0
0 1 0.0864729
0 1 0.0727855
0 1 0.055314
0.155657 1 0.0157626
0.419486 1 0
0.682857 1 0
0.955016 1 0
1 1 0
1 1 0
0 0 0.63917
0 0 0.632273
0.183566 0 0.616587
0.460029 0 0.577279
0.767361 0 0.526436
0.979385 0 0.493782
1 0 0.476997
1 0 0.463096
1 0 0.452689
0 0 0.603296
0 0 0.597543
0.135836 0 0.586496
0.419196 0 0.545113
0.74136 0 0.494316
0.962219 0 0.467384
1 0 0.46154
1 0 0.461433
1 0 0.465507
0 0.154437 0.552575
0 0.148302 0.550469
0.0941024 0.140749 0.55053
0.395148 0.10959 0.525505
0.74023 0.0999466 0.486091
0.969543 0.0990616 0.471153
1 0.110948 0.475563
1 0.123201 0.481056
1 0.135714 0.487037
0 0.378561 0.458335
0 0.388968 0.466941
0.0286259 0.398123 0.474922
0.359976 0.383658 0.415885
0.697261 0.368093 0.418341
0.931273 0.362753 0.409537
1 0.37641 0.416617
1 0.389868 0.424353
1 0.401358 0.430488
0 0.659922 0.391638
0 0.673579 0.399802
0 0.684657 0.403372
0.240146 0.671916 0.373953
0.656245 0.634485 0.31519
0.86743 0.640223 0.315221
1 0.644724 0.321386
1 0.646525 0.321798
1 0.64506 0.318227
0 0.904051 0.372152
0 0.915465 0.377997
0 0.920974 0.376562
0.223163 0.904311 0.34493
0.522332 0.884855 0.304341
0.949233 0.823484 0.274022
1 0.809125 0.302052
1 0.844434 0.25742
1 0.841199 0.247776
0 1 0.393118
0 1 0.387457
0 1 0.373495
0.208469 1 0.333471
0.491035 1 0.286473
0.777218 1 0.245991
1 0.953857 0.238972
1 0.932616 0.275669
1 0.964904 0.227344
0 1 0.379416
0 1 0.365118
0 1 0.346349
0.176532 1 0.305852
0.444099 1 0.261646
0.7084 1 0.226398
0.98674 1 0.190921
1 1 0.202106
1 1 0.244343
0 1 0.349554
0 1 0.335851
0 1 0.318929
0.145785 1 0.279316
0.4056 1 0.234577
0.670298 1 0.199374
0.877104 1 0.182605
1 1 0.141329
1 1 0.167102
0 0 0.916228
0 0 0.910079
0.156008 0 0.898741
0.431678 0 0.859037
0.748989 0 0.825071
0.961761 0 0.803357
1 0 0.790188
1 0 0.779751
1 0 0.772335
0 0 0.883696
0 0 0.877409
0.117754 0 0.868116
0.397299 0 0.840742
0.723156 0 0.803906
0.946334 0 0.78648
1 0 0.783948
1 0 0.785702
1 0 0.790097
0 0.142611 0.844541
0 0.137987 0.843259
0.0854658 0.133043 0.846006
0.377218 0.107958 0.83505
0.723323 0.0991989 0.80679
0.959747 0.0974441 0.799344
1 0.108476 0.802548
1 0.119814 0.807935
1 0.132204 0.814404
0 0.37644 0.776699
0 0.387396 0.787259
0.0304875 0.396307 0.797711
0.310292 0.380697 0.792828
0.679728 0.360403 0.765896
0.931456 0.356176 0.759548
1 0.368734 0.769009
1 0.38114 0.772702
1 0.391379 0.774975
0 0.653132 0.726009
0 0.666667 0.737118
0 0.677195 0.744961
0.235035 0.664485 0.731029
0.578729 0.641657 0.690517
0.851316 0.643366 0.69247
1 0.641001 0.68719
1 0.642466 0.682155
1 0.64033 0.674449
0 0.90251 0.71136
0 0.912963 0.718807
0 0.917311 0.719142
0.215473 0.900923 0.691341
0.494194 0.878874 0.645167
0.806241 0.856489 0.600702
0.988602 0.845457 0.581964
1 0.83769 0.57409
1 0.827085 0.563272
0 1 0.727718
0 1 0.722942
0 1 0.710338
0.199451 1 0.669108
0.465248 1 0.610986
0.745647 1 0.556008
1 0.976303 0.524804
1 0.960388 0.549996
1 0.979904 0.507713
0 1 0.709865
0 1 0.696696
0 1 0.677958
0.169009 1 0.632273
0.427665 1 0.576394
0.69218 1 0.53106
0.891524 1 0.503807
1 1 0.480659
1 1 0.522469
0 1 0.677317
0 1 0.663371
0 1 0.645182
0.136233 1 0.600778
0.389883 1 0.543069
0.652934 1 0.501335
0.847028 1 0.474357
1 1 0.443046
1 1 0.437095
0 0 1
0 0 1
0.144228 0 1
0.418692 0 1
0.735164 0 1
0.94815 0 1
1 0 1
1 0 1
1 0 1
0 0 1
0 0 1
0.107607 0 1
0.384283 0 1
0.711147 0 1
0.935851 0 1
1 0 1
1 0 1
1 0 1
0 0.135378 1
0 0.132433 1
0.0816205 0.129595 1
0.369985 0.108141 1
0.715053 0.100206 1
0.952422 0.0980087 1
1 0.108293 1
1 0.118975 1
1 0.131334 1
0 0.374014 1
0 0.385809 1
0.0320134 0.394858 1
0.309407 0.379858 1
0.662425 0.35906 1
0.919631 0.354437 1
1 0.367117 1
1 0.377829 1
1 0.386282 1
0 0.651011 0.962875
0 0.664775 0.974609
0 0.674861 0.98349
0.239811 0.661128 0.974685
0.553399 0.641398 0.968139
0.858335 0.633036 0.964187
1 0.632609 0.957305
1 0.632059 0.947631
1 0.628702 0.936217
0 0.899886 0.9579
0 0.909316 0.965164
0 0.912505 0.966323
0.213107 0.893446 0.94522
0.48864 0.868132 0.918502
0.800702 0.851118 0.880339
0.942473 0.854398 0.884108
1 0.831083 0.871855
1 0.821408 0.855924
0 1 0.969009
0 1 0.965118
0 1 0.955261
0.192081 1 0.923583
0.452781 1 0.885863
0.70164 1 0.862608
0.936889 0.99559 0.859144
1 0.988724 0.806668
1 0.978088 0.794507
0 1 0.950759
0 1 0.940307
0 1 0.926223
0.159472 1 0.89247
0.415396 1 0.84976
0.664714 1 0.815229
0.879545 1 0.784634
1 1 0.749615
1 1 0.767834
0 1 0.921935
0 1 0.911208
0 1 0.896956
0.12813 1 0.86157
0.381094 1 0.815473
0.624811 1 0.779568
0.839231 1 0.752346
1 1 0.728008
1 1 0.698772
0 0 1
0 0 1
0.137407 0 1
0.410269 0 1
0.726375 0 1
0.941161 0 1
1 0 1
1 0 1
1 0 1
0 0 1
0 0 1
0.103105 0 1
0.378668 0 1
0.706279 0 1
0.932265 0 1
1 0 1
1 0 1
1 0 1
0 0.133196 1
0 0.131945 1
0.0823987 0.130983 1
0.37026 0.111009 1
0.714488 0.104143 1
0.951888 0.102296 1
1 0.112398 1
1 0.123354 1
1 0.135164 1
0 0.37644 1
0 0.388891 1
0.0363012 0.398108 1
0.312428 0.383429 1
0.660014 0.365499 1
0.914046 0.361135 1
1 0.371405 1
1 0.380804 1
1 0.387533 1
0 0.653864 1
0 0.667597 1
0 0.677546 1
0.2448 0.66302 1
0.556176 0.643244 1
0.848112 0.636103 1
1 0.633463 1
1 0.63035 1
1 0.624918 1
0 0.901625 1
0 0.909972 1
0 0.911864 1
0.215076 0.891432 1
0.490318 0.865461 1
0.768551 0.85304 1
0.963989 0.842649 1
1 0.824292 1
1 0.814008 1
0 1 1
0 1 1
0 1 1
0.191348 1 1
0.452964 1 1
0.707225 1 1
0.952178 0.991821 1
1 0.995697 1
1 0.972702 1
0 1 1
0 1 1
0 1 1
0.158572 1 1
0.414588 1 1
0.657115 1 1
0.871672 1 1
1 1 1
1 1 0.962554
0 1 1
0 1 1
0 1 1
0.127413 1 1
0.379553 1 0.995987
0.616358 1 0.97258
0.830549 1 0.959579
1 1 0.937224
1 1 0.909682
0 0 1
0 0 1
0.13193 0 1
0.403586 0 1
0.719783 0 1
0.934874 0 1
1 0 1
1 0 1
1 0 1
0 0 1
0 0 1
0.0993362 0 1
0.374289 0 1
0.702571 0 1
0.929702 0 1
1 0 1
1 0 1
1 0 1
0 0.13193 1
0 0.132326 1
0.0839399 0.133227 1
0.371374 0.11487 1
0.714687 0.10898 1
0.951217 0.107103 1
1 0.116793 1
1 0.127779 1
1 0.139498 1
0 0.379614 1
0 0.392523 1
0.0407263 0.401648 1
0.315679 0.387381 1
0.660731 0.370123 1
0.913146 0.366079 1
1 0.37586 1
1 0.3841 1
1 0.389288 1
0 0.65716 1
0 0.670893 1
0 0.680446 1
0.248875 0.665354 1
0.558495 0.645136 1
0.849424 0.637675 1
1 0.634409 1
1 0.629648 1
1 0.622477 1
0 0.903395 1
0 0.910567 1
0 0.911192 1
0.216327 0.889616 1
0.492866 0.861158 1
0.770626 0.848142 1
0.965148 0.835279 1
1 0.821698 1
1 0.809689 1
0 1 1
0 1 1
0 1 1
0.190387 1 1
0.452934 1 1
0.70457 1 1
0.917983 0.994018 1
1 0.985351 1
1 0.967422 1
0 1 1
0 1 1
0 1 1
0.158038 1 1
0.414298 1 1
0.658442 1 1
0.872511 1 1
1 1 1
1 1 1
0 1 1
0 1 1
0 1 1
0.127031 1 1
0.378912 1 1
0.616541 1 1
0.82977 1 1
1 1 1
1 1 1
0 0 1
0 0 1
0.127153 0 1
0.397345 0 1
0.713619 0 1
0.92903 0 1
1 0 1
1 0 1
1 0 1
0 0 1
0 0 1
0.096025 0 1
0.370886 0 1
0.699809 0 1
0.927962 0 1
1 0 1
1 0 1
1 0 1
0 0.131212 1
0 0.133318 1
0.085893 0.135988 1
0.373159 0.118746 1
0.715297 0.113649 1
0.950912 0.111711 1
1 0.121401 1
1 0.132601 1
1 0.143908 1
0 0.383108 1
0 0.396292 1
0.0446937 0.405127 1
0.319188 0.391592 1
0.662684 0.375082 1
0.913771 0.370916 1
1 0.379965 1
1 0.387182 1
1 0.391089 1
0 0.660624 1
0 0.674266 1
0 0.683375 1
0.252476 0.667567 1
0.559899 0.646708 1
0.847303 0.638727 1
1 0.634699 1
1 0.628763 1
1 0.620386 1
0 0.904967 1
0 0.910903 1
0 0.910292 1
0.217136 0.887602 1
0.492561 0.858061 1
0.767742 0.844694 1
0.958923 0.832486 1
1 0.819425 1
1 0.807019 1
0 1 1
0 1 1
0 1 1
0.18967 1 1
0.452094 1 1
0.709499 0.994614 1
0.918532 0.98883 1
1 0.976806 1
1 0.964614 1
0 1 1
0 1 1
0 1 1
0.157565 1 1
0.413626 1 1
0.659129 1 1
0.874525 1 1
1 1 1
1 1 1
0 1 1
0 1 1
0 1 1
0.126513 1 1
0.378119 1 1
0.616449 1 1
0.830335 1 1
1 1 1
1 1 1
