tracker_LUT/LUT/lut_3.P1530817.cube
TITLE "Generated by Resolve"
LUT_3D_SIZE 33
0 0 0
0 0 0
0 0 0
0 0 0
0 0 0
0.0422065 0 0
0.104326 0 0
0.164874 0 0
0.219867 0 0
0.282765 0 0
0.353262 0 0
0.430671 0 0
0.508171 0 0
0.583474 0 0
0.655955 0 0
0.721233 0 0
0.783749 0 0
0.841657 0 0
0.895369 0 0
0.944915 0 0
0.989944 0 0
1 0 0
1 0 0
1 0 0
1 0 0
1 0 0
1 0 0
1 0 0
1 0 0
1 0 0
1 0 0
1 0 0
1 0 0
0 0 0
0 0 0
0 0 0
0 0 0
0 0 0
0.021622 0 0
0.0829175 0 0
0.149432 0 0
0.208896 0 0
0.271717 0 0
0.342168 0 0
0.419425 0 0
0.497337 0 0
0.571893 0 0
0.645121 0 0
0.711391 0 0
0.77406 0 0
0.833158 0 0
0.887053 0 0
0.936492 0 0
0.981735 0 0
1 0 0
1 0 0
1 0 0
1 0 0
1 0 0
1 0 0
1 0 0
1 0 0
1 0 0
1 0 0
1 0 0
1 0 0
0 0 0
0 0 0
0 0 0
0 0 0
0 0 0
0.00849927 0 0
0.064622 0 0
0.130358 0 0
0.197116 0 0
0.260014 0 0
0.329549 0 0
0.406409 0 0
0.485191 0 0
0.561166 0 0
0.635737 0 0
0.70251 0 0
0.765118 0 0
0.824308 0 0
0.878386 0 0
0.927901 0 0
0.973327 0 0
1 0 0
1 0 0
1 0 0
1 0 0
1 0 0
1 0 0
1 0 0
1 0 0
1 0 0
1 0 0
1 0 0
1 0 0
0 0 0
0 0 0
0 0 0
0 0 0
0 0 0
0.00451667 0 0
0.0514534 0 0
0.112352 0 0
0.182971 0 0
0.246708 0 0
0.317647 0 0
0.394659 0 0
0.473915 0 0
0.550011 0 0
0.625452 0 0
0.693339 0 0
0.756085 0 0
0.815503 0 0
0.870054 0 0
0.919875 0 0
0.965698 0 0
1 0 0
1 0 0
1 0 0
1 0 0
1 0 0
1 0 0
1 0 0
1 0 0
1 0 0
1 0 0
1 0 0
1 0 0
0 0.00218204 0
0 0 0
0 0 0
0 0 0
0 0 0
0.031693 0 0
0.0490883 0 0
0.0999466 0 0
0.167544 0 0
0.233936 0 0
0.305303 0 0
0.382315 0 0
0.462272 0 0
0.538796 0 0
0.615 0 0
0.684459 0 0
0.747753 0 0
0.807584 0 0
0.862806 0 0
0.913191 0 0
0.959594 0 0
1 0 0
1 0 0
1 0 0
1 0 0
1 0 0
1 0 0
1 0 0
1 0 0
1 0 0
1 0 0
1 0 0
1 0 0
0 0.0448615 0
0 0.0382391 0
0 0.0329442 0
0 0.0295262 0
0 0.0282902 0
0.0325628 0.0209812 0
0.0934768 0.0143587 0
0.110323 0.0211337 0
0.153826 0.0209354 0
0.220401 0.0150759 0
0.292607 0.00791943 0
0.370214 0.000671397 0
0.450858 0 0
0.528298 0 0
0.605463 0 0
0.676616 0 0
0.740688 0 0
0.80119 0 0
0.857252 0 0
0.908492 0 0
0.955749 0 0
0.999496 0 0
1 0 0
1 0 0
1 0 0
1 0 0
1 0 0
1 0 0
1 0 0
1 0 0
1 0 0
1 0 0
1 0 0
0 0.090074 0
0 0.084596 0
0 0.0789044 0
0 0.0741131 0
0 0.0707866 0
0.00202945 0.0673228 0
0.0862593 0.052369 0
0.15903 0.0426337 0
0.17998 0.0489815 0
0.210376 0.052903 0
0.279545 0.0469368 0
0.357839 0.0393988 0
0.439689 0.0337224 0
0.518532 0.0282597 0
0.597116 0.0228122 0
0.670237 0.0168002 0
0.735363 0.0106508 0
0.796765 0.00578317 0
0.853712 0.00236515 0
0.905989 0.000427253 0
0.954177 1.5259e-05 0
0.998871 0.000564584 0
1 0.00169375 0
1 0.00326543 0
1 0.00497444 0
1 0.00704967 0
1 0.00926223 0
1 0.0116884 0
1 0.0142977 0
1 0.0171359 0
1 0.0200961 0
1 0.0231785 0
1 0.0263066 0
0 0.131426 0
0 0.129107 0
0 0.12604 0
0 0.121569 0
0 0.117678 0
0 0.114656 0
0.0389258 0.107073 0
0.146456 0.0860304 0
0.224537 0.0745098 0
0.247501 0.0811017 0
0.273518 0.0874342 0
0.344549 0.0813153 0
0.427146 0.0757763 0
0.507927 0.0712139 0
0.588098 0.0666056 0
0.663905 0.061738 0
0.73048 0.0564584 0
0.792813 0.0522774 0
0.850706 0.0495918 0
0.904082 0.0484474 0
0.953201 0.0489052 0
0.998871 0.0503548 0
1 0.0523842 0
1 0.0548104 0
1 0.0572976 0
1 0.0600748 0
1 0.0629129 0
1 0.0658579 0
1 0.0689097 0
1 0.0720378 0
1 0.0752117 0
1 0.0784009 0
1 0.0815595 0
0 0.174472 0
0 0.172412 0
0 0.170321 0
0 0.168231 0
0 0.166094 0
0 0.163897 0
0.00355535 0.160998 0
0.0840162 0.147753 0
0.20911 0.122988 0
0.295155 0.110292 0
0.322896 0.117189 0
0.344045 0.127031 0
0.412314 0.123812 0
0.494469 0.118776 0
0.576242 0.114961 0
0.655131 0.111406 0
0.72401 0.107164 0
0.78735 0.103838 0
0.84622 0.102052 0
0.900649 0.101732 0
0.950683 0.102937 0
0.997162 0.105074 0
1 0.107698 0
1 0.110643 0
1 0.113558 0
1 0.11667 0
1 0.119768 0
1 0.122881 0
1 0.126024 0
1 0.129152 0
1 0.132219 0
1 0.13521 0
1 0.138125 0
0 0.221027 0
0 0.21944 0
0 0.217945 0
0 0.216541 0
0 0.215244 0
0 0.214023 0
0 0.212802 0
0.0372778 0.209079 0
0.1393 0.191501 0
0.280079 0.164721 0
0.374945 0.151736 0
0.411292 0.158236 0
0.424826 0.172564 0
0.482399 0.175036 0
0.561486 0.171786 0
0.642527 0.16791 0
0.715007 0.163729 0
0.779171 0.160739 0
0.838804 0.159472 0
0.893919 0.159686 0
0.944625 0.161318 0
0.991821 0.163897 0
1 0.166873 0
1 0.170077 0
1 0.173159 0
1 0.176364 0
1 0.179461 0
1 0.182498 0
1 0.185458 0
1 0.188479 0
1 0.191592 0
1 0.194858 0
1 0.198154 0
0 0.272053 0
0 0.271199 0
0 0.270558 0
0 0.27013 0
0 0.269856 0
0 0.269764 0
0 0.269688 0
0.0116579 0.268986 0
0.0767834 0.263218 0
0.205432 0.240452 0
0.35964 0.212482 0
0.464988 0.200061 0
0.512734 0.20557 0
0.520302 0.223407 0
0.560082 0.232181 0
0.628275 0.233188 0
0.703227 0.230259 0
0.768277 0.226673 0
0.828336 0.225116 0
0.883772 0.225238 0
0.934798 0.226886 0
0.982513 0.229847 0
1 0.233143 0
1 0.236606 0
1 0.239826 0
1 0.243091 0
1 0.24622 0
1 0.249424 0
1 0.252811 0
1 0.256306 0
1 0.259861 0
1 0.263432 0
1 0.267048 0
0 0.327672 0
0 0.327779 0
0 0.328145 0
0 0.32874 0
0 0.329549 0
0 0.330571 0
0 0.331685 0
0 0.332219 0
0.0463264 0.331151 0
0.12781 0.321782 0
0.288014 0.293309 0
0.44892 0.26656 0
0.55877 0.255436 0
0.61648 0.258839 0
0.626947 0.27686 0
0.647807 0.291646 0
0.697887 0.297704 0
0.755795 0.298054 0
0.814267 0.296941 0
0.869398 0.2972 0
0.920333 0.298726 0
0.967788 0.301488 0
1 0.304509 0
1 0.307698 0
1 0.310811 0
1 0.314168 0
1 0.317464 0
1 0.320806 0
1 0.324178 0
1 0.327596 0
1 0.331014 0
1 0.334401 0
1 0.337774 0
0 0.387366 0
0 0.388495 0
0 0.389883 0
0 0.391531 0
0 0.393423 0
0 0.395529 0
0 0.397681 0
0 0.399207 0
0.0289769 0.399313 0
0.0927596 0.396307 0
0.197543 0.381491 0
0.38436 0.348363 0
0.543862 0.324361 0
0.650538 0.314473 0
0.715465 0.31519 0
0.734508 0.329824 0
0.743099 0.348013 0
0.770794 0.358434 0
0.8121 0.363424 0
0.858869 0.366323 0
0.906722 0.368612 0
0.953582 0.371313 0
0.998642 0.374609 0
1 0.377997 0
1 0.381231 0
1 0.384604 0
1 0.3879 0
1 0.391226 0
1 0.394507 0
1 0.397757 0
1 0.400977 0
1 0.404089 0
1 0.407111 0
0 0.450156 0
0 0.452338 0
0 0.454749 0
0 0.457359 0
0 0.460136 0
0 0.463035 0
0 0.465904 0
0 0.468055 0
0.0152132 0.468757 0
0.0751507 0.467475 0
0.153002 0.460426 0
0.289128 0.439521 0
0.489525 0.404959 0
0.637903 0.383825 0
0.741543 0.372702 0
0.802976 0.369604 0
0.829587 0.380423 0
0.836652 0.398932 0
0.85066 0.41445 0
0.877928 0.424704 0
0.912474 0.432059 0
0.950744 0.437949 0
0.991119 0.443061 0
1 0.447242 0
1 0.450645 0
1 0.454017 0
1 0.457252 0
1 0.46038 0
1 0.463447 0
1 0.466392 0
1 0.469245 0
1 0.471992 0
1 0.474571 0
0 0.517281 0
0 0.520287 0
0 0.523445 0
0 0.526711 0
0 0.530068 0
0 0.53344 0
0 0.536706 0
0 0.539178 0
0.00163272 0.540124 0
0.0611429 0.538994 0
0.128634 0.53518 0
0.224201 0.522469 0
0.393118 0.497169 0
0.586252 0.463111 0
0.729152 0.442573 0
0.82298 0.428946 0
0.887282 0.425116 0
0.922438 0.432547 0
0.934813 0.448936 0
0.942229 0.467033 0
0.95581 0.482429 0
0.977707 0.494408 0
1 0.504051 0
1 0.511803 0
1 0.517891 0
1 0.522881 0
1 0.526726 0
1 0.529763 0
1 0.532433 0
1 0.534936 0
1 0.537255 0
1 0.539376 0
1 0.541283 0
0 0.587457 0
0 0.590951 0
0 0.594507 0
0 0.598093 0
0 0.601663 0
0 0.605203 0
0 0.60853 0
0 0.610956 0
0 0.611765 0
0.047013 0.610452 0
0.112459 0.607156 0
0.190204 0.599725 0
0.307607 0.583078 0
0.500572 0.554925 0
0.682887 0.522225 0
0.81294 0.501289 0
0.901869 0.487755 0
0.966964 0.483192 0
1 0.488045 0
1 0.500404 0
1 0.517113 0
1 0.534264 0
1 0.549813 0
1 0.563012 0
1 0.573495 0
1 0.582025 0
1 0.588708 0
1 0.593927 0
1 0.59791 0
1 0.600748 0
1 0.602716 0
1 0.604105 0
1 0.605234 0
0 0.658274 0
0 0.661906 0
0 0.665507 0
0 0.669032 0
0 0.672496 0
0 0.675807 0
0 0.678981 0
0 0.681422 0
0 0.682383 0
0.0358282 0.681407 0
0.101198 0.678462 0
0.171786 0.67364 0
0.261662 0.662409 0
0.405631 0.643381 0
0.60827 0.610483 0
0.778775 0.580835 0
0.891768 0.559472 0
0.976226 0.547311 0
1 0.54258 0
1 0.544945 0
1 0.553185 0
1 0.566155 0
1 0.581689 0
1 0.597879 0
1 0.613245 0
1 0.626596 0
1 0.63743 0
1 0.64596 0
1 0.652613 0
1 0.657603 0
1 0.661204 0
1 0.663676 0
1 0.665095 0
0 0.727367 0
0 0.730861 0
0 0.734234 0
0 0.737606 0
0 0.741054 0
0 0.744564 0
0 0.747982 0
0 0.750607 0
0 0.75172 0
0.0292821 0.750896 0
0.0945296 0.748058 0
0.163912 0.743801 0
0.241657 0.736477 0
0.348699 0.722591 0
0.525582 0.698894 0
0.717586 0.663508 0
0.864988 0.635096 0
0.967376 0.616327 0
1 0.605737 0
1 0.600916 0
1 0.601602 0
1 0.60676 0
1 0.615427 0
1 0.627466 0
1 0.641718 0
1 0.656672 0
1 0.671107 0
1 0.683879 0
1 0.694423 0
1 0.702434 0
1 0.708736 0
1 0.713283 0
1 0.716442 0
0 0.79086 0
0 0.794064 0
0 0.797223 0
0 0.800443 0
0 0.803662 0
0 0.806867 0
0 0.809934 0
0 0.812253 0
0 0.813214 0
0.0256962 0.812528 0
0.0908522 0.8103 0
0.16022 0.806851 0
0.232471 0.80238 0
0.32015 0.793256 0
0.459174 0.777722 0
0.64683 0.747829 0
0.824186 0.712184 0
0.945983 0.686549 0
1 0.670542 0
1 0.661051 0
1 0.65626 0
1 0.655467 0
1 0.657984 0
1 0.663493 0
1 0.671733 0
1 0.683055 0
1 0.6963 0
1 0.710201 0
1 0.72343 0
1 0.735042 0
1 0.744564 0
1 0.751705 0
1 0.757321 0
0 0.84863 0
0 0.85182 0
0 0.854994 0
0 0.858167 0
0 0.861357 0
0 0.864485 0
0 0.86743 0
0 0.869612 0
0 0.870436 0
0.0248264 0.869551 0
0.0894331 0.867063 0
0.158251 0.86331 0
0.228428 0.85893 0
0.306874 0.852155 0
0.417319 0.840101 0
0.587457 0.821134 0
0.767956 0.788373 0
0.914382 0.756222 0
1 0.734737 0
1 0.720775 0
1 0.71223 0
1 0.70721 0
1 0.704997 0
1 0.705455 0
1 0.708278 0
1 0.713985 0
1 0.722286 0
1 0.733272 0
1 0.745785 0
1 0.758587 0
1 0.770657 0
1 0.781201 0
1 0.789807 0
0 0.904616 0
0 0.907805 0
0 0.910918 0
0 0.913985 0
0 0.916991 0
0 0.91989 0
0 0.922591 0
0 0.924498 0
0 0.924987 0
0.0269017 0.923705 0
0.0908827 0.92076 0
0.158953 0.916457 0
0.228275 0.911513 0
0.300237 0.905516 0
0.394507 0.894713 0
0.541573 0.881559 0
0.713115 0.856352 0
0.877058 0.823301 0
0.994842 0.797208 0
1 0.778958 0
1 0.766781 0
1 0.758724 0
1 0.753231 0
1 0.749737 0
1 0.748241 0
1 0.749218 0
1 0.752758 0
1 0.758862 0
1 0.767926 0
1 0.778958 0
1 0.790906 0
1 0.80296 0
1 0.813901 0
0 0.958846 0
0 0.961868 0
0 0.964782 0
0 0.967544 0
0 0.970153 0
0 0.97261 0
0 0.974853 0
0 0.976287 0
0 0.976333 0
0.0298314 0.974655 0
0.09308 0.971283 0
0.160342 0.9664 0
0.228809 0.960708 0
0.297307 0.95465 0
0.381369 0.944732 0
0.508675 0.933684 0
0.667857 0.91191 0
0.831968 0.883803 0
0.964446 0.856641 0
1 0.835172 0
1 0.819699 0
1 0.808621 0
1 0.800565 0
1 0.794308 0
1 0.789441 0
1 0.786862 0
1 0.78645 0
1 0.788632 0
1 0.793225 0
1 0.800793 0
1 0.810651 0
1 0.821942 0
1 0.833555 0
0 1 0
0 1 0
0 1 0
0 1 0
0 1 0
0 1 0
0 1 0
0 1 0
0 1 0
0.0317998 1 0
0.094255 1 0
0.160754 1 0
0.228489 1 0
0.295399 0.998947 0
0.372122 0.990082 0
0.484321 0.980087 0
0.630457 0.962417 0
0.785733 0.936965 0
0.928481 0.909346 0
1 0.886946 0
1 0.86978 0
1 0.85687 0
1 0.846448 0
1 0.838193 0
1 0.831128 0
1 0.825772 0
1 0.822324 0
1 0.821103 0
1 0.822354 0
1 0.826246 0
1 0.832502 0
1 0.841337 0
1 0.851881 0
0 1 0
0 1 0
0 1 0
0 1 0
0 1 0
0 1 0
0 1 0
0 1 0
0 1 0
0.0322118 1 0
0.0938888 1 0
0.159625 1 0
0.226596 1 0
0.292714 1 0
0.363439 1 0
0.463539 1 0
0.597665 1 0
0.742382 0.986297 0
0.887999 0.959442 0
1 0.935042 0
1 0.915999 0
1 0.901213 0
1 0.889662 0
1 0.879973 0
1 0.871702 0
1 0.864958 0
1 0.859525 0
1 0.85568 0
1 0.853986 0
1 0.854673 0
1 0.857908 0
1 0.863218 0
1 0.870832 0
0 1 0
0 1 0
0 1 0
0 1 0
0 1 0
0 1 0
0 1 0
0 1 0
0 1 0
0.0299992 1 0
0.090959 1 0
0.155947 1 0
0.222187 1 0
0.287602 1 0
0.355016 1 0
0.44535 1 0
0.567849 1 0
0.700923 1 0
0.841352 1 0
0.964385 0.983154 0
1 0.96228 0
1 0.945571 0
1 0.931945 0
1 0.920653 0
1 0.91078 0
1 0.902724 0
1 0.895872 0
1 0.890425 0
1 0.886671 0
1 0.884886 0
1 0.885237 0
1 0.8878 0
1 0.892088 0
0 1 0
0 1 0
0 1 0
0 1 0
0 1 0
0 1 0
0 1 0
0 1 0
0 1 0
0.0260929 1 0
0.0863966 1 0
0.15079 1 0
0.216464 1 0
0.281346 1 0
0.347158 1 0
0.429236 1 0
0.541329 1 0
0.664134 1 0
0.795224 1 0
0.921828 1 0
1 1 0
1 0.98999 0
1 0.975204 0
1 0.962158 0
1 0.950668 0
1 0.941085 0
1 0.932998 0
1 0.926238 0
1 0.920882 0
1 0.91725 0
1 0.915038 0
1 0.915099 0
1 0.917296 0
0 1 0
0 1 0
0 1 0
0 1 0
0 1 0
0 1 0
0 1 0
0 1 0
0 1 0
0.0202792 1 0
0.0800946 1 0
0.144015 1 0
0.209262 1 0
0.273747 1 0
0.339086 1 0
0.414374 1 0
0.516823 1 0
0.632151 1 0
0.752407 1 0
0.877729 1 0
0.985351 1 0
1 1 0
1 1 0
1 1 0
1 0.991913 0
1 0.981323 0
1 0.971649 0
1 0.963607 0
1 0.956817 0
1 0.951308 0
1 0.947326 0
1 0.94522 0
1 0.944945 0
0 1 0
0 1 0
0 1 0
0 1 0
0 1 0
0 1 0
0 1 0
0 1 0
0 1 0
