tracker_LUT/LUT/MORNING_GLAZE_106.P1077077.cube
TITLE "Generated by Resolve"
LUT_3D_SIZE 5
0.0594034 0.0594034 0.0594034
0.13138 0.0594034 0.0594034
0.544335 0.0594034 0.0594034
0.884916 0.0594034 0.0594034
0.996262 0.0594034 0.0594034
0.0594034 0.191897 0.0594034
0.172137 0.136141 0.0594034
0.576074 0.0835431 0.0594034
0.90135 0.0594034 0.0594034
1 0.0594034 0.0594034
0.143572 0.70074 0.0857557
0.245808 0.677012 0.0778058
0.680446 0.581979 0.0600137
0.949004 0.542473 0.0594034
1 0.541283 0.0594034
0.263371 0.989288 0.204044
0.335561 0.979095 0.205249
0.671855 0.951782 0.200671
0.983459 0.9364 0.243946
1 0.939742 0.273152
0.327413 1 0.279164
0.390509 1 0.285771
0.742596 1 0.334493
1 1 0.424262
1 1 0.453269
0.0594034 0.0594034 0.151522
0.1243 0.0594034 0.138903
0.548623 0.0594034 0.0878309
0.887785 0.0594034 0.0594034
0.999496 0.0594034 0.0594034
0.0594034 0.151736 0.178683
0.155917 0.156542 0.174792
0.573938 0.0962081 0.0994888
0.897414 0.0608377 0.0594034
1 0.0594034 0.0594034
0.146288 0.69778 0.194553
0.235019 0.694392 0.193164
0.679255 0.598795 0.173449
0.94873 0.556664 0.0693217
1 0.548638 0.0594034
0.254948 0.981903 0.260197
0.32697 0.979583 0.272358
0.669779 0.956222 0.297917
0.988235 0.943648 0.362997
1 0.941299 0.380514
0.324666 1 0.348501
0.390112 1 0.354788
0.748363 1 0.415854
1 1 0.504555
1 1 0.543297
0.0594034 0.0594034 0.597848
0.15877 0.0594034 0.598688
0.563622 0.0594034 0.567056
0.888106 0.0594034 0.53315
0.995727 0.0594034 0.502937
0.0594034 0.0817273 0.604456
0.169177 0.074815 0.607553
0.591333 0.0597391 0.592935
0.910307 0.0599832 0.553704
1 0.0594034 0.512749
0.211704 0.635554 0.673289
0.314305 0.64123 0.678279
0.679881 0.663951 0.679316
0.934401 0.611765 0.604578
1 0.585412 0.558389
0.36289 0.986984 0.66273
0.415503 0.98677 0.66334
0.654429 0.979187 0.653254
0.982544 0.957839 0.694392
1 0.961456 0.703243
0.414511 1 0.714961
0.461753 1 0.715984
0.727687 1 0.720607
1 1 0.755199
1 1 0.775708
0.103334 0.0594034 0.910246
0.239521 0.0594034 0.921355
0.622248 0.0594034 0.906096
0.918761 0.0594034 0.900664
0.988647 0.0594034 0.867109
0.165866 0.0594034 0.920638
0.277775 0.0594034 0.934844
0.646586 0.0594034 0.930861
0.941299 0.0594034 0.922576
1 0.0594034 0.882063
0.0594034 0.5196 0.934905
0.196399 0.52929 0.945998
0.655558 0.557107 0.945037
0.955215 0.584314 0.94197
1 0.621302 0.920104
0.435981 0.955505 0.974289
0.505669 0.957748 0.97911
0.73872 0.963561 0.979889
0.985504 0.981201 0.981537
1 0.969039 0.961227
0.512123 1 1
0.572976 1 1
0.774197 1 1
0.993439 1 0.987854
1 1 0.990875
0.182177 0.0594034 1
0.2925 0.0594034 1
0.638636 0.0594034 1
0.938827 0.0594034 1
1 0.0594034 1
0.214969 0.0594034 1
0.316915 0.0594034 1
0.660883 0.0594034 1
0.956374 0.0594034 1
1 0.0594034 1
0.11603 0.496406 1
0.259678 0.506905 1
0.663813 0.502754 1
0.969604 0.482994 1
1 0.471565 1
0.422141 0.956329 1
0.485863 0.95581 1
0.706813 0.95111 1
0.969802 0.948699 1
1 0.958297 1
0.539742 1 1
0.600656 1 1
0.792798 1 1
0.994369 1 1
1 1 1
