tracker_LUT/LUT/MORNING_GLAZE_106.P1077077.cube
TITLE "Generated by Resolve"
LUT_3D_SIZE 9
0.0594034 0.0594034 0.0594034
0.0594034 0.0594034 0.0594034
0.13138 0.0594034 0.0594034
0.296986 0.0594034 0.0594034
0.544335 0.0594034 0.0594034
0.754421 0.0594034 0.0594034
0.884916 0.0594034 0.0594034
0.957366 0.0594034 0.0594034
0.996262 0.0594034 0.0594034
0.0594034 0.0594034 0.0594034
0.0594034 0.0594034 0.0594034
0.143816 0.0594034 0.0594034
0.306554 0.0594034 0.0594034
0.556756 0.0594034 0.0594034
0.766293 0.0594034 0.0594034
0.894209 0.0594034 0.0594034
0.965393 0.0594034 0.0594034
1 0.0594034 0.0594034
0.0594034 0.191897 0.0594034
0.0697185 0.177691 0.0594034
0.172137 0.136141 0.0594034
0.3346 0.121019 0.0594034
0.576074 0.0835431 0.0594034
0.777157 0.0605631 0.0594034
0.90135 0.0594034 0.0594034
0.968566 0.0594034 0.0594034
1 0.0594034 0.0594034
0.0597086 0.413016 0.0594034
0.0949874 0.40415 0.0594034
0.201785 0.372503 0.0594034
0.391348 0.309728 0.0594034
0.625498 0.275319 0.0594034
0.809888 0.260243 0.0594034
0.919692 0.252079 0.0594034
0.984207 0.24303 0.0594034
1 0.240162 0.0594034
0.143572 0.70074 0.0857557
0.171099 0.692729 0.0823224
0.245808 0.677012 0.0778058
0.410773 0.633814 0.0649424
0.680446 0.581979 0.0600137
0.846754 0.559731 0.0594034
0.949004 0.542473 0.0594034
0.998566 0.54052 0.0594034
1 0.541283 0.0594034
0.2177 0.887984 0.145907
0.239689 0.879499 0.144228
0.294591 0.873442 0.142657
0.416678 0.850172 0.128573
0.658396 0.81799 0.106645
0.875013 0.798123 0.110567
0.959762 0.789853 0.116854
1 0.793667 0.0974136
1 0.794079 0.0854047
0.263371 0.989288 0.204044
0.286366 0.984543 0.204578
0.335561 0.979095 0.205249
0.437613 0.968399 0.207584
0.671855 0.951782 0.200671
0.88249 0.943587 0.225696
0.983459 0.9364 0.243946
1 0.939178 0.260105
1 0.939742 0.273152
0.304128 1 0.251057
0.322347 1 0.250706
0.366217 1 0.254063
0.467521 1 0.267811
0.706294 1 0.281819
0.910338 1 0.328389
0.999268 1 0.360861
1 1 0.376883
1 1 0.382834
0.327413 1 0.279164
0.344915 1 0.280507
0.390509 1 0.285771
0.510155 1 0.306371
0.742596 1 0.334493
0.930922 1 0.383444
1 1 0.424262
1 1 0.448905
1 1 0.453269
0.0594034 0.0594034 0.0594034
0.0594034 0.0594034 0.0594034
0.12694 0.0594034 0.0594034
0.298451 0.0594034 0.0594034
0.547066 0.0594034 0.0594034
0.755444 0.0594034 0.0594034
0.884947 0.0594034 0.0594034
0.958038 0.0594034 0.0594034
0.998398 0.0594034 0.0594034
0.0594034 0.0594034 0.0594034
0.0594034 0.0594034 0.0594034
0.136294 0.0594034 0.0594034
0.308278 0.0594034 0.0594034
0.557092 0.0594034 0.0594034
0.764599 0.0594034 0.0594034
0.895048 0.0594034 0.0594034
0.963317 0.0594034 0.0594034
0.999756 0.0594034 0.0594034
0.0594034 0.183749 0.0685588
0.0603342 0.184497 0.0643168
0.166781 0.145113 0.0594949
0.333135 0.132357 0.0594034
0.575738 0.0912947 0.0594034
0.776837 0.0633707 0.0594034
0.89749 0.0594034 0.0594034
0.969985 0.0594034 0.0594034
1 0.0594034 0.0594034
0.0603494 0.415793 0.0790112
0.0927291 0.413184 0.0773327
0.195651 0.382773 0.073991
0.388647 0.3187 0.0652934
0.625925 0.284001 0.0594034
0.808057 0.262974 0.0594034
0.919387 0.256657 0.0594034
0.985275 0.249729 0.0594034
1 0.247379 0.0594034
0.137285 0.699413 0.116426
0.168399 0.698543 0.116503
0.243763 0.68365 0.113878
0.410483 0.639918 0.0975204
0.680934 0.586542 0.085771
0.846952 0.565988 0.0623484
0.951171 0.547723 0.0594034
0.998276 0.542718 0.0594034
1 0.544381 0.0594034
0.20734 0.879255 0.164981
0.233448 0.879393 0.166339
0.291035 0.870405 0.167712
0.415549 0.853239 0.161975
0.657465 0.819181 0.145769
0.874174 0.801282 0.153124
0.960464 0.792599 0.158343
1 0.796277 0.136126
1 0.796139 0.117449
0.253513 0.981201 0.213352
0.279576 0.984863 0.221393
0.330861 0.979156 0.226139
0.434272 0.969131 0.231891
0.671824 0.952895 0.23093
0.883909 0.944778 0.263752
0.985061 0.939773 0.282063
1 0.941588 0.299428
1 0.940978 0.310216
0.293507 1 0.259571
0.319341 1 0.266972
0.366476 1 0.275715
0.468147 1 0.292012
0.709056 1 0.310155
0.908629 1 0.355505
0.99971 1 0.391455
1 1 0.41117
1 1 0.414984
0.318578 1 0.289219
0.342245 1 0.295048
0.390311 1 0.307149
0.511849 1 0.328344
0.748501 1 0.363973
0.930419 1 0.409522
1 1 0.448615
1 1 0.477836
1 1 0.486549
0.0594034 0.0594034 0.151522
0.0594034 0.0594034 0.150179
0.1243 0.0594034 0.138903
0.297215 0.0594034 0.12781
0.548623 0.0594034 0.0878309
0.757168 0.0594034 0.0594034
0.887785 0.0594034 0.0594034
0.960616 0.0594034 0.0594034
0.999496 0.0594034 0.0594034
0.0594034 0.0594034 0.16051
0.0594034 0.0594034 0.156512
0.134813 0.0594034 0.149081
0.303716 0.0594034 0.134325
0.559152 0.0594034 0.090898
0.765713 0.0594034 0.0594034
0.893767 0.0594034 0.0594034
0.964797 0.0594034 0.0594034
1 0.0594034 0.0594034
0.0594034 0.151736 0.178683
0.0597086 0.154879 0.178943
0.155917 0.156542 0.174792
0.327321 0.14876 0.155566
0.573938 0.0962081 0.0994888
0.776501 0.0627604 0.0599985
0.897414 0.0608377 0.0594034
0.968795 0.0594034 0.0594034
1 0.0594034 0.0594034
0.0624552 0.399115 0.189487
0.0963149 0.40589 0.190494
0.182727 0.402289 0.180743
0.383993 0.339025 0.169528
0.622782 0.307012 0.110765
0.806699 0.271229 0.0605936
0.919707 0.262257 0.0594034
0.984802 0.260151 0.0594034
1 0.25832 0.0594034
0.146288 0.69778 0.194553
0.172198 0.704692 0.197864
0.235019 0.694392 0.193164
0.404273 0.651209 0.181033
0.679255 0.598795 0.173449
0.843549 0.575998 0.123522
0.94873 0.556664 0.0693217
0.998322 0.550805 0.0594034
1 0.548638 0.0594034
0.210727 0.880125 0.222736
0.230549 0.882475 0.224033
0.2878 0.875608 0.231281
0.41239 0.858839 0.233661
0.65478 0.826886 0.232151
0.873045 0.807248 0.250538
0.960815 0.800748 0.255039
1 0.800732 0.227588
1 0.801251 0.210605
0.254948 0.981903 0.260197
0.27657 0.984436 0.264256
0.32697 0.979583 0.272358
0.434318 0.972595 0.287648
0.669779 0.956222 0.297917
0.884794 0.946242 0.337346
0.988235 0.943648 0.362997
1 0.942458 0.372152
1 0.941299 0.380514
0.296025 1 0.300008
0.313527 1 0.301976
0.366506 1 0.317052
0.466926 1 0.337514
0.710887 1 0.366461
0.908888 1 0.415442
0.998306 1 0.450675
1 1 0.475807
1 1 0.477745
0.324666 1 0.348501
0.3402 1 0.344182
0.390112 1 0.354788
0.509239 1 0.377905
0.748363 1 0.415854
0.928389 1 0.461631
1 1 0.504555
1 1 0.535149
1 1 0.543297
0.0594034 0.0594034 0.342885
0.0594034 0.0594034 0.342565
0.148623 0.0594034 0.340383
0.305226 0.0594034 0.32253
0.555886 0.0594034 0.297826
0.752605 0.0594034 0.249393
0.877668 0.0594034 0.211826
0.950118 0.0594034 0.167941
0.989197 0.0594034 0.137499
0.0594034 0.0594034 0.350774
0.0594034 0.0594034 0.349783
0.150881 0.0594034 0.343374
0.312825 0.0594034 0.331258
0.565438 0.0594034 0.304036
0.767514 0.0594034 0.255482
0.893141 0.0594034 0.21915
0.965393 0.0594034 0.172091
0.999557 0.0594034 0.143481
0.0594034 0.134569 0.364538
0.0594034 0.135119 0.364752
0.163378 0.138903 0.364263
0.331579 0.129519 0.349096
0.579675 0.0790723 0.317922
0.776974 0.0596017 0.270558
0.898024 0.0594034 0.227176
0.973007 0.0594034 0.176471
1 0.0594034 0.146624
0.0598459 0.352193 0.394369
0.0862135 0.358968 0.401038
0.192096 0.363149 0.401434
0.379431 0.369924 0.395666
0.616388 0.345159 0.356802
0.800061 0.314321 0.304204
0.915236 0.28835 0.250187
0.984375 0.270161 0.195132
1 0.260578 0.158679
0.189166 0.689693 0.389349
0.214145 0.692302 0.389364
0.269917 0.691951 0.384756
0.394034 0.681834 0.37438
0.676646 0.626505 0.395743
0.843 0.603494 0.347021
0.946822 0.584604 0.283925
0.997223 0.576226 0.239414
1 0.573678 0.212711
0.260044 0.883803 0.365026
0.278019 0.884321 0.366094
0.316503 0.882216 0.365499
0.406271 0.872236 0.366018
0.650828 0.837049 0.389227
0.871565 0.818341 0.428931
0.958999 0.811002 0.42417
1 0.81471 0.403983
1 0.814633 0.389456
0.308156 0.987457 0.39324
0.320546 0.985473 0.387396
0.349615 0.984695 0.386419
0.429053 0.978927 0.392508
0.665125 0.963043 0.417533
0.882841 0.953796 0.465003
0.984665 0.946822 0.49485
1 0.946639 0.508247
1 0.947753 0.516732
0.346487 1 0.465171
0.357565 1 0.458534
0.379995 1 0.449622
0.46273 1 0.45684
0.705501 1 0.47895
0.905684 1 0.523156
0.998001 1 0.559289
1 1 0.581506
1 1 0.586084
0.369039 1 0.511009
0.381857 1 0.508614
0.403601 1 0.501289
0.502098 1 0.507866
0.74052 1 0.532403
0.928374 1 0.570733
1 1 0.604913
1 1 0.625772
1 1 0.638437
0.0594034 0.0594034 0.597848
0.0594034 0.0594034 0.599924
0.15877 0.0594034 0.598688
0.340429 0.0594034 0.589914
0.563622 0.0594034 0.567056
0.764111 0.0594034 0.55288
0.888106 0.0594034 0.53315
0.959442 0.0594034 0.515419
0.995727 0.0594034 0.502937
0.0594034 0.0594034 0.600351
0.0634012 0.0594034 0.602579
0.165148 0.0594034 0.600793
0.345235 0.0594034 0.596765
0.578622 0.0594034 0.580987
0.779934 0.0594034 0.565469
0.902083 0.0594034 0.543038
0.971481 0.0594034 0.521935
0.999969 0.0594034 0.508965
0.0594034 0.0817273 0.604456
0.061387 0.0806287 0.607507
0.169177 0.074815 0.607553
0.351186 0.06215 0.603738
0.591333 0.0597391 0.592935
0.788464 0.0661173 0.575814
0.910307 0.0599832 0.553704
0.978607 0.0594034 0.529915
1 0.0594034 0.512749
0.0594034 0.299123 0.620233
0.0624704 0.307393 0.629984
0.17702 0.316182 0.632212
0.382681 0.324331 0.6309
0.622171 0.330053 0.62182
0.806271 0.357855 0.604837
0.917861 0.307256 0.571801
0.983307 0.255024 0.543328
1 0.23212 0.530236
0.211704 0.635554 0.673289
0.243687 0.638911 0.677272
0.314305 0.64123 0.678279
0.455817 0.647379 0.67892
0.679881 0.663951 0.679316
0.835767 0.640864 0.64506
0.934401 0.611765 0.604578
0.993942 0.592752 0.573526
1 0.585412 0.558389
0.33164 0.877119 0.66981
0.35259 0.877058 0.671504
0.398306 0.877256 0.673136
0.480598 0.875227 0.660487
0.646342 0.865568 0.648524
0.868574 0.841047 0.67422
0.962997 0.836194 0.660746
1 0.830365 0.639002
1 0.83003 0.629648
0.36289 0.986984 0.66273
0.382162 0.987488 0.666545
0.415503 0.98677 0.66334
0.483375 0.986175 0.658183
0.654429 0.979187 0.653254
0.87425 0.963424 0.667002
0.982544 0.957839 0.694392
1 0.956939 0.700008
1 0.961456 0.703243
0.390585 1 0.686809
0.407568 1 0.68893
0.438453 1 0.685145
0.505013 1 0.688518
0.695216 1 0.688579
0.893736 1 0.695811
0.998291 1 0.726131
1 1 0.742962
1 1 0.741848
0.414511 1 0.714961
0.429175 1 0.714168
0.461753 1 0.715984
0.53576 1 0.719509
0.727687 1 0.720607
0.91516 1 0.727062
1 1 0.755199
1 1 0.770779
1 1 0.775708
0.0594034 0.0594034 0.796414
0.0944686 0.0594034 0.803265
0.199588 0.0594034 0.801831
0.37055 0.0594034 0.790494
0.604166 0.0594034 0.779965
0.783108 0.0594034 0.770855
0.883055 0.0594034 0.745998
0.96144 0.0594034 0.749828
1 0.0594034 0.754299
0.0693523 0.0594034 0.798688
0.120272 0.0594034 0.807691
0.21442 0.0594034 0.805386
0.38529 0.0594034 0.804425
0.619791 0.0594034 0.797086
0.797635 0.0594034 0.786358
0.900267 0.0594034 0.761273
0.974838 0.0594034 0.762905
1 0.0594034 0.766293
0.105501 0.0594034 0.800427
0.144747 0.0594034 0.807248
0.227573 0.0594034 0.807614
0.387396 0.0594034 0.805692
0.625254 0.0594034 0.803113
0.806516 0.0594034 0.795148
0.905303 0.0594034 0.768338
0.979507 0.0597086 0.768627
1 0.0619059 0.772412
0.103639 0.264363 0.803479
0.148791 0.268528 0.814389
0.239246 0.266972 0.816999
0.399298 0.253788 0.815808
0.636255 0.222446 0.813184
0.819928 0.227405 0.808209
0.915236 0.304326 0.783459
0.984894 0.34432 0.784054
1 0.359197 0.786007
0.119387 0.568322 0.82649
0.160174 0.573953 0.833539
0.243305 0.575967 0.83415
0.406073 0.579599 0.835691
0.661753 0.607935 0.836652
0.842756 0.627848 0.83386
0.936049 0.651728 0.821836
0.993286 0.651514 0.816556
1 0.642084 0.810636
0.349065 0.831144 0.858671
0.375891 0.836133 0.863813
0.430304 0.837552 0.864927
0.532799 0.840299 0.863508
0.705501 0.847898 0.86389
0.872816 0.864363 0.868879
0.960754 0.852216 0.849271
0.998993 0.83859 0.833036
1 0.832471 0.824231
0.427863 0.979446 0.885328
0.449805 0.982849 0.885725
0.49247 0.981872 0.885985
0.570626 0.984802 0.88365
0.709316 0.982712 0.87364
0.861173 0.977142 0.857755
0.982757 0.970535 0.867155
1 0.967163 0.864118
1 0.968994 0.860151
0.46244 1 0.902907
0.481147 1 0.900008
0.52076 1 0.902342
0.581689 1 0.893019
0.719692 1 0.882811
0.873899 1 0.865629
0.992645 1 0.872206
1 1 0.886687
1 1 0.888441
0.480522 1 0.91252
0.498482 1 0.912505
0.533822 1 0.911147
0.596857 1 0.906737
0.739773 1 0.896162
0.892348 1 0.882643
1 1 0.883909
1 1 0.898177
1 1 0.904631
0.103334 0.0594034 0.910246
0.148699 0.0594034 0.919478
0.239521 0.0594034 0.921355
0.395911 0.0594034 0.913283
0.622248 0.0594034 0.906096
0.813153 0.0594034 0.905898
0.918761 0.0594034 0.900664
0.957015 0.0594034 0.869398
0.988647 0.0594034 0.867109
0.120638 0.0594034 0.918883
0.162264 0.0594034 0.927962
0.254032 0.0594034 0.933074
0.409842 0.0594034 0.930694
0.635843 0.0594034 0.924392
0.82681 0.0594034 0.92076
0.933562 0.0594034 0.91519
0.971756 0.0594034 0.883131
0.998245 0.0594034 0.878294
0.165866 0.0594034 0.920638
0.200565 0.0594034 0.931701
0.277775 0.0594034 0.934844
0.422705 0.0594034 0.933303
0.646586 0.0594034 0.930861
0.834638 0.0594034 0.927596
0.941299 0.0594034 0.922576
0.97821 0.0594034 0.889891
1 0.0594034 0.882063
0.183291 0.198672 0.926223
0.213367 0.196994 0.93669
0.286824 0.190341 0.938689
0.42945 0.165194 0.937606
0.650263 0.11696 0.936385
0.837934 0.106844 0.930495
0.944274 0.110124 0.925887
0.983032 0.13875 0.897459
1 0.177432 0.892668
0.0594034 0.5196 0.934905
0.0760357 0.525795 0.944198
0.196399 0.52929 0.945998
0.401541 0.540764 0.946181
0.655558 0.557107 0.945037
0.846189 0.566781 0.942168
0.955215 0.584314 0.94197
0.993988 0.606622 0.91957
1 0.621302 0.920104
0.302434 0.807218 0.96083
0.32697 0.808759 0.962646
0.382757 0.809995 0.963989
0.487404 0.809384 0.96257
0.661662 0.805631 0.955871
0.857633 0.829007 0.958694
0.965881 0.846326 0.958114
0.998734 0.856046 0.951385
1 0.861906 0.954986
0.435981 0.955505 0.974289
0.458976 0.956756 0.977478
0.505669 0.957748 0.97911
0.591897 0.958465 0.979721
0.73872 0.963561 0.979889
0.879179 0.9691 0.976303
0.985504 0.981201 0.981537
1 0.972824 0.969787
1 0.969039 0.961227
0.486305 1 0.991928
0.507118 1 0.993088
0.550851 1 0.994751
0.627115 1 0.995789
0.756588 1 0.996445
0.893431 1 0.991638
0.985687 1 0.978103
1 1 0.985092
1 1 0.983551
0.512123 1 1
0.52958 1 1
0.572976 1 1
0.643595 1 1
0.774197 1 1
0.900236 1 0.996002
0.993439 1 0.987854
1 1 0.986145
1 1 0.990875
0.160632 0.0594034 0.979446
0.195285 0.0594034 0.989883
0.271443 0.0594034 0.99086
0.413916 0.0594034 0.985885
0.634668 0.0594034 0.983139
0.823301 0.0594034 0.982635
0.938293 0.0594034 0.984604
0.991806 0.0594034 0.976471
1 0.0594034 0.965713
0.168933 0.0594034 0.989715
0.208469 0.0594034 0.994064
0.281331 0.0594034 0.994415
0.427085 0.0594034 0.993393
0.649958 0.0594034 0.993011
0.836988 0.0594034 0.991562
0.947402 0.0594034 0.991241
0.996094 0.0594034 0.989212
1 0.0594034 0.977493
0.194629 0.0594034 0.991974
0.228916 0.0594034 0.99559
0.300877 0.0594034 0.997467
0.441993 0.0594034 0.997635
0.656397 0.0594034 0.995834
0.842924 0.0594034 0.994446
0.949996 0.0594034 0.991806
0.998856 0.0594034 0.992538
1 0.0594034 0.978836
0.226551 0.13167 0.993759
0.258869 0.129702 0.99646
0.324025 0.11899 0.99765
0.455421 0.0983444 0.997787
0.664027 0.0823987 0.996963
0.847028 0.0846723 0.995529
0.957809 0.0865797 0.994018
0.999954 0.0872663 0.993912
1 0.0869764 0.983368
0.0972763 0.50573 0.998657
0.122957 0.511559 1
0.228397 0.513268 1
0.426444 0.523888 0.999969
0.660105 0.523171 0.999008
0.850324 0.517586 0.998383
0.963561 0.520546 0.996506
1 0.521202 0.996216
1 0.533394 0.990509
0.270344 0.797894 1
0.297002 0.798657 1
0.352529 0.798169 1
0.458503 0.795117 1
0.641703 0.786633 1
0.850248 0.803601 0.999893
0.968215 0.814633 0.999969
1 0.820966 0.999237
1 0.83032 0.996979
0.431952 0.96051 1
0.449195 0.956603 1
0.491035 0.955718 1
0.577813 0.956374 1
0.71812 0.955795 1
0.854536 0.948211 1
0.973877 0.960296 1
1 0.969055 1
1 0.975937 1
0.507271 1 1
0.524941 1 1
0.561944 1 1
0.642145 1 1
0.770123 1 1
0.89662 1 1
0.989807 1 1
1 1 1
1 1 1
0.534051 1 1
0.553765 1 1
0.590982 1 1
0.664134 1 1
0.786847 1 1
0.909209 1 1
0.995163 1 1
1 1 1
1 1 1
0.182177 0.0594034 1
0.224659 0.0594034 1
0.2925 0.0594034 1
0.428031 0.0594034 1
0.638636 0.0594034 1
0.826764 0.0594034 1
0.938827 0.0594034 1
0.994568 0.0594034 1
1 0.0594034 1
0.196582 0.0594034 1
0.230793 0.0594034 1
0.30222 0.0594034 1
0.441672 0.0594034 1
0.655253 0.0594034 1
0.840528 0.0594034 1
0.952636 0.0594034 1
0.998047 0.0594034 1
1 0.0594034 1
0.214969 0.0594034 1
0.246586 0.0594034 1
0.316915 0.0594034 1
0.448707 0.0594034 1
0.660883 0.0594034 1
0.846006 0.0594034 1
0.956374 0.0594034 1
1 0.0594034 1
1 0.0594034 1
0.241489 0.104021 1
0.273625 0.103609 1
0.339742 0.102846 1
0.467567 0.0938735 1
0.668574 0.0825055 1
0.850858 0.0847334 1
0.96466 0.0867018 1
1 0.0876783 1
1 0.0877852 1
0.11603 0.496406 1
0.142489 0.500038 1
0.259678 0.506905 1
0.438972 0.512306 1
0.663813 0.502754 1
0.850446 0.485695 1
0.969604 0.482994 1
1 0.474449 1
1 0.471565 1
0.244862 0.789334 1
0.272496 0.790829 1
0.332174 0.791775 1
0.440421 0.785885 1
0.63447 0.77586 1
0.848981 0.79147 1
0.967666 0.795056 1
1 0.80061 1
1 0.802823 1
0.422141 0.956329 1
0.444465 0.956802 1
0.485863 0.95581 1
0.572564 0.956527 1
0.706813 0.95111 1
0.842969 0.941115 1
0.969802 0.948699 1
1 0.952438 1
1 0.958297 1
0.501457 1 1
0.525093 1 1
0.565927 1 1
0.642405 1 1
0.764721 1 1
0.889372 1 1
0.97705 1 1
1 1 1
1 1 1
0.539742 1 1
0.563195 1 1
0.600656 1 1
0.673808 1 1
0.792798 1 1
0.91104 1 1
0.994369 1 1
1 1 1
1 1 1
