tracker_LUT/LUT/MORNING_GLAZE_106.P1077077.cube
TITLE "Generated by Resolve"
LUT_3D_SIZE 33
0.0594034 0.0594034 0.0594034
0.0594034 0.0594034 0.0594034
0.0594034 0.0594034 0.0594034
0.0594034 0.0594034 0.0594034
0.0594034 0.0594034 0.0594034
0.0594034 0.0594034 0.0594034
0.066865 0.0594034 0.0594034
0.0978561 0.0594034 0.0594034
0.13138 0.0594034 0.0594034
0.165682 0.0594034 0.0594034
0.203098 0.0594034 0.0594034
0.246586 0.0594034 0.0594034
0.296986 0.0594034 0.0594034
0.353033 0.0594034 0.0594034
0.413428 0.0594034 0.0594034
0.478294 0.0594034 0.0594034
0.544335 0.0594034 0.0594034
0.605844 0.0594034 0.0594034
0.66067 0.0594034 0.0594034
0.710124 0.0594034 0.0594034
0.754421 0.0594034 0.0594034
0.792294 0.0594034 0.0594034
0.826062 0.0594034 0.0594034
0.857603 0.0594034 0.0594034
0.884916 0.0594034 0.0594034
0.906737 0.0594034 0.0594034
0.925734 0.0594034 0.0594034
0.942458 0.0594034 0.0594034
0.957366 0.0594034 0.0594034
0.970077 0.0594034 0.0594034
0.980789 0.0594034 0.0594034
0.989487 0.0594034 0.0594034
0.996262 0.0594034 0.0594034
0.0594034 0.0594034 0.0594034
0.0594034 0.0594034 0.0594034
0.0594034 0.0594034 0.0594034
0.0594034 0.0594034 0.0594034
0.0594034 0.0594034 0.0594034
0.0623941 0.0594034 0.0594034
0.0697795 0.0594034 0.0594034
0.100114 0.0594034 0.0594034
0.133242 0.0594034 0.0594034
0.16788 0.0594034 0.0594034
0.205219 0.0594034 0.0594034
0.24831 0.0594034 0.0594034
0.298482 0.0594034 0.0594034
0.354574 0.0594034 0.0594034
0.415335 0.0594034 0.0594034
0.480415 0.0594034 0.0594034
0.546273 0.0594034 0.0594034
0.607706 0.0594034 0.0594034
0.662638 0.0594034 0.0594034
0.712093 0.0594034 0.0594034
0.756374 0.0594034 0.0594034
0.794202 0.0594034 0.0594034
0.827771 0.0594034 0.0594034
0.859144 0.0594034 0.0594034
0.886458 0.0594034 0.0594034
0.908248 0.0594034 0.0594034
0.927184 0.0594034 0.0594034
0.943755 0.0594034 0.0594034
0.958495 0.0594034 0.0594034
0.971176 0.0594034 0.0594034
0.981826 0.0594034 0.0594034
0.990524 0.0594034 0.0594034
0.997299 0.0594034 0.0594034
0.0594034 0.0594034 0.0594034
0.0594034 0.0594034 0.0594034
0.0594034 0.0594034 0.0594034
0.0594034 0.0594034 0.0594034
0.0594034 0.0594034 0.0594034
0.0638437 0.0594034 0.0594034
0.0738994 0.0594034 0.0594034
0.103746 0.0594034 0.0594034
0.135744 0.0594034 0.0594034
0.170336 0.0594034 0.0594034
0.207904 0.0594034 0.0594034
0.250645 0.0594034 0.0594034
0.300511 0.0594034 0.0594034
0.356558 0.0594034 0.0594034
0.417685 0.0594034 0.0594034
0.483146 0.0594034 0.0594034
0.548867 0.0594034 0.0594034
0.610162 0.0594034 0.0594034
0.665217 0.0594034 0.0594034
0.714702 0.0594034 0.0594034
0.758984 0.0594034 0.0594034
0.796796 0.0594034 0.0594034
0.830182 0.0594034 0.0594034
0.861204 0.0594034 0.0594034
0.888487 0.0594034 0.0594034
0.910262 0.0594034 0.0594034
0.929183 0.0594034 0.0594034
0.945678 0.0594034 0.0594034
0.959991 0.0594034 0.0594034
0.972671 0.0594034 0.0594034
0.983261 0.0594034 0.0594034
0.991897 0.0594034 0.0594034
0.998672 0.0594034 0.0594034
0.0594034 0.0594034 0.0594034
0.0594034 0.0594034 0.0594034
0.0594034 0.0594034 0.0594034
0.0594034 0.0594034 0.0594034
0.0594034 0.0594034 0.0594034
0.0654612 0.0594034 0.0594034
0.0787823 0.0594034 0.0594034
0.108217 0.0594034 0.0594034
0.138857 0.0594034 0.0594034
0.173358 0.0594034 0.0594034
0.211582 0.0594034 0.0594034
0.253834 0.0594034 0.0594034
0.303166 0.0594034 0.0594034
0.359106 0.0594034 0.0594034
0.420706 0.0594034 0.0594034
0.486671 0.0594034 0.0594034
0.552254 0.0594034 0.0594034
0.613214 0.0594034 0.0594034
0.66833 0.0594034 0.0594034
0.718044 0.0594034 0.0594034
0.762264 0.0594034 0.0594034
0.800046 0.0594034 0.0594034
0.833234 0.0594034 0.0594034
0.863828 0.0594034 0.0594034
0.891035 0.0594034 0.0594034
0.91281 0.0594034 0.0594034
0.931731 0.0594034 0.0594034
0.94815 0.0594034 0.0594034
0.962341 0.0594034 0.0594034
0.974243 0.0594034 0.0594034
0.984588 0.0594034 0.0594034
0.993194 0.0594034 0.0594034
0.999878 0.0594034 0.0594034
0.0594034 0.0594034 0.0594034
0.0594034 0.0594034 0.0594034
0.0594034 0.0594034 0.0594034
0.0594034 0.0594034 0.0594034
0.0594034 0.0594034 0.0594034
0.0682536 0.0594034 0.0594034
0.0852216 0.0594034 0.0594034
0.114321 0.0594034 0.0594034
0.143816 0.0594034 0.0594034
0.177188 0.0594034 0.0594034
0.215869 0.0594034 0.0594034
0.258015 0.0594034 0.0594034
0.306554 0.0594034 0.0594034
0.362127 0.0594034 0.0594034
0.423957 0.0594034 0.0594034
0.490745 0.0594034 0.0594034
0.556756 0.0594034 0.0594034
0.617212 0.0594034 0.0594034
0.672114 0.0594034 0.0594034
0.722118 0.0594034 0.0594034
0.766293 0.0594034 0.0594034
0.804013 0.0594034 0.0594034
0.837171 0.0594034 0.0594034
0.867521 0.0594034 0.0594034
0.894209 0.0594034 0.0594034
0.915938 0.0594034 0.0594034
0.934859 0.0594034 0.0594034
0.951293 0.0594034 0.0594034
0.965393 0.0594034 0.0594034
0.977066 0.0594034 0.0594034
0.985916 0.0594034 0.0594034
0.993317 0.0594034 0.0594034
1 0.0594034 0.0594034
0.0594034 0.0750286 0.0594034
0.0594034 0.0730907 0.0594034
0.0594034 0.0721294 0.0594034
0.0594034 0.0707408 0.0594034
0.0594034 0.0682841 0.0594034
0.0713207 0.0634928 0.0594034
0.0915084 0.0624247 0.0594034
0.120516 0.0619059 0.0594034
0.149371 0.0609751 0.0594034
0.182269 0.0603494 0.0594034
0.221057 0.0596628 0.0594034
0.263127 0.0594034 0.0594034
0.311879 0.0594034 0.0594034
0.367239 0.0594034 0.0594034
0.428305 0.0594034 0.0594034
0.494713 0.0594034 0.0594034
0.560815 0.0594034 0.0594034
0.62118 0.0594034 0.0594034
0.675746 0.0594034 0.0594034
0.725429 0.0594034 0.0594034
0.769512 0.0594034 0.0594034
0.80737 0.0594034 0.0594034
0.84033 0.0594034 0.0594034
0.870298 0.0594034 0.0594034
0.896544 0.0594034 0.0594034
0.917861 0.0594034 0.0594034
0.936751 0.0594034 0.0594034
0.953063 0.0594034 0.0594034
0.966949 0.0594034 0.0594034
0.978592 0.0594034 0.0594034
0.98732 0.0594034 0.0594034
0.994354 0.0594034 0.0594034
1 0.0594034 0.0594034
0.0594034 0.10663 0.0594034
0.0594034 0.104433 0.0594034
0.0594034 0.101732 0.0594034
0.0602731 0.0982376 0.0594034
0.0607309 0.0927138 0.0594034
0.0733501 0.0846876 0.0594034
0.0973373 0.0757458 0.0594034
0.12668 0.0728618 0.0594034
0.155261 0.0705272 0.0594034
0.188312 0.0686503 0.0594034
0.227665 0.0673686 0.0594034
0.269429 0.0657816 0.0594034
0.318685 0.0651255 0.0594034
0.374456 0.064271 0.0594034
0.434272 0.0615854 0.0594034
0.498863 0.0596628 0.0594034
0.564248 0.0594034 0.0594034
0.624933 0.0594034 0.0594034
0.679728 0.0594034 0.0594034
0.728557 0.0594034 0.0594034
0.77171 0.0594034 0.0594034
0.809949 0.0594034 0.0594034
0.842786 0.0594034 0.0594034
0.872114 0.0594034 0.0594034
0.89807 0.0594034 0.0594034
0.918853 0.0594034 0.0594034
0.937346 0.0594034 0.0594034
0.953597 0.0594034 0.0594034
0.967224 0.0594034 0.0594034
0.978622 0.0594034 0.0594034
0.987366 0.0594034 0.0594034
0.994476 0.0594034 0.0594034
1 0.0594034 0.0594034
0.0594034 0.145937 0.0594034
0.0594034 0.143709 0.0594034
0.0594034 0.14081 0.0594034
0.0612345 0.137072 0.0594034
0.0646372 0.131914 0.0594034
0.0792096 0.124071 0.0594034
0.104509 0.113695 0.0594034
0.133852 0.104021 0.0594034
0.162036 0.099733 0.0594034
0.194736 0.097673 0.0594034
0.234852 0.0962387 0.0594034
0.27689 0.0920729 0.0594034
0.326284 0.0894484 0.0594034
0.383139 0.0872816 0.0594034
0.442573 0.0783856 0.0594034
0.504891 0.0667124 0.0594034
0.568215 0.0611276 0.0594034
0.628672 0.0600137 0.0594034
0.684047 0.0594034 0.0594034
0.732189 0.0594034 0.0594034
0.77406 0.0594034 0.0594034
0.811994 0.0594034 0.0594034
0.845396 0.0594034 0.0594034
0.874281 0.0594034 0.0594034
0.899474 0.0594034 0.0594034
0.920089 0.0594034 0.0594034
0.93814 0.0594034 0.0594034
0.953887 0.0594034 0.0594034
0.967407 0.0594034 0.0594034
0.978592 0.0594034 0.0594034
0.98732 0.0594034 0.0594034
0.994461 0.0594034 0.0594034
1 0.0594034 0.0594034
0.0594034 0.191897 0.0594034
0.0594034 0.189548 0.0594034
0.0594034 0.186496 0.0594034
0.0621958 0.182544 0.0594034
0.0697185 0.177691 0.0594034
0.086656 0.16997 0.0594034
0.112352 0.159442 0.0594034
0.140902 0.147494 0.0594034
0.172137 0.136141 0.0594034
0.204105 0.131655 0.0594034
0.242329 0.129519 0.0594034
0.284672 0.124666 0.0594034
0.3346 0.121019 0.0594034
0.392782 0.119265 0.0594034
0.451987 0.11281 0.0594034
0.513268 0.0996262 0.0594034
0.576074 0.0835431 0.0594034
0.635279 0.0710613 0.0594034
0.688823 0.0648966 0.0594034
0.736019 0.0621805 0.0594034
0.777157 0.0605631 0.0594034
0.813474 0.0594034 0.0594034
0.846967 0.0594034 0.0594034
0.876463 0.0594034 0.0594034
0.90135 0.0594034 0.0594034
0.921736 0.0594034 0.0594034
0.93962 0.0594034 0.0594034
0.955215 0.0594034 0.0594034
0.968566 0.0594034 0.0594034
0.979522 0.0594034 0.0594034
0.987839 0.0594034 0.0594034
0.99469 0.0594034 0.0594034
1 0.0594034 0.0594034
0.0594034 0.241611 0.0594034
0.0594034 0.239277 0.0594034
0.0594034 0.236118 0.0594034
0.0630198 0.232013 0.0594034
0.0745251 0.226917 0.0594034
0.0931258 0.219242 0.0594034
0.118898 0.208515 0.0594034
0.147875 0.196002 0.0594034
0.180499 0.181964 0.0594034
0.216281 0.169512 0.0594034
0.252979 0.164355 0.0594034
0.29369 0.159518 0.0594034
0.343328 0.154742 0.0594034
0.402075 0.151675 0.0594034
0.463066 0.147356 0.0594034
0.523644 0.138598 0.0594034
0.585519 0.127382 0.0594034
0.644709 0.117693 0.0594034
0.695949 0.107118 0.0594034
0.7411 0.0944076 0.0594034
0.782025 0.0829633 0.0594034
0.817212 0.0744488 0.0594034
0.849165 0.0720684 0.0594034
0.878798 0.0714885 0.0594034
0.904128 0.0710155 0.0594034
0.924193 0.0695048 0.0594034
0.941955 0.0679789 0.0594034
0.957565 0.0675059 0.0594034
0.970962 0.066865 0.0594034
0.981445 0.0664836 0.0594034
0.988617 0.0657511 0.0594034
0.99501 0.0657511 0.0594034
1 0.0657511 0.0594034
0.0594034 0.292607 0.0594034
0.0597543 0.290394 0.0594034
0.0601511 0.287388 0.0594034
0.0643626 0.283482 0.0594034
0.0795911 0.278584 0.0594034
0.0994888 0.271275 0.0594034
0.124758 0.26128 0.0594034
0.153857 0.24921 0.0594034
0.187701 0.23534 0.0594034
0.226261 0.219898 0.0594034
0.267826 0.206912 0.0594034
0.30808 0.199939 0.0594034
0.354253 0.194064 0.0594034
0.410941 0.187747 0.0594034
0.473854 0.181994 0.0594034
0.536614 0.175906 0.0594034
0.597452 0.169406 0.0594034
0.654627 0.164004 0.0594034
0.705318 0.157427 0.0594034
0.75021 0.148333 0.0594034
0.79028 0.139559 0.0594034
0.825101 0.132097 0.0594034
0.856016 0.127337 0.0594034
0.884627 0.124605 0.0594034
0.909499 0.122713 0.0594034
0.928939 0.118975 0.0594034
0.946075 0.115389 0.0594034
0.961593 0.112612 0.0594034
0.975189 0.110933 0.0594034
0.985443 0.109392 0.0594034
0.99086 0.108156 0.0594034
0.99585 0.107256 0.0594034
1 0.106447 0.0594034
0.0594034 0.348852 0.0594034
0.0612802 0.347112 0.0594034
0.0634928 0.344762 0.0594034
0.0693675 0.341665 0.0594034
0.08542 0.337362 0.0594034
0.105989 0.331212 0.0594034
0.130922 0.323018 0.0594034
0.159854 0.312535 0.0594034
0.19501 0.300008 0.0594034
0.233753 0.285176 0.0594034
0.278126 0.268559 0.0594034
0.325948 0.254276 0.0594034
0.371344 0.244785 0.0594034
0.423575 0.237201 0.0594034
0.485237 0.229328 0.0594034
0.550332 0.222721 0.0594034
0.611582 0.216556 0.0594034
0.665843 0.21088 0.0594034
0.715206 0.206973 0.0594034
0.760403 0.203418 0.0594034
0.799786 0.199451 0.0594034
0.833143 0.195392 0.0594034
0.863203 0.191791 0.0594034
0.890684 0.188937 0.0594034
0.915068 0.18558 0.0594034
0.934646 0.181491 0.0594034
0.9514 0.177157 0.0594034
0.966293 0.173648 0.0594034
0.979507 0.172244 0.0594034
0.989151 0.170886 0.0594034
0.993393 0.169574 0.0594034
0.99704 0.168414 0.0594034
1 0.167483 0.0594034
0.0597086 0.413016 0.0594034
0.0655222 0.411673 0.0594034
0.0727092 0.409888 0.0594034
0.0805371 0.407431 0.0594034
0.0949874 0.40415 0.0594034
0.114321 0.398993 0.0594034
0.138384 0.392096 0.0594034
0.16672 0.38352 0.0594034
0.201785 0.372503 0.0594034
0.241108 0.35906 0.0594034
0.284703 0.343099 0.0594034
0.337423 0.325338 0.0594034
0.391348 0.309728 0.0594034
0.442481 0.299138 0.0594034
0.499825 0.291081 0.0594034
0.563806 0.283207 0.0594034
0.625498 0.275319 0.0594034
0.679576 0.268376 0.0594034
0.727123 0.264103 0.0594034
0.770977 0.262135 0.0594034
0.809888 0.260243 0.0594034
0.841993 0.257862 0.0594034
0.87013 0.255955 0.0594034
0.896147 0.254383 0.0594034
0.919692 0.252079 0.0594034
0.939467 0.249378 0.0594034
0.956481 0.245991 0.0594034
0.971344 0.243565 0.0594034
0.984207 0.24303 0.0594034
0.993103 0.242191 0.0594034
0.995621 0.241382 0.0594034
0.997955 0.240711 0.0594034
1 0.240162 0.0594034
0.0720073 0.484703 0.0594034
0.0791485 0.48394 0.0594034
0.088426 0.482444 0.0594034
0.0984207 0.480339 0.0594034
0.111513 0.477714 0.0594034
0.128359 0.472953 0.0594034
0.150576 0.466499 0.0594034
0.177142 0.458793 0.0594034
0.21001 0.448753 0.0594034
0.248371 0.43624 0.0594034
0.291997 0.421302 0.0594034
0.344839 0.405127 0.0594034
0.404578 0.387701 0.0594034
0.463478 0.372946 0.0594034
0.519203 0.362875 0.0594034
0.57789 0.353857 0.0594034
0.638392 0.344549 0.0594034
0.693202 0.336233 0.0594034
0.740871 0.330831 0.0594034
0.78352 0.328634 0.0594034
0.821042 0.326787 0.0594034
0.852537 0.324559 0.0594034
0.879515 0.322728 0.0594034
0.903975 0.322133 0.0594034
0.925887 0.321294 0.0594034
0.945037 0.319646 0.0594034
0.962066 0.317922 0.0594034
0.976776 0.316915 0.0594034
0.98912 0.317006 0.0594034
0.997436 0.316701 0.0594034
0.998199 0.316533 0.0594034
0.99913 0.31635 0.0594034
1 0.316197 0.0594034
0.0947738 0.557717 0.0599832
0.100771 0.557061 0.0597848
0.109377 0.556069 0.0597696
0.119982 0.554742 0.0599985
0.132616 0.553094 0.0600443
0.147997 0.549096 0.0600595
0.166979 0.542687 0.0595407
0.189761 0.534951 0.0594034
0.219806 0.526558 0.0594034
0.256229 0.516075 0.0594034
0.299535 0.502571 0.0594034
0.35111 0.488655 0.0594034
0.410178 0.472923 0.0594034
0.475166 0.455314 0.0594034
0.53817 0.440635 0.0594034
0.595041 0.429694 0.0594034
0.650828 0.42118 0.0594034
0.704875 0.413962 0.0594034
0.752758 0.407095 0.0594034
0.794598 0.401541 0.0594034
0.830839 0.397757 0.0594034
0.862577 0.395346 0.0594034
0.890364 0.39408 0.0594034
0.914702 0.393729 0.0594034
0.936004 0.393286 0.0594034
0.954208 0.39173 0.0594034
0.970077 0.390311 0.0594034
0.983063 0.389578 0.0594034
0.993057 0.390082 0.0594034
0.999664 0.390417 0.0594034
0.999741 0.390738 0.0594034
0.999893 0.390997 0.0594034
1 0.391196 0.0594034
0.11989 0.6318 0.0697032
0.124895 0.630655 0.0691844
0.132067 0.629526 0.0687572
0.141085 0.628183 0.0684825
0.152163 0.626734 0.0681926
0.166629 0.623728 0.0682383
0.184375 0.618418 0.0678416
0.205325 0.611795 0.0670939
0.2318 0.603387 0.0634928
0.264668 0.593256 0.0607004
0.30573 0.581491 0.0599069
0.354299 0.569116 0.059556
0.41088 0.557076 0.0594034
0.476234 0.542931 0.0594034
0.54757 0.526268 0.0594034
0.611963 0.510933 0.0594034
0.665293 0.500908 0.0594034
0.714824 0.49485 0.0594034
0.76141 0.488533 0.0594034
0.802899 0.482475 0.0594034
0.839689 0.478202 0.0594034
0.871229 0.474022 0.0594034
0.898787 0.470726 0.0594034
0.922866 0.468589 0.0594034
0.94403 0.467063 0.0594034
0.962646 0.465965 0.0594034
0.978393 0.465064 0.0594034
0.989868 0.464668 0.0594034
0.996033 0.465324 0.0594034
1 0.465904 0.0594034
1 0.466468 0.0594034
1 0.466926 0.0594034
1 0.467292 0.0594034
0.143572 0.70074 0.0857557
0.148074 0.699245 0.0850996
0.154101 0.697444 0.0842756
0.161715 0.695232 0.0832837
0.171099 0.692729 0.0823224
0.184421 0.690455 0.0823835
0.201862 0.687846 0.0830701
0.222248 0.684169 0.0828412
0.245808 0.677012 0.0778058
0.274922 0.667659 0.0730449
0.312764 0.656703 0.0705577
0.357382 0.644114 0.0673228
0.410773 0.633814 0.0649424
0.473106 0.624002 0.063386
0.544106 0.609583 0.0615396
0.618143 0.593851 0.0606088
0.680446 0.581979 0.0600137
0.727779 0.57377 0.0594034
0.769574 0.567773 0.0594034
0.809949 0.563638 0.0594034
0.846754 0.559731 0.0594034
0.877424 0.554208 0.0594034
0.903655 0.548684 0.0594034
0.927459 0.545068 0.0594034
0.949004 0.542473 0.0594034
0.968643 0.541436 0.0594034
0.985382 0.540856 0.0594034
0.996338 0.540505 0.0594034
0.998566 0.54052 0.0594034
1 0.540612 0.0594034
1 0.540887 0.0594034
1 0.5411 0.0594034
1 0.541283 0.0594034
0.164508 0.758083 0.099733
0.168826 0.756771 0.0992142
0.174563 0.755032 0.0985428
0.181735 0.752804 0.0977493
0.190433 0.750149 0.096788
0.202579 0.747951 0.0965438
0.218265 0.746334 0.0970932
0.237064 0.744198 0.097322
0.259373 0.739483 0.0945602
0.286687 0.732692 0.0909743
0.320485 0.723095 0.087602
0.361456 0.711711 0.0826886
0.411933 0.701183 0.0782025
0.47042 0.691157 0.0742046
0.536004 0.678889 0.0701762
0.610727 0.666957 0.0687572
0.684108 0.657053 0.0680247
0.740414 0.647791 0.0665446
0.780606 0.640055 0.065568
0.816434 0.635172 0.0649882
0.851331 0.631647 0.064271
0.881941 0.627543 0.0617075
0.908522 0.623713 0.0594034
0.931746 0.620645 0.0594034
0.952819 0.618051 0.0594034
0.972381 0.616693 0.0594034
0.989105 0.615503 0.0594034
0.999619 0.614557 0.0594034
0.999786 0.613642 0.0594034
1 0.612802 0.0594034
1 0.612268 0.0594034
1 0.611856 0.0594034
1 0.611719 0.0594034
0.183688 0.806897 0.113252
0.187762 0.805783 0.112902
0.193301 0.804471 0.112474
0.200229 0.802808 0.112001
0.208591 0.800809 0.111421
0.219577 0.79852 0.110826
0.233387 0.796017 0.110292
0.250538 0.793362 0.109667
0.271046 0.789242 0.107424
0.297154 0.783963 0.104921
0.328908 0.777066 0.102434
0.36585 0.768139 0.0981613
0.412512 0.758556 0.0934005
0.467811 0.748425 0.0882124
0.529137 0.737133 0.0834669
0.5991 0.726955 0.0820935
0.674662 0.719356 0.0817731
0.742672 0.712261 0.0805219
0.791318 0.704326 0.0791485
0.82565 0.698421 0.078584
0.857038 0.695232 0.0784009
0.885496 0.691539 0.0750134
0.911818 0.688914 0.0701762
0.935195 0.68748 0.0664073
0.955642 0.686 0.0625162
0.974533 0.685435 0.061265
0.990143 0.684627 0.0598917
0.999878 0.683818 0.0596628
0.999893 0.682887 0.0594034
1 0.68188 0.0594034
1 0.680995 0.0594034
1 0.680262 0.0594034
1 0.679881 0.0594034
0.201617 0.849973 0.129
0.205402 0.8486 0.128679
0.21059 0.846983 0.128298
0.217258 0.845304 0.127779
0.225376 0.843336 0.12726
0.235523 0.841733 0.126802
0.248035 0.839719 0.126207
0.263767 0.837247 0.125444
0.282643 0.833921 0.12343
0.306676 0.829252 0.121065
0.337591 0.82359 0.119036
0.37174 0.815427 0.114397
0.413581 0.807553 0.109209
0.464744 0.798672 0.102876
0.523003 0.788357 0.0963302
0.590188 0.779004 0.0936446
0.664637 0.772 0.0932784
0.736522 0.766323 0.0928664
0.794751 0.759579 0.0925002
0.836088 0.753811 0.0928664
0.86595 0.750896 0.094377
0.890425 0.747082 0.0943313
0.913664 0.743542 0.092134
0.936919 0.742306 0.0876173
0.957885 0.742061 0.0810407
0.976379 0.742931 0.0769055
0.991089 0.743328 0.0723278
1 0.743328 0.069398
1 0.743236 0.0673686
1 0.742916 0.0662089
1 0.74258 0.064622
1 0.742168 0.0636301
1 0.741772 0.0636301
0.2177 0.887984 0.145907
0.221241 0.886336 0.145602
0.22594 0.884138 0.145205
0.232105 0.881865 0.144686
0.239689 0.879499 0.144228
0.249271 0.878248 0.144015
0.261143 0.877302 0.143908
0.275822 0.875807 0.143648
0.294591 0.873442 0.142657
0.316884 0.869444 0.140551
0.344503 0.863569 0.13785
0.377356 0.856291 0.133486
0.416678 0.850172 0.128573
0.464378 0.842771 0.121538
0.519295 0.832822 0.112291
0.58352 0.823911 0.106706
0.658396 0.81799 0.106645
0.731182 0.812665 0.108049
0.791745 0.805875 0.108202
0.840146 0.800198 0.108629
0.875013 0.798123 0.110567
0.899901 0.796765 0.111818
0.920516 0.793973 0.113344
0.940398 0.791058 0.116228
0.959762 0.789853 0.116854
0.977356 0.791012 0.11371
0.991485 0.792248 0.107454
1 0.793118 0.101228
1 0.793667 0.0974136
1 0.793896 0.0942245
1 0.794064 0.0897688
1 0.794156 0.0866255
1 0.794079 0.0854047
0.23151 0.920317 0.161608
0.234943 0.918608 0.161288
0.23946 0.916228 0.160784
0.245167 0.913405 0.160266
0.252277 0.910491 0.159854
0.261357 0.908644 0.159609
0.272618 0.907835 0.159564
0.286381 0.906981 0.159792
0.304112 0.904952 0.159792
0.326223 0.902647 0.159167
0.352148 0.898375 0.157122
0.382406 0.891966 0.153414
0.419974 0.885847 0.149493
0.465965 0.879835 0.144106
0.518273 0.870604 0.1346
0.580056 0.861463 0.12636
0.655161 0.85684 0.126146
0.72932 0.853101 0.13051
0.789166 0.847303 0.133196
0.838529 0.842069 0.134691
0.87921 0.839475 0.137362
0.909224 0.8392 0.139742
0.930419 0.838575 0.141283
0.948104 0.836133 0.145022
0.964965 0.833753 0.15108
0.98088 0.833646 0.155169
0.992798 0.834516 0.153399
1 0.835447 0.150607
1 0.836149 0.148287
1 0.836744 0.145663
1 0.837186 0.141588
1 0.837568 0.138277
1 0.837827 0.135744
0.243153 0.947494 0.176257
0.246738 0.946014 0.176074
0.251347 0.943786 0.175677
0.25713 0.9411 0.175235
0.264027 0.937926 0.174823
0.272786 0.935668 0.174411
0.28368 0.934462 0.174166
0.297078 0.933425 0.174441
0.313756 0.931228 0.174899
0.334173 0.929229 0.174975
0.359426 0.927321 0.174365
0.388586 0.922988 0.172351
0.424247 0.917189 0.169451
0.468299 0.91136 0.165591
0.519753 0.903273 0.158419
0.582345 0.895048 0.151553
0.655741 0.889998 0.150683
0.72932 0.887678 0.156069
0.790204 0.88481 0.162799
0.837217 0.880613 0.166537
0.878721 0.877806 0.169497
0.914366 0.876661 0.173739
0.939483 0.876478 0.175921
0.956405 0.875013 0.176791
0.972229 0.873594 0.18024
0.987045 0.873167 0.187793
0.995331 0.872908 0.193713
1 0.872953 0.197971
1 0.873594 0.199054
1 0.874144 0.199847
1 0.874678 0.198734
1 0.87512 0.197742
1 0.875456 0.196963
0.253391 0.970916 0.19057
0.257252 0.969818 0.190631
0.262333 0.9682 0.190585
0.26865 0.966217 0.190555
0.275731 0.963287 0.19028
0.284413 0.960983 0.189899
0.295003 0.959442 0.189609
0.308339 0.958267 0.189776
0.325429 0.956664 0.190509
0.343938 0.954452 0.190799
0.366598 0.952529 0.190753
0.395804 0.94931 0.190814
0.431037 0.944488 0.189242
0.472984 0.939742 0.18674
0.523018 0.93341 0.181582
0.58854 0.927062 0.176532
0.662379 0.922347 0.176699
0.732616 0.91957 0.182895
0.793042 0.917723 0.190707
0.839719 0.915068 0.194995
0.878935 0.912612 0.198367
0.915328 0.910826 0.204532
0.94435 0.909514 0.209003
0.962493 0.907973 0.210101
0.978195 0.907134 0.211597
0.992676 0.907698 0.216144
0.997955 0.907744 0.22211
1 0.907607 0.228397
1 0.907912 0.233341
1 0.908202 0.237278
1 0.908614 0.238285
1 0.90898 0.238956
1 0.909239 0.23949
0.263371 0.989288 0.204044
0.267109 0.988586 0.204074
0.27216 0.987579 0.204166
0.278599 0.986191 0.204379
0.286366 0.984543 0.204578
0.295277 0.982925 0.204532
0.305653 0.981598 0.204334
0.318517 0.980331 0.204471
0.335561 0.979095 0.205249
0.354177 0.97731 0.205844
0.37438 0.975067 0.205844
0.402472 0.97229 0.207446
0.437613 0.968399 0.207584
0.478645 0.964355 0.206073
0.528511 0.959915 0.203189
0.595621 0.954849 0.199481
0.671855 0.951782 0.200671
0.739498 0.948913 0.208255
0.796658 0.946151 0.216739
0.844388 0.945357 0.221973
0.88249 0.943587 0.225696
0.917433 0.941619 0.232425
0.946685 0.93962 0.239246
0.967666 0.937331 0.242176
0.983459 0.9364 0.243946
0.99617 0.937636 0.247181
0.999695 0.938506 0.250736
1 0.939055 0.25481
1 0.939178 0.260105
1 0.93933 0.264805
1 0.939513 0.268269
1 0.93962 0.271092
1 0.939742 0.273152
0.274846 0.998016 0.217319
0.278065 0.998016 0.21706
0.282368 0.998016 0.216693
0.28838 0.997559 0.216678
0.29604 0.997513 0.21709
0.304906 0.997009 0.217472
0.315022 0.996643 0.217655
0.327138 0.996155 0.217823
0.342809 0.99498 0.218494
0.361837 0.99353 0.219394
0.382361 0.991958 0.220035
0.409537 0.990555 0.222583
0.443183 0.987976 0.22446
0.483467 0.984451 0.224445
0.536858 0.981353 0.22359
0.604349 0.976852 0.221057
0.678477 0.974685 0.222507
0.74551 0.972992 0.230945
0.802106 0.970306 0.241184
0.851102 0.970642 0.250034
0.88986 0.970138 0.256367
0.923323 0.968124 0.262211
0.952331 0.966476 0.269963
0.973968 0.964309 0.274983
0.989654 0.963256 0.278294
0.997009 0.964843 0.28159
0.999893 0.965743 0.284474
1 0.966384 0.287358
1 0.966491 0.290318
1 0.966598 0.294102
1 0.966705 0.297795
1 0.966796 0.301106
1 0.966888 0.303365
0.285527 1 0.229252
0.288594 1 0.228992
0.29276 1 0.228611
0.298131 1 0.228244
0.304967 1 0.228183
0.313619 1 0.228794
0.323583 1 0.229389
0.335256 0.999939 0.229801
0.349645 0.999405 0.230365
0.368078 0.998886 0.231296
0.3897 0.998138 0.232502
0.416632 0.997589 0.235874
0.448905 0.996719 0.239063
0.489891 0.995178 0.240497
0.546197 0.993851 0.241169
0.613886 0.991745 0.24036
0.68513 0.990753 0.242145
0.751095 0.990341 0.250477
