tracker_LUT/LUT/NIGHT_KING_141.Clip__45.cube
TITLE "Generated by Resolve"
LUT_3D_SIZE 5
0 0 0
0.108217 0 0
0.312932 0 0
0.517037 0 0
0.719722 0 0
0 0.108919 0
0.108659 0.108659 0
0.312795 0.108904 0
0.515648 0.109316 0
0.717769 0.109789 0
0 0.313634 0
0.10898 0.312871 0
0.312764 0.312764 0
0.515343 0.312886 0
0.71722 0.31313 0
0 0.516701 0
0.109392 0.515724 0
0.312978 0.515419 0
0.515389 0.515389 0
0.717113 0.51548 0
0 0.718914 0
0.109819 0.7178 0
0.313268 0.717357 0
0.515557 0.717205 0
0.717189 0.717189 0
0 0 0.108385
0.108186 0 0.108186
0.313313 0 0.109422
0.517021 0 0.110689
0.7196 0 0.11162
0 0.108858 0.108858
0.108507 0.108507 0.108507
0.312596 0.108705 0.108705
0.515419 0.109071 0.109071
0.717494 0.109529 0.109529
0 0.31339 0.109499
0.108705 0.312596 0.108705
0.312459 0.312459 0.108568
0.515023 0.312566 0.108675
0.716884 0.312795 0.108904
0 0.516381 0.110048
0.109041 0.515389 0.109041
0.312612 0.515068 0.108721
0.515007 0.515007 0.108675
0.716731 0.515099 0.108751
0 0.718532 0.110567
0.109422 0.717403 0.109422
0.312871 0.71696 0.10898
0.51516 0.716793 0.108812
0.716762 0.716762 0.108782
0 0 0.312413
0.108446 0 0.312337
0.313741 0 0.313741
0.51722 0 0.314763
0.719707 0 0.315618
0 0.10901 0.312901
0.108598 0.108598 0.31249
0.312627 0.108736 0.312627
0.515419 0.109071 0.312963
0.717464 0.109499 0.31339
0 0.313375 0.313375
0.108675 0.312551 0.312551
0.312398 0.312398 0.312398
0.514946 0.31249 0.31249
0.716777 0.312703 0.312703
0 0.516289 0.313848
0.108949 0.515282 0.312825
0.312505 0.514946 0.312505
0.514885 0.514885 0.312428
0.716594 0.514946 0.312505
0 0.71841 0.314321
0.109285 0.71725 0.313176
0.312718 0.716808 0.312718
0.514992 0.716625 0.312535
0.716579 0.716579 0.312505
0 0 0.515145
0.108919 0 0.515267
0.314153 0 0.516594
0.517464 0 0.517464
0.71989 0 0.518257
0 0.109239 0.515587
0.108766 0.108766 0.515099
0.312749 0.108858 0.515206
0.515511 0.109163 0.515511
0.71754 0.10956 0.515892
0 0.313451 0.515908
0.108721 0.312612 0.515068
0.312444 0.312444 0.514885
0.514961 0.312505 0.514961
0.716793 0.312703 0.515145
0 0.516304 0.516304
0.108934 0.515282 0.515282
0.312474 0.514931 0.514931
0.514855 0.514855 0.514855
0.716548 0.514916 0.514916
0 0.718364 0.516732
0.109239 0.717205 0.515572
0.312657 0.716747 0.515114
0.514916 0.716548 0.514916
0.716503 0.716503 0.51487
0 0 0.717159
0.109728 0 0.717693
0.314549 0 0.718639
0.517754 0 0.719402
0.720119 0 0.720119
0 0.109514 0.717479
0.10898 0.10898 0.716945
0.312932 0.109041 0.717006
0.515648 0.109316 0.717281
0.717647 0.109682 0.717647
0 0.313588 0.717678
0.108843 0.312718 0.716808
0.31252 0.31252 0.716609
0.515023 0.312581 0.71667
0.716838 0.312749 0.716838
0 0.516365 0.718013
0.108995 0.515328 0.71696
0.31252 0.514961 0.716609
0.51487 0.51487 0.716503
0.716548 0.514916 0.716548
0 0.718395 0.718395
0.109239 0.71722 0.71722
0.312657 0.716747 0.716747
0.5149 0.716533 0.716533
0.716487 0.716487 0.716487
