tracker_LUT/LUT/NIGHT_KING_141.Clip__45.cube
TITLE "Generated by Resolve"
LUT_3D_SIZE 33
0 0 0
0 0 0
0 0 0
0 0 0
0.00483711 0 0
0.0308843 0 0
0.0567483 0 0
0.0825055 0 0
0.108217 0 0
0.133883 0 0
0.159503 0 0
0.185107 0 0
0.210697 0 0
0.236271 0 0
0.26183 0 0
0.287373 0 0
0.312932 0 0
0.338506 0 0
0.364141 0 0
0.389746 0 0
0.415259 0 0
0.440742 0 0
0.466194 0 0
0.49163 0 0
0.517037 0 0
0.542428 0 0
0.567788 0 0
0.593149 0 0
0.618494 0 0
0.643809 0 0
0.669123 0 0
0.694423 0 0
0.719722 0 0
0 0 0
0 0 0
0 0 0
0 0 0
0.00488289 0 0
0.0309453 0 0
0.0568246 0 0
0.0825971 0 0
0.108324 0 0
0.13402 0 0
0.15967 0 0
0.185306 0 0
0.210941 0 0
0.236561 0 0
0.262196 0 0
0.287922 0 0
0.313527 0 0
0.339086 0 0
0.364599 0 0
0.390082 0 0
0.415534 0 0
0.44097 0 0
0.466377 0 0
0.491783 0 0
0.517159 0 0
0.542519 0 0
0.56788 0 0
0.59321 0 0
0.61854 0 0
0.643854 0 0
0.669154 0 0
0.694438 0 0
0.719722 0 0
0 0 0
0 0 0
0 0 0
0 0 0
0.00491341 0 0
0.0310063 0 0
0.0569009 0 0
0.0827192 0 0
0.108476 0 0
0.134203 0 0
0.15993 0 0
0.185672 0 0
0.211444 0 0
0.237095 0 0
0.262684 0 0
0.288243 0 0
0.313771 0 0
0.339254 0 0
0.364736 0 0
0.390188 0 0
0.41561 0 0
0.441016 0 0
0.466423 0 0
0.491798 0 0
0.517159 0 0
0.542504 0 0
0.567834 0 0
0.593164 0 0
0.618479 0 0
0.643778 0 0
0.669062 0 0
0.694347 0 0
0.719615 0 0
0 0 0
0 0 0
0 0 0
0 0 0
0.00492866 0 0
0.0310674 0 0
0.0570077 0 0
0.082887 0 0
0.108812 0 0
0.13463 0 0
0.160342 0 0
0.186007 0 0
0.211627 0 0
0.237201 0 0
0.262745 0 0
0.288258 0 0
0.313756 0 0
0.339223 0 0
0.364675 0 0
0.390097 0 0
0.415503 0 0
0.440909 0 0
0.466285 0 0
0.491646 0 0
0.516991 0 0
0.542336 0 0
0.567651 0 0
0.592966 0 0
0.618265 0 0
0.643565 0 0
0.668849 0 0
0.694118 0 0
0.719371 0 0
0 0.00460822 0
0 0.00468452 0
0 0.00476081 0
0 0.00482185 0
0.00482185 0.00482185 0
0.0311131 0.0049897 0
0.0571145 0.00509651 0
0.0829633 0.00520333 0
0.108736 0.00529488 0
0.134447 0.00538643 0
0.160113 0.00547799 0
0.185733 0.00556954 0
0.211307 0.00564584 0
0.236851 0.00573739 0
0.262379 0.00582895 0
0.287877 0.0059205 0
0.313344 0.0059968 0
0.338796 0.00608835 0
0.364218 0.0061799 0
0.389639 0.0062562 0
0.41503 0.00634775 0
0.440421 0.00642405 0
0.465782 0.0065156 0
0.491142 0.00660716 0
0.516472 0.00668345 0
0.541802 0.00677501 0
0.567117 0.0068513 0
0.592416 0.00694286 0
0.617716 0.00701915 0
0.643 0.0071107 0
0.668269 0.007187 0
0.693538 0.00727855 0
0.718791 0.00735485 0
0 0.0307622 0
0 0.0309606 0
0 0.0311589 0
0 0.0312505 0
0.005066 0.0312047 0
0.0311894 0.0311894 0
0.0570993 0.03122 0
0.0829023 0.0312657 0
0.108644 0.0313268 0
0.13431 0.0313878 0
0.159945 0.0314488 0
0.185534 0.0315099 0
0.211093 0.0315709 0
0.236622 0.0316472 0
0.262119 0.0317082 0
0.287602 0.0317845 0
0.313069 0.0318608 0
0.338506 0.0319371 0
0.363928 0.0319982 0
0.389319 0.0320745 0
0.41471 0.0321508 0
0.440085 0.0322271 0
0.465431 0.0323033 0
0.490776 0.0323796 0
0.516106 0.0324559 0
0.541436 0.0325322 0
0.566735 0.0326085 0
0.592035 0.0326848 0
0.617319 0.0327611 0
0.642588 0.0328374 0
0.667857 0.0329137 0
0.693111 0.03299 0
0.718364 0.0330663 0
0 0.0571145 0
0 0.0572061 0
0 0.0572671 0
0 0.0572824 0
0.00517281 0.0571756 0
0.0312505 0.0571298 0
0.0571298 0.0571298 0
0.0829175 0.0571603 0
0.108629 0.0571908 0
0.134279 0.0572213 0
0.159884 0.0572671 0
0.185458 0.0573129 0
0.211002 0.0573739 0
0.23653 0.0574197 0
0.262013 0.0574807 0
0.28748 0.0575418 0
0.312932 0.0576028 0
0.338354 0.0576638 0
0.36376 0.0577249 0
0.389151 0.0577859 0
0.414527 0.0578622 0
0.439902 0.0579232 0
0.465248 0.0579843 0
0.490578 0.0580606 0
0.515908 0.0581216 0
0.541207 0.0581979 0
0.566522 0.0582589 0
0.591806 0.0583352 0
0.61709 0.0584115 0
0.642359 0.0584726 0
0.667613 0.0585489 0
0.692866 0.0586252 0
0.718105 0.0586862 0
0 0.0830854 0
0 0.0831311 0
0 0.0831617 0
0 0.0831464 0
0.0052491 0.0830243 0
0.0313115 0.0829633 0
0.0571756 0.0829328 0
0.082948 0.082948 0
0.108629 0.0829633 0
0.134279 0.0829786 0
0.159869 0.0830091 0
0.185428 0.0830396 0
0.210971 0.0830854 0
0.236469 0.0831311 0
0.261952 0.0831769 0
0.287404 0.0832227 0
0.31284 0.0832837 0
0.338262 0.0833295 0
0.363668 0.0833906 0
0.389044 0.0834363 0
0.41442 0.0834974 0
0.439765 0.0835584 0
0.46511 0.0836194 0
0.49044 0.0836805 0
0.515755 0.0837415 0
0.54107 0.0838026 0
0.566354 0.0838636 0
0.591638 0.0839246 0
0.616907 0.0840009 0
0.642176 0.084062 0
0.66743 0.084123 0
0.692683 0.0841993 0
0.717906 0.0842603 0
0 0.108919 0
0 0.108949 0
0 0.108949 0
0 0.108919 0
0.0053254 0.108782 0
0.0313878 0.108705 0
0.0572213 0.108659 0
0.0829786 0.108659 0
0.108659 0.108659 0
0.134279 0.108675 0
0.159869 0.10869 0
0.185428 0.108721 0
0.210941 0.108751 0
0.236439 0.108782 0
0.261906 0.108812 0
0.287358 0.108858 0
0.312795 0.108904 0
0.338201 0.108949 0
0.363592 0.108995 0
0.388968 0.109041 0
0.414328 0.109102 0
0.439689 0.109148 0
0.465019 0.109194 0
0.490333 0.109255 0
0.515648 0.109316 0
0.540948 0.109361 0
0.566232 0.109422 0
0.591516 0.109483 0
0.616785 0.109545 0
0.642039 0.109606 0
0.667292 0.109667 0
0.692531 0.109728 0
0.717769 0.109789 0
0 0.134676 0
0 0.134691 0
0 0.134676 0
0 0.134615 0
0.00540169 0.134478 0
0.0314488 0.134371 0
0.0572824 0.134325 0
0.0830091 0.13431 0
0.10869 0.13431 0
0.13431 0.13431 0
0.159884 0.13431 0
0.185428 0.13434 0
0.210941 0.134356 0
0.236423 0.134386 0
0.261891 0.134417 0
0.287327 0.134447 0
0.312749 0.134478 0
0.338155 0.134524 0
0.363546 0.134569 0
0.388922 0.1346 0
0.414267 0.134646 0
0.439612 0.134691 0
0.464942 0.134752 0
0.490257 0.134798 0
0.515572 0.134844 0
0.540856 0.134905 0
0.56614 0.134951 0
0.591424 0.135012 0
0.616678 0.135058 0
0.641932 0.135119 0
0.667185 0.135164 0
0.692424 0.135225 0
0.717647 0.135286 0
0 0.160357 0
0 0.160357 0
0 0.160327 0
0 0.160266 0
0.00547799 0.160113 0
0.0315099 0.160006 0
0.0573281 0.159945 0
0.0830549 0.159915 0
0.108721 0.159899 0
0.13434 0.159899 0
0.159899 0.159899 0
0.185443 0.159915 0
0.210941 0.15993 0
0.236423 0.159945 0
0.261875 0.159976 0
0.287312 0.160006 0
0.312734 0.160037 0
0.338125 0.160067 0
0.363516 0.160098 0
0.388876 0.160128 0
0.414237 0.160174 0
0.439567 0.16022 0
0.464897 0.160266 0
0.490211 0.160311 0
0.515511 0.160357 0
0.540795 0.160403 0
0.566079 0.160449 0
0.591348 0.160494 0
0.616602 0.16054 0
0.641855 0.160601 0
0.667094 0.160647 0
0.692317 0.160708 0
0.71754 0.160754 0
0 0.185992 0
0 0.185977 0
0 0.185946 0
0 0.18587 0
0.00553903 0.185702 0
0.0315709 0.185595 0
0.0573892 0.185534 0
0.0831006 0.185489 0
0.108766 0.185473 0
0.134371 0.185458 0
0.15993 0.185458 0
0.185458 0.185458 0
0.210956 0.185473 0
0.236439 0.185473 0
0.261875 0.185504 0
0.287312 0.185519 0
0.312718 0.18555 0
0.338109 0.18558 0
0.363485 0.185595 0
0.388846 0.185641 0
0.414191 0.185672 0
0.439536 0.185702 0
0.464851 0.185748 0
0.490166 0.185779 0
0.51545 0.185824 0
0.540734 0.18587 0
0.566018 0.185916 0
0.591287 0.185962 0
0.616541 0.186007 0
0.641779 0.186053 0
0.667018 0.186099 0
0.692241 0.186145 0
0.717464 0.186206 0
0 0.211582 0
0 0.211566 0
0 0.211521 0
0 0.211444 0
0.00561532 0.211261 0
0.031632 0.211139 0
0.057435 0.211078 0
0.0831464 0.211032 0
0.108797 0.211002 0
0.134401 0.210986 0
0.15996 0.210971 0
0.185489 0.210971 0
0.210971 0.210971 0
0.236439 0.210986 0
0.261891 0.211002 0
0.287312 0.211017 0
0.312718 0.211032 0
0.338109 0.211063 0
0.363485 0.211078 0
0.38883 0.211109 0
0.414176 0.211139 0
0.439506 0.21117 0
0.46482 0.2112 0
0.49012 0.211246 0
0.515419 0.211276 0
0.540703 0.211322 0
0.565972 0.211353 0
0.591226 0.211398 0
0.61648 0.211444 0
0.641718 0.21149 0
0.666957 0.211536 0
0.69218 0.211582 0
0.717403 0.211627 0
0 0.23714 0
0 0.23711 0
0 0.237064 0
0 0.236973 0
0.00567636 0.236789 0
0.031693 0.236667 0
0.057496 0.236591 0
0.0832074 0.236545 0
0.108843 0.2365 0
0.134432 0.236484 0
0.159991 0.236469 0
0.185504 0.236454 0
0.211002 0.236454 0
0.236469 0.236469 0
0.261906 0.236469 0
0.287327 0.236484 0
0.312718 0.2365 0
0.338109 0.236515 0
0.36347 0.23653 0
0.38883 0.236561 0
0.41416 0.236591 0
0.43949 0.236622 0
0.464805 0.236637 0
0.490105 0.236683 0
0.515389 0.236713 0
0.540658 0.236744 0
0.565927 0.236774 0
0.591196 0.23682 0
0.616434 0.236866 0
0.641672 0.236896 0
0.666911 0.236942 0
0.692134 0.236988 0
0.717342 0.237034 0
0 0.262669 0
0 0.262623 0
0 0.262577 0
0 0.262486 0
0.00575265 0.262287 0
0.031754 0.262165 0
0.057557 0.262074 0
0.0832532 0.262028 0
0.108888 0.261982 0
0.134478 0.261952 0
0.160021 0.261936 0
0.185534 0.261921 0
0.211017 0.261921 0
0.236484 0.261921 0
0.261921 0.261921 0
0.287327 0.261921 0
0.312734 0.261936 0
0.338109 0.261952 0
0.36347 0.261967 0
0.388815 0.261982 0
0.41416 0.262013 0
0.439475 0.262043 0
0.46479 0.262058 0
0.490074 0.262089 0
0.515358 0.262119 0
0.540642 0.26215 0
0.565896 0.262181 0
0.59115 0.262226 0
0.616403 0.262257 0
0.641642 0.262287 0
0.666865 0.262333 0
0.692088 0.262379 0
0.717296 0.262409 0
0 0.288167 0
0 0.288121 0
0 0.28806 0
0 0.287968 0
0.00581369 0.28777 0
0.0318151 0.287633 0
0.0576028 0.287541 0
0.083299 0.28748 0
0.108934 0.287434 0
0.134524 0.287404 0
0.160067 0.287388 0
0.185565 0.287358 0
0.211048 0.287358 0
0.236515 0.287343 0
0.261936 0.287343 0
0.287358 0.287358 0
0.312749 0.287358 0
0.338125 0.287373 0
0.363485 0.287388 0
0.38883 0.287404 0
0.41416 0.287419 0
0.439475 0.287434 0
0.464775 0.287465 0
0.490074 0.28748 0
0.515343 0.28751 0
0.540627 0.287541 0
0.565881 0.287572 0
0.591134 0.287602 0
0.616373 0.287633 0
0.641611 0.287663 0
0.666835 0.287709 0
0.692042 0.287739 0
0.71725 0.287785 0
0 0.313634 0
0 0.313588 0
0 0.313512 0
0 0.31342 0
0.00587472 0.313222 0
0.0318761 0.313085 0
0.0576638 0.312993 0
0.08336 0.312917 0
0.10898 0.312871 0
0.134569 0.31284 0
0.160098 0.31281 0
0.185611 0.312779 0
0.211078 0.312764 0
0.23653 0.312764 0
0.261967 0.312764 0
0.287373 0.312764 0
0.312764 0.312764 0
0.33814 0.312764 0
0.363485 0.312779 0
0.38883 0.312795 0
0.41416 0.31281 0
0.439475 0.312825 0
0.464775 0.31284 0
0.490059 0.312871 0
0.515343 0.312886 0
0.540612 0.312917 0
0.565866 0.312947 0
0.591119 0.312963 0
0.616358 0.312993 0
0.641581 0.313024 0
0.666804 0.313069 0
0.692012 0.3131 0
0.71722 0.31313 0
0 0.339086 0
0 0.339025 0
0 0.338964 0
0 0.338857 0
0.00595102 0.338643 0
0.0319371 0.338506 0
0.0577249 0.338415 0
0.0834058 0.338338 0
0.109026 0.338293 0
0.1346 0.338247 0
0.160143 0.338216 0
0.185641 0.338186 0
0.211124 0.33817 0
0.236561 0.338155 0
0.261982 0.338155 0
0.287388 0.33814 0
0.312779 0.33814 0
0.338155 0.338155 0
0.3635 0.338155 0
0.388846 0.33817 0
0.41416 0.33817 0
0.439475 0.338186 0
0.464775 0.338201 0
0.490059 0.338231 0
0.515328 0.338247 0
0.540597 0.338277 0
0.56585 0.338293 0
0.591104 0.338323 0
0.616327 0.338354 0
0.641566 0.338369 0
0.666773 0.338399 0
0.691997 0.33843 0
0.717189 0.338476 0
0 0.364508 0
0 0.364446 0
0 0.36437 0
0 0.364263 0
0.00601205 0.364065 0
0.0319982 0.363912 0
0.0577707 0.363806 0
0.0834669 0.363745 0
0.109087 0.363684 0
0.134646 0.363638 0
0.160189 0.363592 0
0.185687 0.363577 0
0.211154 0.363546 0
0.236591 0.363531 0
0.262013 0.363516 0
0.287419 0.363516 0
0.312795 0.363516 0
0.33817 0.363516 0
0.363516 0.363516 0
0.388846 0.363516 0
0.414176 0.363531 0
0.439475 0.363546 0
0.464775 0.363561 0
0.490059 0.363577 0
0.515328 0.363592 0
0.540597 0.363607 0
0.56585 0.363638 0
0.591089 0.363653 0
0.616327 0.363684 0
0.64155 0.363714 0
0.666758 0.363729 0
0.691966 0.36376 0
0.717174 0.36379 0
0 0.389914 0
0 0.389853 0
0 0.389776 0
0 0.38967 0
0.00607309 0.389456 0
0.0320592 0.389303 0
0.0578317 0.389197 0
0.0835126 0.38912 0
0.109133 0.389059 0
0.134707 0.389013 0
0.160235 0.388968 0
0.185718 0.388937 0
0.211185 0.388922 0
0.236637 0.388891 0
0.262043 0.388876 0
0.287449 0.388876 0
0.312825 0.388861 0
0.338186 0.388861 0
0.363531 0.388861 0
0.388861 0.388861 0
0.414191 0.388876 0
0.43949 0.388876 0
0.46479 0.388891 0
0.490059 0.388907 0
0.515328 0.388922 0
0.540597 0.388937 0
0.56585 0.388952 0
0.591089 0.388983 0
0.616312 0.388998 0
0.641535 0.389029 0
0.666743 0.389044 0
0.691951 0.389075 0
0.717144 0.389105 0
0 0.415305 0
0 0.415244 0
0 0.415152 0
0 0.415045 0
0.00613413 0.414832 0
0.0321202 0.414664 0
0.0578927 0.414572 0
0.0835737 0.414481 0
0.109178 0.41442 0
0.134752 0.414374 0
0.160266 0.414328 0
0.185763 0.414298 0
0.211231 0.414267 0
0.236667 0.414237 0
0.262074 0.414221 0
0.28748 0.414206 0
0.312856 0.414206 0
0.338216 0.414191 0
0.363561 0.414191 0
0.388891 0.414191 0
0.414206 0.414206 0
0.439506 0.414206 0
0.46479 0.414221 0
0.490074 0.414221 0
0.515343 0.414237 0
0.540597 0.414252 0
0.56585 0.414267 0
0.591073 0.414282 0
0.616312 0.414313 0
0.641535 0.414328 0
0.666743 0.414359 0
0.691936 0.414374 0
0.717144 0.414405 0
0 0.440681 0
0 0.440604 0
0 0.440528 0
0 0.440406 0
0.00619516 0.440192 0
0.0321813 0.440024 0
0.0579538 0.439918 0
0.0836194 0.439841 0
0.109239 0.439765 0
0.134798 0.439719 0
0.160311 0.439673 0
0.185809 0.439628 0
0.211261 0.439597 0
0.236698 0.439582 0
0.262119 0.439551 0
0.28751 0.439536 0
0.312886 0.439521 0
0.338231 0.439521 0
0.363577 0.439521 0
0.388907 0.439521 0
0.414221 0.439521 0
0.439521 0.439521 0
0.464805 0.439521 0
0.490089 0.439536 0
0.515343 0.439536 0
0.540597 0.439551 0
0.56585 0.439567 0
0.591089 0.439582 0
0.616312 0.439597 0
0.64152 0.439628 0
0.666728 0.439643 0
0.691936 0.439658 0
0.717128 0.439689 0
0 0.466041 0
0 0.465965 0
0 0.465873 0
0 0.465751 0
0.00627146 0.465537 0
0.0322423 0.46537 0
0.0579995 0.465263 0
0.0836805 0.465171 0
0.109285 0.465095 0
0.134844 0.465049 0
0.160357 0.464988 0
0.185855 0.464958 0
0.211307 0.464927 0
0.236744 0.464897 0
0.26215 0.464866 0
0.287541 0.464851 0
0.312917 0.464836 0
0.338262 0.464836 0
0.363607 0.46482 0
0.388922 0.46482 0
0.414237 0.46482 0
0.439536 0.46482 0
0.46482 0.46482 0
0.490089 0.46482 0
0.515358 0.464836 0
0.540612 0.464851 0
0.56585 0.464851 0
0.591089 0.464866 0
0.616312 0.464881 0
0.64152 0.464897 0
0.666728 0.464927 0
0.691936 0.464942 0
0.717113 0.464958 0
0 0.491371 0
0 0.49131 0
0 0.491218 0
0 0.491081 0
0.00633249 0.490867 0
0.0323033 0.4907 0
0.0580606 0.490578 0
0.0837262 0.490501 0
0.109331 0.490425 0
0.13489 0.490364 0
0.160403 0.490303 0
0.185901 0.490272 0
0.211353 0.490227 0
0.236774 0.490196 0
0.262181 0.490181 0
0.287572 0.49015 0
0.312947 0.490135 0
0.338293 0.49012 0
0.363638 0.49012 0
0.388952 0.490105 0
0.414267 0.490105 0
0.439551 0.490105 0
0.464836 0.490105 0
0.490105 0.490105 0
0.515373 0.49012 0
0.540627 0.49012 0
0.565866 0.490135 0
0.591089 0.49015 0
0.616312 0.490166 0
0.64152 0.490166 0
0.666728 0.490196 0
0.691936 0.490211 0
0.717113 0.490227 0
0 0.516701 0
0 0.51664 0
0 0.516533 0
0 0.516411 0
0.00639353 0.516182 0
0.0323491 0.516014 0
0.0581216 0.515892 0
0.0837873 0.515801 0
0.109392 0.515724 0
0.134936 0.515663 0
0.160464 0.515618 0
0.185931 0.515572 0
0.211383 0.515526 0
0.23682 0.515496 0
0.262226 0.515465 0
0.287602 0.51545 0
0.312978 0.515419 0
0.338323 0.515404 0
0.363653 0.515404 0
0.388983 0.515389 0
0.414282 0.515389 0
0.439582 0.515389 0
0.464851 0.515373 0
0.49012 0.515389 0
0.515389 0.515389 0
0.540627 0.515389 0
0.565866 0.515404 0
0.591104 0.515404 0
0.616327 0.515419 0
0.641535 0.515435 0
0.666728 0.51545 0
0.691936 0.515465 0
0.717113 0.51548 0
0 0.542031 0
0 0.541939 0
0 0.541848 0
0 0.541711 0
0.00645457 0.541482 0
0.0324102 0.541314 0
0.0581826 0.541192 0
0.0838483 0.5411 0
0.109438 0.541024 0
0.134997 0.540963 0
0.16051 0.540902 0
0.185977 0.540856 0
0.211429 0.54081 0
0.236866 0.54078 0
0.262257 0.540749 0
0.287648 0.540719 0
0.313008 0.540703 0
0.338354 0.540688 0
0.363684 0.540673 0
0.388998 0.540658 0
0.414313 0.540658 0
0.439597 0.540642 0
0.464881 0.540642 0
0.49015 0.540642 0
0.515404 0.540642 0
0.540642 0.540642 0
0.565881 0.540658 0
0.591119 0.540658 0
0.616327 0.540673 0
0.641535 0.540688 0
0.666743 0.540688 0
0.691936 0.540703 0
0.717113 0.540719 0
0 0.56733 0
0 0.567254 0
0 0.567147 0
0 0.56701 0
0.0065156 0.566781 0
0.0324712 0.566598 0
0.0582284 0.566491 0
0.0838941 0.566384 0
0.109499 0.566308 0
0.135042 0.566232 0
0.160555 0.566186 0
0.186023 0.566125 0
0.211475 0.566094 0
0.236896 0.566049 0
0.262303 0.566018 0
0.287678 0.565988 0
0.313039 0.565972 0
0.338384 0.565942 0
0.363714 0.565927 0
0.389029 0.565927 0
0.414343 0.565911 0
0.439628 0.565896 0
0.464897 0.565896 0
0.490166 0.565896 0
0.515419 0.565896 0
0.540673 0.565896 0
0.565896 0.565896 0
0.591119 0.565911 0
0.616342 0.565911 0
0.64155 0.565927 0
0.666743 0.565927 0
0.691936 0.565942 0
0.717128 0.565957 0
0 0.592615 0
0 0.592538 0
0 0.592432 0
0 0.592294 0
0.00657664 0.592065 0
0.0325322 0.591882 0
0.0582895 0.59176 0
0.0839551 0.591669 0
0.109545 0.591577 0
