tracker_LUT/LUT/NIGHT_KING_141.Clip__45.cube
TITLE "Generated by Resolve"
LUT_3D_SIZE 9
0 0 0
0.00483711 0 0
0.108217 0 0
0.210697 0 0
0.312932 0 0
0.415259 0 0
0.517037 0 0
0.618494 0 0
0.719722 0 0
0 0.00460822 0
0.00482185 0.00482185 0
0.108736 0.00529488 0
0.211307 0.00564584 0
0.313344 0.0059968 0
0.41503 0.00634775 0
0.516472 0.00668345 0
0.617716 0.00701915 0
0.718791 0.00735485 0
0 0.108919 0
0.0053254 0.108782 0
0.108659 0.108659 0
0.210941 0.108751 0
0.312795 0.108904 0
0.414328 0.109102 0
0.515648 0.109316 0
0.616785 0.109545 0
0.717769 0.109789 0
0 0.211582 0
0.00561532 0.211261 0
0.108797 0.211002 0
0.210971 0.210971 0
0.312718 0.211032 0
0.414176 0.211139 0
0.515419 0.211276 0
0.61648 0.211444 0
0.717403 0.211627 0
0 0.313634 0
0.00587472 0.313222 0
0.10898 0.312871 0
0.211078 0.312764 0
0.312764 0.312764 0
0.41416 0.31281 0
0.515343 0.312886 0
0.616358 0.312993 0
0.71722 0.31313 0
0 0.415305 0
0.00613413 0.414832 0
0.109178 0.41442 0
0.211231 0.414267 0
0.312856 0.414206 0
0.414206 0.414206 0
0.515343 0.414237 0
0.616312 0.414313 0
0.717144 0.414405 0
0 0.516701 0
0.00639353 0.516182 0
0.109392 0.515724 0
0.211383 0.515526 0
0.312978 0.515419 0
0.414282 0.515389 0
0.515389 0.515389 0
0.616327 0.515419 0
0.717113 0.51548 0
0 0.617899 0
0.00663767 0.617334 0
0.109606 0.616846 0
0.211566 0.616602 0
0.313115 0.616464 0
0.414389 0.616388 0
0.515465 0.616358 0
0.616373 0.616373 0
0.717128 0.616403 0
0 0.718914 0
0.00689708 0.718318 0
0.109819 0.7178 0
0.211749 0.717525 0
0.313268 0.717357 0
0.414527 0.71725 0
0.515557 0.717205 0
0.616449 0.717174 0
0.717189 0.717189 0
0 0 0.00497444
0.00477607 0 0.00477607
0.108171 0 0.0047303
0.210697 0 0.00505074
0.313054 0 0.00570687
0.41532 0 0.00663767
0.517021 0 0.00723278
0.618433 0 0.00775158
0.719646 0 0.00822461
0 0.00463874 0.00463874
0.005066 0.005066 0.005066
0.108766 0.00531014 0.00531014
0.211276 0.00563058 0.00563058
0.313283 0.00595102 0.00595102
0.414954 0.00627146 0.00627146
0.516381 0.0065919 0.0065919
0.617609 0.00691234 0.00691234
0.718669 0.00724804 0.00724804
0 0.108888 0.00543221
0.00526436 0.108721 0.00526436
0.108568 0.108568 0.00512703
0.210849 0.108644 0.00518807
0.312673 0.108797 0.00534066
0.414206 0.10898 0.00552377
0.515526 0.109178 0.00572213
0.616648 0.109407 0.00595102
0.717617 0.109651 0.00619516
0 0.211475 0.00582895
0.00549325 0.211154 0.00549325
0.108675 0.21088 0.00521859
0.210849 0.210849 0.00518807
0.312581 0.210895 0.00523384
0.414023 0.210986 0.00534066
0.515267 0.211124 0.00547799
0.616327 0.211276 0.00563058
0.717235 0.21146 0.00579843
0 0.313497 0.00614939
0.00573739 0.313069 0.00573739
0.108827 0.312718 0.00538643
0.210925 0.312612 0.00527962
0.312596 0.312596 0.00526436
0.413993 0.312642 0.00529488
0.51516 0.312718 0.00537118
0.616175 0.312825 0.00547799
0.717037 0.312947 0.00561532
0 0.415137 0.00645457
0.00596628 0.414664 0.00596628
0.10901 0.414252 0.00555428
0.211048 0.414084 0.00540169
0.312673 0.414023 0.00534066
0.414023 0.414023 0.0053254
0.515145 0.414054 0.00535592
0.616114 0.414115 0.00543221
0.716945 0.414206 0.00550851
0 0.516533 0.00674449
0.00621042 0.515999 0.00621042
0.109209 0.515541 0.00575265
0.2112 0.515343 0.00555428
0.312779 0.515236 0.00544747
0.414084 0.51519 0.00540169
0.51519 0.51519 0.00540169
0.616114 0.515221 0.00543221
0.716915 0.515267 0.00547799
0 0.617716 0.00701915
0.00645457 0.617136 0.00645457
0.109407 0.616648 0.00595102
0.211368 0.616403 0.00570687
0.312917 0.616266 0.00556954
0.414191 0.61619 0.00549325
0.515251 0.616159 0.00546273
0.616159 0.616159 0.00546273
0.716915 0.61619 0.00549325
0 0.718715 0.00729381
0.00668345 0.718105 0.00668345
0.109606 0.717586 0.00616464
0.211536 0.717311 0.00588998
0.313054 0.717144 0.00572213
0.414298 0.717037 0.00561532
0.515343 0.716976 0.00555428
0.61622 0.71696 0.00552377
0.71696 0.71696 0.00553903
0 0 0.108385
0.00474556 0 0.108202
0.108186 0 0.108186
0.210758 0 0.108553
0.313313 0 0.109422
0.415381 0 0.11014
0.517021 0 0.110689
0.618418 0 0.111177
0.7196 0 0.11162
0 0.0047303 0.108186
0.00518807 0.00518807 0.108644
0.108797 0.00534066 0.108797
0.211276 0.00561532 0.109071
0.313252 0.00590524 0.109361
0.414908 0.00621042 0.109667
0.51632 0.0065156 0.109972
0.617517 0.00683604 0.110292
0.718578 0.00714122 0.110597
0 0.108858 0.108858
0.00521859 0.108675 0.108675
0.108507 0.108507 0.108507
0.210773 0.108568 0.108568
0.312596 0.108705 0.108705
0.414115 0.108873 0.108873
0.515419 0.109071 0.109071
0.616526 0.1093 0.1093
0.717494 0.109529 0.109529
0 0.211398 0.109194
0.00540169 0.211063 0.108858
0.108583 0.210773 0.108583
0.210727 0.210727 0.108537
0.312459 0.210773 0.108568
0.413901 0.210864 0.108659
0.515129 0.211002 0.108797
0.61619 0.211154 0.108949
0.717098 0.211322 0.109117
0 0.31339 0.109499
0.00561532 0.312963 0.109071
0.108705 0.312596 0.108705
0.210788 0.31249 0.108598
0.312459 0.312459 0.108568
0.41384 0.31249 0.108614
0.515023 0.312566 0.108675
0.616022 0.312673 0.108782
0.716884 0.312795 0.108904
0 0.415015 0.109773
0.00582895 0.414527 0.109285
0.108873 0.414099 0.108873
0.21091 0.413947 0.108705
0.31252 0.41387 0.108629
0.413855 0.413855 0.108614
0.514992 0.413886 0.108644
0.615946 0.413947 0.108705
0.716777 0.414038 0.108797
0 0.516381 0.110048
0.00605783 0.515846 0.109514
0.109041 0.515389 0.109041
0.211032 0.515175 0.108843
0.312612 0.515068 0.108721
0.413916 0.515023 0.108675
0.515007 0.515007 0.108675
0.615946 0.515038 0.108705
0.716731 0.515099 0.108751
0 0.617548 0.110307
0.00628672 0.616968 0.109728
0.109239 0.61648 0.109239
0.211185 0.616236 0.108995
0.312734 0.616083 0.108843
0.414008 0.616007 0.108766
0.515068 0.615976 0.108736
0.615976 0.615976 0.108736
0.716731 0.615991 0.108751
0 0.718532 0.110567
0.00650034 0.717937 0.109957
0.109422 0.717403 0.109422
0.211353 0.717128 0.109163
0.312871 0.71696 0.10898
0.414115 0.716854 0.108873
0.51516 0.716793 0.108812
0.616022 0.716762 0.108782
0.716762 0.716762 0.108782
0 0 0.210636
0.00482185 0 0.210468
0.108293 0 0.210498
0.210941 0 0.210941
0.313542 0 0.211856
0.415503 0 0.212451
0.517098 0 0.21297
0.618463 0 0.213428
0.719631 0 0.21387
0 0.0049897 0.210636
0.00535592 0.00535592 0.211017
0.108904 0.00544747 0.211109
0.211337 0.00569161 0.211337
0.313298 0.00595102 0.211612
0.414939 0.00624094 0.211902
0.516335 0.00653086 0.212192
0.617533 0.00683604 0.212497
0.718563 0.00714122 0.212802
0 0.108919 0.211124
0.00526436 0.108721 0.21091
0.108537 0.108537 0.210742
0.210788 0.108583 0.210788
0.312596 0.108705 0.21091
0.414099 0.108873 0.211063
0.515404 0.109056 0.211261
0.61651 0.10927 0.211475
0.717464 0.109499 0.211688
0 0.211414 0.211414
0.00540169 0.211063 0.211063
0.108568 0.210773 0.210773
0.210712 0.210712 0.210712
0.312428 0.210742 0.210742
0.41387 0.210834 0.210834
0.515099 0.210956 0.210956
0.616144 0.211093 0.211093
0.717037 0.211261 0.211261
0 0.313359 0.211673
0.0055848 0.312932 0.211246
0.108675 0.312566 0.21088
0.210758 0.312444 0.210758
0.312413 0.312413 0.210727
0.413794 0.312444 0.210758
0.514961 0.312505 0.210819
0.615961 0.312612 0.210925
0.716808 0.312734 0.211048
0 0.414969 0.211933
0.00578317 0.414481 0.211444
0.108812 0.414054 0.211017
0.210849 0.413886 0.210849
0.312459 0.413809 0.210773
0.413794 0.413794 0.210758
0.514916 0.413825 0.210788
0.615885 0.41387 0.210834
0.716701 0.413962 0.210925
0 0.51632 0.212177
0.0059968 0.515785 0.211643
0.10898 0.515312 0.211185
0.210971 0.515099 0.210971
0.312535 0.514992 0.210849
0.41384 0.514931 0.210803
0.514931 0.514931 0.210788
0.615854 0.514961 0.210819
0.71664 0.515007 0.210864
0 0.617472 0.212436
0.00619516 0.616892 0.211856
0.109148 0.616388 0.211353
0.211109 0.616144 0.211109
0.312642 0.616007 0.210956
0.413916 0.615915 0.21088
0.514977 0.615885 0.210834
0.615869 0.615869 0.210834
0.716625 0.6159 0.210864
0 0.718456 0.21268
0.00642405 0.717845 0.21207
0.109331 0.717311 0.211536
0.211261 0.717037 0.211261
0.312779 0.716869 0.211093
0.414008 0.716747 0.210971
0.515053 0.716686 0.21091
0.615915 0.716655 0.21088
0.716655 0.716655 0.21088
0 0 0.312413
0.00494392 0 0.312276
0.108446 0 0.312337
0.211215 0 0.312901
0.313741 0 0.313741
0.415641 0 0.31429
0.51722 0 0.314763
0.618555 0 0.315206
0.719707 0 0.315618
0 0.00537118 0.312718
0.00553903 0.00553903 0.312871
0.109026 0.00556954 0.312917
0.211444 0.00578317 0.31313
0.313375 0.00604257 0.313375
0.415 0.00630198 0.313649
0.516381 0.0065919 0.313924
0.617563 0.00688182 0.314214
0.718593 0.00717174 0.314504
0 0.10901 0.312901
0.00534066 0.108782 0.312673
0.108598 0.108598 0.31249
0.210834 0.108629 0.31252
0.312627 0.108736 0.312627
0.41413 0.108888 0.312779
0.515419 0.109071 0.312963
0.61651 0.10927 0.313161
0.717464 0.109499 0.31339
0 0.211444 0.31313
0.00543221 0.211093 0.312779
0.108583 0.210788 0.312474
0.210727 0.210727 0.312413
0.312444 0.210758 0.312444
0.41387 0.210834 0.31252
0.515084 0.210956 0.312642
0.616129 0.211093 0.312779
0.717021 0.211246 0.312932
0 0.313375 0.313375
0.0055848 0.312932 0.312932
0.108675 0.312551 0.312551
0.210742 0.312428 0.312428
0.312398 0.312398 0.312398
0.413779 0.312428 0.312428
0.514946 0.31249 0.31249
0.61593 0.312581 0.312581
0.716777 0.312703 0.312703
0 0.414954 0.313603
0.00576791 0.414466 0.313115
0.108797 0.414038 0.312688
0.210819 0.413855 0.312505
0.312428 0.413779 0.312428
0.413764 0.413764 0.312413
0.514885 0.413779 0.312428
0.615839 0.41384 0.31249
0.716655 0.413916 0.312566
0 0.516289 0.313848
0.00596628 0.515755 0.313298
0.108949 0.515282 0.312825
0.210925 0.515068 0.312612
0.312505 0.514946 0.312505
0.413794 0.5149 0.312444
0.514885 0.514885 0.312428
0.615808 0.5149 0.312459
0.716594 0.514946 0.312505
0 0.617426 0.314076
0.00616464 0.616846 0.313497
0.109102 0.616342 0.312993
0.211063 0.616098 0.312749
0.312596 0.615946 0.312596
0.413855 0.615854 0.312505
0.514916 0.615824 0.312474
0.615808 0.615808 0.312459
0.716564 0.615839 0.31249
0 0.71841 0.314321
0.00636301 0.717784 0.31371
0.109285 0.71725 0.313176
0.2112 0.716976 0.312886
0.312718 0.716808 0.312718
0.413947 0.716686 0.312596
0.514992 0.716625 0.312535
0.615854 0.716594 0.312505
0.716579 0.716579 0.312505
0 0 0.413886
0.00509651 0 0.413794
0.108659 0 0.413901
0.211627 0 0.414664
0.313954 0 0.415305
0.415793 0 0.415793
0.517342 0 0.416236
0.618662 0 0.416648
0.719799 0 0.41706
0 0.00564584 0.414343
0.00572213 0.00572213 0.414405
0.109163 0.00572213 0.414405
0.211551 0.00590524 0.414588
0.313466 0.00613413 0.414816
0.415076 0.00639353 0.415076
0.516442 0.00665293 0.415351
0.617624 0.0069276 0.415625
0.718654 0.00721752 0.415915
0 0.109133 0.414359
0.00543221 0.108873 0.414115
0.108675 0.108675 0.413916
0.210895 0.10869 0.413931
0.312688 0.108797 0.414038
0.414176 0.108934 0.414176
0.51545 0.109117 0.414359
0.616556 0.109316 0.414542
0.717494 0.109514 0.414755
0 0.211505 0.414542
0.00549325 0.211139 0.414176
0.108629 0.210834 0.41387
0.210758 0.210758 0.413794
0.312474 0.210788 0.413825
0.413901 0.210864 0.413901
0.515099 0.210971 0.414008
0.616144 0.211109 0.414145
0.717037 0.211261 0.414298
0 0.313405 0.414755
0.00561532 0.312963 0.414313
0.10869 0.312581 0.413931
0.210758 0.312444 0.413794
0.312413 0.312413 0.413764
0.413779 0.312428 0.413779
0.514946 0.31249 0.41384
0.61593 0.312581 0.413931
0.716777 0.312688 0.414038
0 0.414969 0.414969
0.00578317 0.414466 0.414466
0.108797 0.414038 0.414038
0.210819 0.413855 0.413855
0.312428 0.413779 0.413779
0.413748 0.413748 0.413748
0.51487 0.413764 0.413764
0.615824 0.413825 0.413825
0.716625 0.413901 0.413901
0 0.516289 0.415198
0.00595102 0.51574 0.414649
0.108934 0.515267 0.414176
0.21091 0.515053 0.413947
0.312474 0.514931 0.413825
0.413779 0.51487 0.413779
0.514855 0.514855 0.413764
0.615778 0.51487 0.413779
0.716564 0.514916 0.413825
0 0.617411 0.415412
0.00613413 0.616831 0.414832
0.109087 0.616327 0.414328
0.211032 0.616068 0.414069
0.312566 0.615915 0.413916
0.413825 0.615824 0.413825
0.514885 0.615793 0.413779
0.615778 0.615778 0.413779
0.716533 0.615793 0.413794
0 0.718379 0.415641
0.00633249 0.717769 0.41503
0.109255 0.71722 0.414481
0.21117 0.716945 0.414206
0.312673 0.716762 0.414023
0.413916 0.71664 0.413916
0.514946 0.716579 0.41384
0.615808 0.716548 0.413809
0.716533 0.716533 0.413794
0 0 0.515145
0.00529488 0 0.515084
0.108919 0 0.515267
0.211933 0 0.51606
0.314153 0 0.516594
0.415946 0 0.517052
0.517464 0 0.517464
0.618769 0 0.517876
0.71989 0 0.518257
0 0.00588998 0.515679
0.00590524 0.00590524 0.515694
0.109316 0.00587472 0.515663
0.211688 0.00602731 0.515816
0.313588 0.00624094 0.51603
0.415167 0.00648508 0.516274
0.516533 0.00674449 0.516533
0.6177 0.00700389 0.516793
0.718715 0.00727855 0.517082
0 0.109239 0.515587
0.00552377 0.10898 0.515328
0.108766 0.108766 0.515099
0.210971 0.108766 0.515114
0.312749 0.108858 0.515206
0.414237 0.108995 0.515343
0.515511 0.109163 0.515511
0.616602 0.109361 0.515694
0.71754 0.10956 0.515892
0 0.211582 0.515724
0.00555428 0.211215 0.515343
0.10869 0.210895 0.515023
0.210819 0.210819 0.514946
0.31252 0.210834 0.514961
0.413931 0.210895 0.515038
0.515145 0.211002 0.515145
0.616175 0.211124 0.515267
0.717052 0.211276 0.515419
0 0.313451 0.515908
0.0056611 0.313008 0.51545
0.108721 0.312612 0.515068
0.210788 0.312474 0.514931
0.312444 0.312444 0.514885
0.413794 0.312444 0.5149
0.514961 0.312505 0.514961
0.615946 0.312596 0.515038
0.716793 0.312703 0.515145
0 0.415 0.516106
0.00579843 0.414496 0.515587
0.108812 0.414054 0.51516
0.210834 0.41387 0.514977
0.312428 0.413779 0.514885
0.413764 0.413764 0.514855
0.51487 0.413779 0.51487
0.615824 0.413825 0.514916
0.716625 0.413886 0.514992
0 0.516304 0.516304
0.00596628 0.515755 0.515755
0.108934 0.515282 0.515282
0.21091 0.515053 0.515053
0.312474 0.514931 0.514931
0.413764 0.51487 0.51487
0.514855 0.514855 0.514855
0.615763 0.51487 0.51487
0.716548 0.514916 0.514916
0 0.617411 0.516518
0.00613413 0.616831 0.515923
0.109087 0.616312 0.515419
0.211032 0.616068 0.51516
0.312551 0.615915 0.515007
0.413809 0.615824 0.514916
0.51487 0.615763 0.51487
0.615763 0.615763 0.514855
0.716503 0.615778 0.51487
0 0.718364 0.516732
0.00631724 0.717754 0.516121
0.109239 0.717205 0.515572
0.211154 0.71693 0.515282
0.312657 0.716747 0.515114
0.413886 0.716625 0.514992
0.514916 0.716548 0.514916
0.615778 0.716518 0.514885
0.716503 0.716503 0.51487
0 0 0.61622
0.00550851 0 0.616205
0.10927 0 0.61651
0.212192 0 0.617227
0.314351 0 0.6177
0.416114 0 0.618112
0.517617 0 0.618509
0.618891 0 0.618891
0.719997 0 0.619272
0 0.00611887 0.616815
0.00608835 0.00608835 0.61677
0.109468 0.00602731 0.616709
0.21181 0.00616464 0.616861
0.313695 0.00636301 0.617044
0.415274 0.0065919 0.617273
0.516625 0.00683604 0.617533
0.617792 0.00709544 0.617792
0.718791 0.00735485 0.618051
0 0.109377 0.616617
0.00564584 0.109102 0.616342
0.108858 0.108858 0.616098
0.211063 0.108858 0.616098
0.31284 0.108949 0.61619
0.414313 0.109071 0.616312
0.515572 0.109239 0.61648
0.616663 0.109422 0.616663
0.717586 0.109621 0.616861
0 0.211673 0.616709
0.00563058 0.211292 0.616327
0.108766 0.210956 0.616007
0.21088 0.21088 0.615915
0.312566 0.21088 0.61593
0.413977 0.210941 0.615991
0.51519 0.211048 0.616083
0.616205 0.21117 0.616205
0.717083 0.211322 0.616358
0 0.313512 0.616861
0.00572213 0.313054 0.616403
0.108782 0.312657 0.616022
0.210834 0.31252 0.615869
0.312474 0.312474 0.615824
0.41384 0.31249 0.615839
0.514992 0.312535 0.615885
0.615961 0.312612 0.615961
0.716808 0.312718 0.616068
0 0.415045 0.617044
0.00584421 0.414527 0.616526
0.108858 0.414084 0.616083
0.210864 0.413901 0.6159
0.312459 0.413809 0.615808
0.413779 0.413779 0.615778
0.514885 0.413794 0.615793
0.615839 0.41384 0.615839
0.71664 0.413901 0.6159
0 0.516335 0.617227
0.00598154 0.515785 0.616678
0.108965 0.515297 0.61619
0.210925 0.515068 0.615976
0.31249 0.514946 0.615839
0.413779 0.514885 0.615778
0.514855 0.514855 0.615763
0.615778 0.51487 0.615778
0.716548 0.514916 0.615808
0 0.617426 0.617426
0.00614939 0.616846 0.616846
0.109087 0.616327 0.616327
0.211032 0.616068 0.616068
0.312566 0.615915 0.615915
0.413809 0.615824 0.615824
0.51487 0.615763 0.615763
0.615747 0.615747 0.615747
0.716503 0.615763 0.615763
0 0.718379 0.617639
0.00633249 0.717754 0.617014
0.109239 0.717205 0.616464
0.211154 0.716915 0.61619
0.312642 0.716731 0.616007
0.413886 0.716609 0.615885
0.5149 0.716548 0.615808
0.615763 0.716503 0.615763
0.716487 0.716487 0.615763
0 0 0.717159
0.00576791 0 0.717189
0.109728 0 0.717693
0.212436 0 0.718212
0.314549 0 0.718639
0.416281 0 0.71902
0.517754 0 0.719402
0.619028 0 0.719768
0.720119 0 0.720119
0 0.00634775 0.717784
0.00627146 0.00627146 0.717693
0.109636 0.0061799 0.717617
0.211963 0.00630198 0.717723
0.313832 0.00648508 0.717906
0.415396 0.00669871 0.718135
0.516732 0.00694286 0.718364
0.617884 0.007187 0.718608
0.718868 0.0074464 0.718868
0 0.109514 0.717479
0.00576791 0.109224 0.717189
0.10898 0.10898 0.716945
0.21117 0.108965 0.716945
0.312932 0.109041 0.717006
0.414389 0.109163 0.717128
0.515648 0.109316 0.717281
0.616724 0.109483 0.717464
0.717647 0.109682 0.717647
0 0.211765 0.71754
0.00572213 0.211368 0.717144
0.108843 0.211048 0.716808
0.210956 0.210956 0.716731
0.312642 0.210956 0.716731
0.414054 0.211002 0.716777
0.515236 0.211109 0.716869
0.616266 0.211215 0.716991
0.717144 0.211368 0.717144
0 0.313588 0.717678
0.00578317 0.313115 0.717205
0.108843 0.312718 0.716808
0.210895 0.312581 0.71667
0.31252 0.31252 0.716609
0.413886 0.312535 0.716625
0.515023 0.312581 0.71667
0.616007 0.312657 0.716747
0.716838 0.312749 0.716838
0 0.415091 0.71783
0.00588998 0.414572 0.717311
0.108888 0.41413 0.716869
0.21091 0.413947 0.71667
0.31249 0.41384 0.716579
0.413809 0.413809 0.716548
0.514916 0.413825 0.716548
0.615854 0.413855 0.716594
0.716655 0.413931 0.716655
0 0.516365 0.718013
0.00602731 0.515816 0.717449
0.108995 0.515328 0.71696
0.210956 0.515099 0.716731
0.31252 0.514961 0.716609
0.413794 0.5149 0.716533
0.51487 0.51487 0.716503
0.615778 0.514885 0.716518
0.716548 0.514916 0.716548
0 0.617456 0.718196
0.0061799 0.616861 0.717601
0.109102 0.616342 0.717083
0.211048 0.616083 0.716823
0.312566 0.61593 0.716655
0.413825 0.615824 0.716564
0.51487 0.615778 0.716503
0.615763 0.615763 0.716487
0.716503 0.615763 0.716503
0 0.718395 0.718395
0.00633249 0.717769 0.717769
0.109239 0.71722 0.71722
0.211154 0.71693 0.71693
0.312657 0.716747 0.716747
0.413886 0.716625 0.716625
0.5149 0.716533 0.716533
0.615763 0.716503 0.716503
0.716487 0.716487 0.716487
