tracker_LUT/LUT/Operation_Yellow.cube
TITLE "Generated by Resolve"
LUT_3D_SIZE 9
0 0.00062562 0
0.043946 0.0213779 0.0194247
0.111162 0.0367285 0.0339513
0.193683 0.0483253 0.043946
0.289693 0.0564279 0.0493629
0.398856 0.0611276 0.0500496
0.517891 0.0629129 0.0469368
0.646342 0.0625315 0.0411536
0.781659 0.0603037 0.033341
0.0499733 0.102892 0.0567788
0.132769 0.115389 0.0568246
0.238834 0.121279 0.0502937
0.348486 0.12668 0.0420996
0.460212 0.131594 0.0328527
0.574426 0.135515 0.0227665
0.691142 0.139086 0.0124666
0.809155 0.142138 0.00334173
0.928725 0.144625 0
0.0441291 0.228626 0.0588846
0.168505 0.230625 0.0404059
0.307591 0.228092 0.0201114
0.432319 0.22977 0.00440986
0.547097 0.234043 0
0.657191 0.239094 0
0.764645 0.245075 0
0.87013 0.251316 0
0.974838 0.257435 0
0.0204471 0.362554 0.0335851
0.179782 0.354543 0.0100557
0.341527 0.34548 0
0.474372 0.344396 0
0.588998 0.348135 0
0.694423 0.353872 0
0.794079 0.361257 0
0.891829 0.36907 0
0.990646 0.376226 0
0.0263828 0.486748 0.0191806
0.204654 0.472404 0.000366217
0.377081 0.459693 0
0.512001 0.457206 0
0.624994 0.460624 0
0.728603 0.466636 0
0.827497 0.474083 0
0.924834 0.481895 0
1 0.489174 0
0.0659342 0.598062 0.0332341
0.24831 0.582116 0.0190433
0.421378 0.568994 0.00723278
0.555978 0.566522 0.00350958
0.668467 0.569833 0.00430304
0.771847 0.575998 0.00746166
0.870253 0.583505 0.0119173
0.966796 0.591272 0.0168917
1 0.598795 0.021973
0.11693 0.704814 0.0582284
0.298436 0.68925 0.0446632
0.470893 0.676249 0.0333867
0.60499 0.673838 0.030457
0.716976 0.677226 0.0322271
0.819745 0.683452 0.0364843
0.917418 0.691066 0.0421302
1 0.698894 0.0482185
1 0.706645 0.05449
0.170504 0.810605 0.0863966
0.351034 0.795316 0.0738231
0.522622 0.782467 0.0635233
0.65565 0.77995 0.0615396
0.767193 0.783658 0.0646372
0.869184 0.790005 0.0699779
0.96611 0.797757 0.0765087
1 0.805722 0.0832685
1 0.813611 0.0899825
0.22472 0.915999 0.117235
0.403906 0.900984 0.105821
0.574151 0.888441 0.0965286
0.706127 0.886137 0.0953384
0.816831 0.890059 0.0990463
0.918105 0.896574 0.104768
1 0.904448 0.111513
1 0.912596 0.118425
1 0.920607 0.1252
0.00639353 0.00956741 0.0145571
0.0565194 0.0293736 0.0383307
0.128298 0.0429541 0.0565652
0.214832 0.0529335 0.0710918
0.314015 0.0595712 0.0817578
0.42472 0.0629129 0.088426
0.545251 0.0638895 0.0917983
0.673579 0.0629129 0.0922866
0.807446 0.0603647 0.0903639
0.054139 0.112276 0.0867323
0.141787 0.122713 0.0911879
0.252552 0.126894 0.0894789
0.364874 0.130968 0.0865644
0.477714 0.134981 0.0829328
0.591989 0.138308 0.0785992
0.707912 0.141497 0.0742351
0.824643 0.144427 0.0700847
0.942046 0.146792 0.0661784
0.044419 0.2374 0.106172
0.173266 0.237278 0.0920119
0.315953 0.2336 0.0759899
0.442115 0.234409 0.0646067
0.557153 0.238193 0.0569619
0.666819 0.242969 0.0517891
0.773327 0.248783 0.0490578
0.877607 0.25507 0.0484627
0.980652 0.261189 0.0495155
0.0211032 0.369635 0.0965744
0.183368 0.36025 0.0758831
0.347127 0.350545 0.0574807
0.480522 0.349035 0.0478676
0.594629 0.3523 0.0443732
0.699733 0.35819 0.0452125
0.798901 0.36553 0.0489815
0.896574 0.373281 0.053254
0.9953 0.380407 0.0571756
0.0294804 0.491859 0.0944076
0.209079 0.477012 0.0767834
0.382025 0.464057 0.0635233
0.516899 0.461524 0.059678
0.629664 0.464759 0.0604257
0.733349 0.470848 0.0634775
0.832151 0.478264 0.0677195
0.92932 0.485985 0.072343
1 0.493294 0.0768292
0.0706798 0.602106 0.113451
0.253101 0.586252 0.0990768
0.426154 0.573144 0.0870985
0.560678 0.570642 0.0835889
0.673136 0.573968 0.0848249
0.776425 0.580102 0.0884413
0.874739 0.587594 0.0933547
0.971084 0.595285 0.0986496
1 0.602884 0.104112
0.121645 0.708721 0.13991
0.303181 0.693248 0.126223
0.475593 0.680262 0.114824
0.60943 0.677714 0.11191
0.721523 0.681239 0.114061
0.824201 0.68748 0.118608
0.921691 0.695018 0.124453
1 0.702922 0.1308
1 0.710704 0.137209
0.175387 0.814435 0.169162
0.355856 0.799176 0.15642
0.527337 0.786374 0.145983
0.660258 0.783871 0.144015
0.771725 0.78761 0.147219
0.873625 0.793988 0.152651
0.970199 0.801541 0.159106
1 0.80972 0.166079
1 0.817639 0.172808
0.229786 0.919722 0.200595
0.40882 0.904784 0.188922
0.578912 0.892302 0.1794
0.710765 0.890043 0.178119
0.821378 0.89398 0.181796
0.922576 0.900542 0.187549
1 0.908217 0.194141
1 0.916579 0.201251
1 0.92462 0.208042
0.0148165 0.0187228 0.0342412
0.0688487 0.0368658 0.0623484
0.145357 0.0486305 0.0854658
0.235752 0.0568856 0.105577
0.337819 0.0620432 0.122377
0.450034 0.0642405 0.135317
0.57145 0.0643778 0.145006
0.699336 0.0629282 0.151522
0.831754 0.0601663 0.155093
0.0576638 0.12108 0.124407
0.15024 0.129412 0.134188
0.265476 0.131807 0.137987
0.380224 0.134569 0.140856
0.493767 0.137682 0.142901
0.608179 0.140551 0.143908
0.723293 0.143496 0.14435
0.838727 0.146395 0.144381
0.954482 0.148898 0.143938
0.0442206 0.245335 0.163394
0.1776 0.243397 0.153841
0.32343 0.238361 0.142168
0.450858 0.238361 0.135042
0.565667 0.241489 0.131151
0.675288 0.246265 0.129381
0.780911 0.252079 0.129412
0.883818 0.258366 0.130877
0.985702 0.264866 0.133608
0.0213321 0.375662 0.169299
0.186572 0.365301 0.151553
0.35198 0.354864 0.135622
0.485817 0.352987 0.128267
0.599725 0.35613 0.126665
0.704234 0.362051 0.128954
0.803281 0.36939 0.133165
0.900572 0.376883 0.137591
0.999557 0.384237 0.141955
0.0321355 0.496101 0.176349
0.213169 0.481041 0.160006
0.386465 0.467918 0.147387
0.521309 0.465385 0.143679
0.634028 0.46862 0.144671
0.737682 0.474678 0.147997
0.836423 0.482078 0.152514
0.933333 0.489662 0.15729
1 0.497108 0.162112
0.0749523 0.605753 0.19823
0.257511 0.590036 0.183856
0.430533 0.576944 0.171801
0.564736 0.574228 0.168246
0.677424 0.577752 0.169818
0.780667 0.583886 0.173648
0.878889 0.591394 0.178744
0.975128 0.5991 0.184222
1 0.606714 0.189837
0.126131 0.712398 0.225513
0.307622 0.696956 0.211734
0.479973 0.683986 0.200244
0.613642 0.681376 0.197314
0.72578 0.684993 0.199634
0.828367 0.691234 0.204288
0.925673 0.698741 0.210178
1 0.706737 0.216632
1 0.714534 0.223026
0.180011 0.818021 0.255299
0.360403 0.802792 0.24242
0.531716 0.78999 0.2318
0.664622 0.787579 0.229831
0.775982 0.791333 0.233021
0.877806 0.797726 0.238422
0.974258 0.80528 0.244816
1 0.813519 0.251774
1 0.821469 0.258473
0.234592 0.923217 0.286915
0.413489 0.908354 0.275013
0.583185 0.89575 0.26511
0.715175 0.893736 0.263844
0.825681 0.897719 0.267445
0.92668 0.904189 0.273045
1 0.911986 0.279683
1 0.920363 0.286748
1 0.928435 0.293507
0.0229343 0.0275731 0.0573892
0.080827 0.0438239 0.0899367
0.162356 0.0538338 0.11841
0.256519 0.0604105 0.144198
0.361227 0.0641642 0.166934
0.474922 0.0653391 0.185779
0.596735 0.0647898 0.20119
0.72398 0.0629892 0.213001
0.85478 0.0601358 0.221241
0.0608988 0.129488 0.166186
0.158419 0.135744 0.181079
0.278035 0.1364 0.190082
0.39501 0.137987 0.198184
0.508995 0.140246 0.205097
0.623606 0.142824 0.210727
0.737881 0.145617 0.215167
0.851881 0.148516 0.218555
0.966186 0.151232 0.220905
0.0441749 0.252796 0.223285
0.181964 0.249241 0.217868
0.330724 0.242939 0.209934
0.459312 0.242237 0.206332
0.574228 0.245014 0.205524
0.683406 0.249683 0.206378
0.788174 0.255528 0.208484
0.889876 0.261936 0.21146
0.990494 0.268788 0.215274
0.0221714 0.381552 0.242435
0.190066 0.37023 0.2271
0.356954 0.359152 0.213138
0.491005 0.356878 0.207416
0.604837 0.360082 0.207218
0.708919 0.366033 0.2103
0.807904 0.373373 0.21471
0.905165 0.380865 0.219318
1 0.388205 0.22385
0.0357061 0.500526 0.256657
0.217716 0.4851 0.241154
0.391165 0.471916 0.228748
0.525673 0.469123 0.224933
0.638682 0.472602 0.226246
0.742275 0.47866 0.22974
0.840757 0.485893 0.234287
0.937804 0.493645 0.239338
1 0.501106 0.244282
0.0797284 0.609644 0.280186
0.262226 0.593957 0.265751
0.435218 0.58088 0.253651
0.569375 0.578164 0.250141
0.682017 0.581704 0.25182
0.785199 0.587854 0.255756
0.883024 0.595117 0.260792
0.979492 0.603082 0.266529
1 0.610727 0.272206
0.130968 0.716243 0.307912
0.312383 0.700816 0.294057
0.484688 0.687892 0.282475
0.61828 0.685283 0.279561
0.730343 0.68893 0.281926
0.832853 0.695186 0.286625
0.929931 0.702602 0.292424
1 0.710735 0.298939
1 0.718563 0.305287
0.185 0.821775 0.337972
0.365301 0.806607 0.324971
0.536248 0.793652 0.314061
0.669306 0.791455 0.312154
0.780591 0.795254 0.315282
0.882292 0.801663 0.320607
0.978698 0.809262 0.32694
1 0.817533 0.333837
1 0.825498 0.340444
0.23978 0.92694 0.369558
0.418509 0.912139 0.357458
0.587961 0.89955 0.347295
0.719921 0.897627 0.345922
0.83035 0.901656 0.349432
0.931197 0.908095 0.354894
1 0.915969 0.361501
1 0.924376 0.368505
1 0.932387 0.375158
0.030808 0.0361028 0.0832532
0.0930343 0.0506142 0.120363
0.17937 0.0587167 0.153689
0.277226 0.0636606 0.184649
0.383764 0.066041 0.212329
0.499321 0.0664683 0.236454
0.621286 0.0654002 0.25658
0.747036 0.0632944 0.272419
0.877104 0.0605936 0.284566
0.0639506 0.137377 0.209155
0.166674 0.14197 0.22884
0.290455 0.140948 0.242145
0.409537 0.141466 0.25449
0.524239 0.14313 0.265339
0.638621 0.145403 0.274525
0.752071 0.148135 0.282017
0.864439 0.151019 0.2878
0.977569 0.154147 0.292302
0.0446784 0.259998 0.281605
0.18674 0.255085 0.27953
0.338262 0.247669 0.274464
0.467842 0.246357 0.273503
0.58294 0.24889 0.275044
0.691646 0.253513 0.27779
0.795575 0.259464 0.281361
0.896086 0.266056 0.285313
0.995789 0.273182 0.289708
0.0240177 0.387503 0.31107
0.194308 0.375357 0.29749
0.362493 0.363745 0.284947
0.496666 0.361151 0.280308
0.610407 0.364462 0.281056
0.714244 0.370459 0.284459
0.813092 0.377707 0.28893
0.910414 0.38529 0.293736
1 0.39263 0.29839
0.0403449 0.505211 0.330343
0.223102 0.489494 0.315297
0.396521 0.476295 0.302892
0.531029 0.473533 0.299138
0.643992 0.476997 0.300557
0.747555 0.48307 0.304158
0.845899 0.490257 0.308766
0.942962 0.49807 0.313954
1 0.505547 0.318975
0.0852522 0.613977 0.354726
0.267659 0.598321 0.340261
0.440406 0.585107 0.328008
0.574701 0.582559 0.324636
0.687297 0.586099 0.32639
0.790402 0.592264 0.330388
0.888151 0.599542 0.33547
0.984527 0.607538 0.341268
1 0.615213 0.346944
0.136538 0.720531 0.382742
0.317876 0.705119 0.368826
0.489784 0.691981 0.357
0.623621 0.689647 0.354253
0.735607 0.693309 0.356619
0.837781 0.699413 0.361166
0.935027 0.707042 0.367102
1 0.715206 0.373556
1 0.723049 0.379828
0.190753 0.826001 0.41294
0.370932 0.810864 0.399817
0.541756 0.797971 0.388785
0.674708 0.795819 0.386801
0.785885 0.799649 0.389853
0.887236 0.805875 0.394919
0.983856 0.813703 0.401343
1 0.822003 0.408148
1 0.829999 0.414664
0.245701 0.931105 0.444389
0.424231 0.916365 0.43212
0.59353 0.903868 0.421775
0.725368 0.902007 0.420279
0.835706 0.90605 0.423682
0.93637 0.912444 0.428992
1 0.920439 0.435599
1 0.928862 0.442527
1 0.936706 0.448981
0.0383154 0.0441901 0.111513
0.105196 0.057084 0.153429
0.196368 0.0632792 0.191272
0.297597 0.0666514 0.226795
0.406439 0.0679942 0.259113
0.52314 0.0676432 0.287541
0.64506 0.0661936 0.311528
0.769909 0.0639963 0.330694
0.898512 0.0614633 0.345754
0.0671855 0.145296 0.254078
0.174914 0.148013 0.277546
0.302724 0.145449 0.294362
0.423362 0.144869 0.309865
0.539101 0.146197 0.324071
0.653239 0.148272 0.336004
0.76582 0.151019 0.345815
0.876966 0.154086 0.353445
0.988556 0.157519 0.359396
0.0458534 0.267262 0.339071
0.191867 0.260929 0.339406
0.345968 0.252537 0.336492
0.476219 0.250538 0.337362
0.591684 0.253071 0.340749
0.699901 0.257694 0.344854
0.802625 0.263584 0.349218
0.902388 0.270665 0.353979
1 0.277928 0.358587
0.0267948 0.393515 0.376196
0.199161 0.380621 0.363867
0.36849 0.368582 0.352255
0.502876 0.36585 0.348363
0.616312 0.369192 0.349615
0.720088 0.375204 0.353124
0.818708 0.3823 0.35758
0.916182 0.390036 0.362585
1 0.397391 0.367315
0.0458534 0.510063 0.39884
0.229053 0.494209 0.383978
0.40235 0.480964 0.371511
0.536889 0.478264 0.367834
0.649836 0.481743 0.369314
0.753338 0.487816 0.372976
0.851606 0.494987 0.377646
0.948623 0.502831 0.38291
1 0.510338 0.387976
0.09131 0.618631 0.423651
0.273625 0.603006 0.409171
0.446174 0.589715 0.396811
0.58056 0.587274 0.39353
0.693095 0.590845 0.395315
0.795972 0.596887 0.399268
0.893797 0.604318 0.404471
0.990082 0.612329 0.410269
1 0.620005 0.4159
0.142672 0.725139 0.45185
0.323857 0.709728 0.437842
0.495735 0.696666 0.426001
0.629496 0.694347 0.423224
0.741405 0.698039 0.425589
0.843427 0.704128 0.43006
0.940642 0.711833 0.435996
1 0.720027 0.44239
1 0.727749 0.448447
0.19707 0.830549 0.482094
0.376867 0.81529 0.468742
0.547799 0.802625 0.45774
0.680629 0.800504 0.45565
0.79173 0.804395 0.458625
0.892989 0.810636 0.4636
0.989532 0.818509 0.469947
1 0.826841 0.476661
1 0.834607 0.482902
0.252171 0.935637 0.513375
0.430182 0.920745 0.500755
0.599619 0.908537 0.490455
0.731334 0.906722 0.488823
0.841291 0.910582 0.491951
0.942184 0.917235 0.497368
1 0.925246 0.503899
1 0.933684 0.510765
1 0.941558 0.517143
0.045716 0.052079 0.143023
0.117296 0.0632181 0.189563
0.213321 0.0675212 0.231785
0.317845 0.069398 0.271565
0.428779 0.0697948 0.308034
0.546288 0.0688182 0.340154
0.667826 0.0670939 0.367269
0.791852 0.0649424 0.389242
0.918868 0.0626535 0.406577
0.0704051 0.152941 0.301442
0.183062 0.153857 0.328145
0.314748 0.149844 0.34789
0.437171 0.148425 0.36614
0.553475 0.149355 0.38291
0.667292 0.151308 0.396994
0.778637 0.154009 0.408392
0.888899 0.157427 0.417578
0.998978 0.161212 0.424536
0.0474403 0.274327 0.396948
0.197177 0.266697 0.399176
0.353521 0.257313 0.397757
0.484825 0.255009 0.400229
0.600275 0.25742 0.404852
0.707973 0.262104 0.409888
0.809842 0.268193 0.414862
0.908537 0.275547 0.419928
1 0.282826 0.424628
0.0303197 0.399405 0.439902
0.204395 0.385931 0.428443
0.374395 0.373297 0.417243
0.509239 0.370703 0.413962
0.622446 0.374105 0.415396
0.726192 0.380118 0.418982
0.824765 0.387213 0.423514
0.922194 0.394949 0.42858
1 0.402335 0.433371
0.0519722 0.514977 0.464683
0.235279 0.499092 0.449836
0.408301 0.485695 0.437217
0.543023 0.483162 0.433707
0.655924 0.486656 0.435233
0.759075 0.492485 0.438773
0.857588 0.499916 0.443671
0.954528 0.50779 0.448981
1 0.515312 0.454063
0.097673 0.623438 0.489693
0.279866 0.607858 0.475196
0.452354 0.594598 0.462806
0.586679 0.592172 0.459525
0.699153 0.595743 0.461326
0.801801 0.601694 0.465187
0.899702 0.609277 0.470497
0.99588 0.617319 0.476295
1 0.624964 0.481849
0.149096 0.729915 0.518013
0.330098 0.714488 0.503914
0.501961 0.701518 0.492058
0.635645 0.699229 0.489235
0.747448 0.702937 0.491554
0.849393 0.709056 0.495995
0.946532 0.716808 0.501869
1 0.725032 0.508186
1 0.732692 0.514107
0.203677 0.835279 0.548226
0.383246 0.82002 0.534737
0.554116 0.807462 0.523674
0.686839 0.805402 0.521492
0.797635 0.809155 0.524239
0.899016 0.815595 0.529259
0.995499 0.823499 0.535515
1 0.831785 0.542092
1 0.839643 0.548318
0.258808 0.940276 0.579217
0.436728 0.925536 0.566537
0.605997 0.91339 0.556085
0.737575 0.91162 0.554345
0.847425 0.915511 0.557366
0.948272 0.922194 0.562707
1 0.930236 0.569177
1 0.938506 0.57583
1 0.946593 0.582315
0.0529793 0.0597238 0.178241
0.129274 0.0690013 0.229343
0.230121 0.0714427 0.275853
0.337652 0.0718853 0.319524
0.450538 0.0714427 0.359869
0.568627 0.0699779 0.395239
0.68925 0.0680095 0.424811
0.812711 0.066041 0.449317
0.938109 0.0640421 0.468482
0.07364 0.16025 0.351797
0.191028 0.159457 0.381506
0.326345 0.15407 0.403677
0.450538 0.151934 0.424308
0.567239 0.152544 0.443137
0.680674 0.154437 0.45893
0.791028 0.157214 0.471611
0.900145 0.160952 0.481849
1 0.165118 0.489479
0.0493324 0.281102 0.456489
0.202533 0.272297 0.460166
0.361013 0.262089 0.459907
0.493172 0.259495 0.463523
0.608576 0.261845 0.469032
0.715602 0.266545 0.474601
0.816739 0.272923 0.479942
0.914702 0.280507 0.485084
1 0.287785 0.489845
0.0341955 0.405158 0.503868
0.209827 0.391165 0.492958
0.380667 0.378241 0.482033
0.515557 0.375631 0.478904
0.628656 0.379065 0.4804
0.732082 0.384863 0.483879
0.8309 0.392172 0.488624
0.928267 0.399924 0.493751
1 0.407187 0.498482
0.0584115 0.519844 0.529732
0.241398 0.503868 0.514778
0.414557 0.490623 0.502266
0.549249 0.488106 0.498772
0.662089 0.4916 0.500328
0.765194 0.497444 0.503899
0.863645 0.504906 0.508827
0.96051 0.512779 0.514153
1 0.520104 0.519066
0.104112 0.628305 0.554894
0.285878 0.612512 0.540185
0.458625 0.599512 0.527947
0.592889 0.597101 0.524651
0.705303 0.600702 0.526467
0.807874 0.606683 0.530327
0.905684 0.614282 0.535622
1 0.622354 0.541375
1 0.629892 0.546761
0.155642 0.734737 0.583276
0.336339 0.719219 0.569024
0.508293 0.706432 0.557183
0.641886 0.704173 0.55433
0.753307 0.707683 0.556405
0.855451 0.714061 0.560967
0.952514 0.721843 0.566766
1 0.730083 0.573007
1 0.737789 0.578836
0.210407 0.840055 0.613397
0.389822 0.824857 0.599802
0.56054 0.81236 0.588632
0.693126 0.81033 0.586343
0.803708 0.814054 0.588937
0.905119 0.8206 0.593927
1 0.828534 0.600092
1 0.836789 0.606546
1 0.844724 0.612741
0.265568 0.944991 0.644083
0.443351 0.930388 0.631312
0.612451 0.918303 0.620737
0.743847 0.916533 0.618845
0.853681 0.920501 0.621805
0.954452 0.927214 0.627085
1 0.935286 0.633478
1 0.943542 0.640024
1 0.95169 0.646494
0.060029 0.0670329 0.217563
0.141085 0.074403 0.273365
0.246265 0.074876 0.323613
0.357137 0.0742046 0.371572
0.471626 0.0729381 0.415442
0.590082 0.0710613 0.453712
0.710155 0.0690013 0.485649
0.832395 0.067216 0.512047
0.95613 0.065568 0.532662
0.0767987 0.167193 0.406119
0.198734 0.164782 0.438483
0.337224 0.157961 0.46247
0.46331 0.155337 0.485405
0.580301 0.155688 0.505928
0.693294 0.157565 0.523079
0.802731 0.160525 0.536767
0.910613 0.164569 0.547677
1 0.169146 0.555657
0.0514382 0.287556 0.518761
0.207828 0.277699 0.523583
0.368246 0.266712 0.524132
0.501167 0.26392 0.528618
0.616434 0.266239 0.534691
0.722683 0.270924 0.540413
0.823163 0.277714 0.545922
0.92079 0.285389 0.55108
1 0.292638 0.555856
0.0382086 0.410712 0.569467
0.215228 0.396185 0.55877
0.386847 0.383124 0.547936
0.521721 0.380514 0.544717
0.634791 0.383948 0.546258
0.73814 0.389731 0.549752
0.836957 0.397086 0.554574
0.934279 0.404852 0.559747
1 0.41207 0.564446
0.0647898 0.524666 0.595621
0.247562 0.508675 0.580636
0.420737 0.495506 0.568154
0.555383 0.493004 0.56466
0.66804 0.496391 0.566155
0.771237 0.502358 0.569833
0.869627 0.509834 0.574777
0.9664 0.517739 0.580102
1 0.525093 0.584985
0.110491 0.633112 0.620905
0.292134 0.61735 0.60618
0.46482 0.604379 0.593881
0.599023 0.601984 0.59057
0.711055 0.605371 0.592172
0.81387 0.611612 0.596201
0.911589 0.619242 0.60145
1 0.627192 0.607034
1 0.634928 0.612482
0.161898 0.739345 0.649165
0.342718 0.724041 0.634974
0.514549 0.711269 0.623056
0.648051 0.709056 0.620127
0.75938 0.712596 0.622141
0.861448 0.71902 0.626627
0.958434 0.726833 0.632334
1 0.734859 0.6383
1 0.742824 0.644221
0.216754 0.844556 0.679072
0.396338 0.829648 0.665553
0.566888 0.817197 0.654246
0.699367 0.815229 0.651865
0.809857 0.818982 0.654353
0.911192 0.825574 0.659251
1 0.833539 0.665339
1 0.841688 0.671611
1 0.849775 0.677821
0.27219 0.94963 0.70956
0.449928 0.935195 0.696727
0.618845 0.923186 0.68603
0.749874 0.921263 0.683879
0.859861 0.92546 0.686915
0.960571 0.932204 0.692103
1 0.940276 0.698421
1 0.948562 0.704921
1 0.956252 0.710918
