tracker_LUT/LUT/Operation_Yellow.cube
TITLE "Generated by Resolve"
LUT_3D_SIZE 5
0 0.00062562 0
0.111162 0.0367285 0.0339513
0.289693 0.0564279 0.0493629
0.517891 0.0629129 0.0469368
0.781659 0.0603037 0.033341
0.0441291 0.228626 0.0588846
0.307591 0.228092 0.0201114
0.547097 0.234043 0
0.764645 0.245075 0
0.974838 0.257435 0
0.0263828 0.486748 0.0191806
0.377081 0.459693 0
0.624994 0.460624 0
0.827497 0.474083 0
1 0.489174 0
0.11693 0.704814 0.0582284
0.470893 0.676249 0.0333867
0.716976 0.677226 0.0322271
0.917418 0.691066 0.0421302
1 0.706645 0.05449
0.22472 0.915999 0.117235
0.574151 0.888441 0.0965286
0.816831 0.890059 0.0990463
1 0.904448 0.111513
1 0.920607 0.1252
0.0148165 0.0187228 0.0342412
0.145357 0.0486305 0.0854658
0.337819 0.0620432 0.122377
0.57145 0.0643778 0.145006
0.831754 0.0601663 0.155093
0.0442206 0.245335 0.163394
0.32343 0.238361 0.142168
0.565667 0.241489 0.131151
0.780911 0.252079 0.129412
0.985702 0.264866 0.133608
0.0321355 0.496101 0.176349
0.386465 0.467918 0.147387
0.634028 0.46862 0.144671
0.836423 0.482078 0.152514
1 0.497108 0.162112
0.126131 0.712398 0.225513
0.479973 0.683986 0.200244
0.72578 0.684993 0.199634
0.925673 0.698741 0.210178
1 0.714534 0.223026
0.234592 0.923217 0.286915
0.583185 0.89575 0.26511
0.825681 0.897719 0.267445
1 0.911986 0.279683
1 0.928435 0.293507
0.030808 0.0361028 0.0832532
0.17937 0.0587167 0.153689
0.383764 0.066041 0.212329
0.621286 0.0654002 0.25658
0.877104 0.0605936 0.284566
0.0446784 0.259998 0.281605
0.338262 0.247669 0.274464
0.58294 0.24889 0.275044
0.795575 0.259464 0.281361
0.995789 0.273182 0.289708
0.0403449 0.505211 0.330343
0.396521 0.476295 0.302892
0.643992 0.476997 0.300557
0.845899 0.490257 0.308766
1 0.505547 0.318975
0.136538 0.720531 0.382742
0.489784 0.691981 0.357
0.735607 0.693309 0.356619
0.935027 0.707042 0.367102
1 0.723049 0.379828
0.245701 0.931105 0.444389
0.59353 0.903868 0.421775
0.835706 0.90605 0.423682
1 0.920439 0.435599
1 0.936706 0.448981
0.045716 0.052079 0.143023
0.213321 0.0675212 0.231785
0.428779 0.0697948 0.308034
0.667826 0.0670939 0.367269
0.918868 0.0626535 0.406577
0.0474403 0.274327 0.396948
0.353521 0.257313 0.397757
0.600275 0.25742 0.404852
0.809842 0.268193 0.414862
1 0.282826 0.424628
0.0519722 0.514977 0.464683
0.408301 0.485695 0.437217
0.655924 0.486656 0.435233
0.857588 0.499916 0.443671
1 0.515312 0.454063
0.149096 0.729915 0.518013
0.501961 0.701518 0.492058
0.747448 0.702937 0.491554
0.946532 0.716808 0.501869
1 0.732692 0.514107
0.258808 0.940276 0.579217
0.605997 0.91339 0.556085
0.847425 0.915511 0.557366
1 0.930236 0.569177
1 0.946593 0.582315
0.060029 0.0670329 0.217563
0.246265 0.074876 0.323613
0.471626 0.0729381 0.415442
0.710155 0.0690013 0.485649
0.95613 0.065568 0.532662
0.0514382 0.287556 0.518761
0.368246 0.266712 0.524132
0.616434 0.266239 0.534691
0.823163 0.277714 0.545922
1 0.292638 0.555856
0.0647898 0.524666 0.595621
0.420737 0.495506 0.568154
0.66804 0.496391 0.566155
0.869627 0.509834 0.574777
1 0.525093 0.584985
0.161898 0.739345 0.649165
0.514549 0.711269 0.623056
0.75938 0.712596 0.622141
0.958434 0.726833 0.632334
1 0.742824 0.644221
0.27219 0.94963 0.70956
0.618845 0.923186 0.68603
0.859861 0.92546 0.686915
1 0.940276 0.698421
1 0.956252 0.710918
