tracker_LUT/LUT/Operation_Yellow.cube
TITLE "Generated by Resolve"
LUT_3D_SIZE 33
0 0.00062562 0
0.0071107 0.00590524 0.00456245
0.0178683 0.011368 0.00981155
0.0303349 0.0166934 0.0149233
0.043946 0.0213779 0.0194247
0.0589456 0.0256809 0.0235599
0.075227 0.0296635 0.0273442
0.092668 0.0333257 0.0307927
0.111162 0.0367285 0.0339513
0.130999 0.0400549 0.0369573
0.151156 0.0429999 0.0395361
0.172015 0.0457618 0.041886
0.193683 0.0483253 0.043946
0.216236 0.05066 0.045716
0.239796 0.0527962 0.0472267
0.264576 0.0547799 0.0484779
0.289693 0.0564279 0.0493629
0.315633 0.0578775 0.0499733
0.342367 0.0591135 0.0502937
0.369833 0.0601511 0.0503243
0.398856 0.0611276 0.0500496
0.427787 0.0617838 0.0495308
0.457328 0.0622873 0.0488289
0.487251 0.0626993 0.0479896
0.517891 0.0629129 0.0469368
0.549401 0.063035 0.0457313
0.581552 0.063035 0.044358
0.613718 0.0628519 0.0428321
0.646342 0.0625315 0.0411536
0.679423 0.062089 0.039353
0.712886 0.0615549 0.0374304
0.74725 0.0609598 0.0354162
0.781659 0.0603037 0.033341
0.0157778 0.023743 0.0180667
0.0269627 0.0291447 0.0226902
0.0399634 0.0343633 0.0271153
0.0542916 0.0389105 0.0308995
0.0702525 0.0430152 0.0342565
0.0877089 0.0467231 0.0371862
0.106447 0.0500801 0.0397498
0.126772 0.0533455 0.0420996
0.147616 0.0561532 0.0439918
0.169238 0.0587625 0.0456092
0.191485 0.0612192 0.0469978
0.214221 0.0635386 0.0481422
0.237675 0.0656901 0.0490425
0.262516 0.0677958 0.0497444
0.287465 0.0695506 0.0500954
0.313176 0.0711223 0.0501717
0.339574 0.0724956 0.0500038
0.366644 0.0737163 0.0495766
0.394476 0.0747692 0.0489204
0.423423 0.0757763 0.0480201
0.45211 0.0765698 0.046891
0.481483 0.0771954 0.0455634
0.511269 0.0776989 0.0441291
0.541497 0.0780804 0.0425727
0.572412 0.0784009 0.0408942
0.603952 0.078645 0.0391241
0.63534 0.0787213 0.037232
0.667079 0.078706 0.0352636
0.699168 0.078584 0.0332036
0.731594 0.0783703 0.0310826
0.764706 0.0781567 0.0289006
0.798062 0.0778515 0.0266575
0.831159 0.0774548 0.0244144
0.0310216 0.0487678 0.0345006
0.0441901 0.0537881 0.0380255
0.0590829 0.0582437 0.0410315
0.0757458 0.0622263 0.0435645
0.0941787 0.0657206 0.045594
0.114183 0.0688029 0.0471962
0.135836 0.0717479 0.0485084
0.158221 0.0742351 0.0493935
0.181369 0.0764782 0.0499733
0.205112 0.0785992 0.050309
0.229267 0.0805982 0.0504463
0.253712 0.082536 0.0504158
0.279286 0.0845197 0.0502327
0.304906 0.0861677 0.0497444
0.331075 0.0876631 0.0490425
0.357855 0.0890059 0.048127
0.385168 0.0902113 0.0469978
0.412833 0.0913558 0.0457771
0.441688 0.0924544 0.0443275
0.470359 0.0933242 0.0426795
0.499458 0.0940719 0.0407874
0.528923 0.094728 0.038819
0.558663 0.0953078 0.0368048
0.589426 0.0959335 0.0347448
0.619745 0.0963607 0.0326238
0.650324 0.0966964 0.0304723
0.681147 0.0969711 0.0282597
0.7122 0.0971847 0.0260319
0.743709 0.0973526 0.0237736
0.775814 0.0975204 0.0215
0.807553 0.0975204 0.0192264
0.839536 0.0974594 0.0169223
0.87155 0.0973983 0.0146639
0.0425422 0.0750896 0.0475166
0.0577401 0.07953 0.0496986
0.0749371 0.0834516 0.0513619
0.0940566 0.0868391 0.0525063
0.115084 0.0897078 0.0531319
0.138064 0.0923934 0.0534218
0.161913 0.0945144 0.0532235
0.186648 0.0964065 0.0527352
0.212009 0.0981308 0.0520027
0.237736 0.0997787 0.0510872
0.264057 0.101549 0.0500954
0.290089 0.103182 0.0489662
0.316365 0.104723 0.0476692
0.342931 0.106172 0.0462959
0.36997 0.1075 0.0447089
0.397421 0.108721 0.0429847
0.425864 0.110018 0.0411383
0.454032 0.111055 0.0391699
0.482506 0.112016 0.0370794
0.511254 0.112917 0.0348669
0.540307 0.113725 0.0325322
0.569589 0.114488 0.0300755
0.599695 0.115343 0.0276799
0.629297 0.115999 0.0252995
0.659083 0.116594 0.0229343
0.689021 0.117159 0.0205692
0.719127 0.117662 0.0182345
0.749477 0.118151 0.0159304
0.780468 0.118669 0.0136263
0.811093 0.11902 0.0113527
0.841825 0.119326 0.00910964
0.87274 0.11957 0.00689708
0.903624 0.119814 0.00476081
0.0499733 0.102892 0.0567788
0.0674296 0.106813 0.0575875
0.087068 0.11014 0.0578317
0.108934 0.113054 0.0576028
0.132769 0.115389 0.0568246
0.158022 0.117189 0.0555886
0.18436 0.118715 0.0540322
0.211414 0.120043 0.0522469
0.238834 0.121279 0.0502937
0.266728 0.122652 0.0482643
0.294163 0.123995 0.0462806
0.321279 0.125353 0.0442206
0.348486 0.12668 0.0420996
0.375952 0.127962 0.0398871
0.403601 0.129168 0.0376135
0.432044 0.130495 0.0352636
0.460212 0.131594 0.0328527
0.488518 0.132647 0.030396
0.517006 0.133654 0.0279088
0.545632 0.134615 0.0253605
0.574426 0.135515 0.0227665
0.603983 0.136584 0.0200504
0.632959 0.137453 0.0174411
0.661997 0.138277 0.0149233
0.691142 0.139086 0.0124666
0.720348 0.139849 0.0100862
0.750256 0.140764 0.0077821
0.779629 0.141482 0.00553903
0.809155 0.142138 0.00334173
0.838804 0.142748 0.00120546
0.868528 0.143343 0
0.898436 0.143893 0
0.928725 0.144625 0
0.0533608 0.132296 0.0622416
0.0731823 0.135653 0.0616464
0.0955062 0.138491 0.0605325
0.120012 0.140734 0.0588693
0.146395 0.142306 0.0566873
0.174243 0.143481 0.054139
0.202976 0.144396 0.0513619
0.232151 0.145205 0.0484779
0.261891 0.146227 0.0455329
0.291005 0.147066 0.0425574
0.319661 0.148043 0.0396735
0.347784 0.149172 0.0368811
0.375769 0.150332 0.0341192
0.40415 0.151614 0.031342
0.432441 0.152819 0.0285801
0.460609 0.153933 0.0258183
0.488853 0.155032 0.0230716
0.517143 0.1561 0.0203403
0.545495 0.157168 0.0176394
0.574319 0.158373 0.0149386
0.602884 0.159426 0.0122683
0.631357 0.160449 0.00956741
0.6598 0.161486 0.00686656
0.688228 0.162509 0.00436408
0.716686 0.1635 0.00198367
0.745693 0.164675 0
0.774182 0.165637 0
0.802716 0.166583 0
0.831342 0.167483 0
0.860044 0.168353 0
0.888792 0.169207 0
0.918151 0.170214 0
0.946868 0.171054 0
0.0530251 0.163226 0.0640879
0.0755169 0.166201 0.062211
0.100435 0.168246 0.0597238
0.127504 0.16968 0.0568246
0.156512 0.170581 0.0534524
0.186847 0.17113 0.0497902
0.218006 0.171572 0.0459907
0.249485 0.172015 0.0421454
0.280537 0.172366 0.0383307
0.31107 0.172854 0.034638
0.340841 0.173556 0.0311284
0.369787 0.174487 0.0278325
0.398672 0.175631 0.0246433
0.42739 0.176776 0.0215305
0.455772 0.177859 0.0184787
0.484077 0.178958 0.0155184
0.512337 0.180056 0.0126192
0.54052 0.181186 0.00981155
0.569024 0.182452 0.00706493
0.597223 0.183658 0.00440986
0.625284 0.184787 0.00180056
0.653269 0.185946 0
0.681163 0.187121 0
0.70898 0.188312 0
0.737255 0.189685 0
0.764981 0.19086 0
0.792691 0.192035 0
0.820401 0.193194 0
0.848173 0.194324 0
0.876402 0.195605 0
0.904265 0.196719 0
0.932158 0.197772 0
0.959899 0.198856 0
0.0497292 0.19559 0.0627756
0.0747082 0.197665 0.0597086
0.102296 0.199023 0.0561074
0.131991 0.199786 0.0521096
0.163561 0.200031 0.0477455
0.196384 0.200031 0.0431678
0.229801 0.2 0.0385443
0.262928 0.199802 0.0339818
0.295552 0.199756 0.029572
0.327337 0.199908 0.025391
0.358083 0.200366 0.0214847
0.38819 0.201343 0.0178988
0.417319 0.202243 0.0144808
0.446159 0.203204 0.0112154
0.474723 0.204242 0.00808728
0.503105 0.20531 0.00509651
0.531533 0.206531 0.00222782
0.559823 0.207797 0
0.587701 0.208988 0
0.615427 0.210224 0
0.643061 0.21146 0
0.670573 0.212726 0
0.698222 0.214191 0
0.725597 0.215595 0
0.752728 0.216938 0
0.779751 0.21828 0
0.806729 0.219638 0
0.833661 0.220981 0
0.860975 0.222477 0
0.888029 0.223835 0
0.914977 0.225132 0
0.941985 0.226398 0
0.968795 0.22771 0
0.0441291 0.228626 0.0588846
0.0717327 0.230015 0.0548409
0.101961 0.230671 0.0503548
0.134218 0.230762 0.0455177
0.168505 0.230625 0.0404059
0.203525 0.229938 0.0351415
0.238712 0.229191 0.0299382
0.273548 0.228534 0.0248875
0.307591 0.228092 0.0201114
0.340581 0.228 0.0156405
0.372503 0.228412 0.0115663
0.402777 0.228992 0.0078584
0.432319 0.22977 0.00440986
0.461433 0.230655 0.00117494
0.490135 0.231632 0
0.5187 0.232776 0
0.547097 0.234043 0
0.574945 0.235233 0
0.602564 0.236469 0
0.629953 0.237766 0
0.657191 0.239094 0
0.684474 0.240589 0
0.711498 0.24213 0
0.73814 0.243595 0
0.764645 0.245075 0
0.791028 0.246571 0
0.817319 0.248081 0
0.843915 0.249836 0
0.87013 0.251316 0
0.89633 0.252811 0
0.922454 0.254307 0
0.948638 0.255756 0
0.974838 0.257435 0
0.0374151 0.262165 0.053254
0.0676127 0.262852 0.0484779
0.100359 0.262837 0.0433204
0.135286 0.262531 0.0379034
0.171618 0.261494 0.0322423
0.208728 0.260227 0.0265507
0.245747 0.258976 0.0209812
0.282124 0.257893 0.015671
0.317464 0.25713 0.0107118
0.351705 0.256916 0.0061799
0.384054 0.256916 0.00209049
0.414847 0.257328 0
0.444739 0.258 0
0.474052 0.258793 0
0.503258 0.259968 0
0.531655 0.261006 0
0.55967 0.262135 0
0.587335 0.26334 0
0.614679 0.264622 0
0.641855 0.266056 0
0.669001 0.267613 0
0.695613 0.269078 0
0.721935 0.270634 0
0.748043 0.272206 0
0.773968 0.273808 0
0.799924 0.275547 0
0.825742 0.277317 0
0.85127 0.278981 0
0.876768 0.280629 0
0.902235 0.282277 0
0.927611 0.28394 0
0.953201 0.285725 0
0.978454 0.28751 0
0.0306096 0.295842 0.0466926
0.0634775 0.296086 0.0414282
0.0986496 0.295445 0.0358282
0.135607 0.294224 0.0300145
0.174044 0.292592 0.0240635
0.213031 0.290791 0.0181277
0.251682 0.289067 0.0124056
0.289769 0.287831 0.00704967
0.326192 0.286702 0.00209049
0.360983 0.286015 0
0.393973 0.285801 0
0.425193 0.286076 0
0.455375 0.286625 0
0.485237 0.287587 0
0.514092 0.288472 0
0.542443 0.289494 0
0.570336 0.290623 0
0.597803 0.291844 0
0.624964 0.293217 0
0.652018 0.29482 0
0.678492 0.296284 0
0.704692 0.297841 0
0.730541 0.299458 0
0.75613 0.301137 0
0.781643 0.302937 0
0.80705 0.304829 0
0.832044 0.3066 0
0.856931 0.3084 0
0.881758 0.310185 0
0.906508 0.311986 0
0.931517 0.314031 0
0.95639 0.31577 0
0.981231 0.317525 0
0.0247807 0.329519 0.0399481
0.0599374 0.328908 0.0343633
0.0972 0.327611 0.0285496
0.136202 0.325811 0.0225681
0.176516 0.323629 0.016495
0.217182 0.321324 0.0105135
0.257557 0.319417 0.00485237
0.296544 0.317586 0
0.333928 0.316152 0
0.369467 0.315221 0
0.402975 0.314824 0
0.434562 0.314961 0
0.465324 0.315648 0
0.494926 0.316304 0
0.523796 0.317143 0
0.552087 0.318135 0
0.579828 0.319265 0
0.607462 0.320745 0
0.634287 0.322103 0
0.6607 0.323568 0
0.686824 0.325093 0
0.712581 0.326711 0
0.738003 0.328435 0
0.763409 0.330404 0
0.788251 0.332204 0
0.812863 0.334066 0
0.837278 0.335943 0
0.861616 0.33785 0
0.886152 0.339773 0
0.910948 0.341787 0
0.935607 0.343587 0
0.960464 0.345342 0
0.98529 0.347097 0
0.0204471 0.362554 0.0335851
0.0576791 0.361257 0.0278782
0.0968338 0.359396 0.022034
0.137636 0.357046 0.0160525
0.179782 0.354543 0.0100557
0.222019 0.351904 0.00419623
0.263355 0.349355 0
0.303334 0.347173 0
0.341527 0.34548 0
0.377661 0.344335 0
0.411902 0.343984 0
0.443809 0.344045 0
0.474372 0.344396 0
0.504036 0.344991 0
0.532876 0.345785 0
0.561059 0.346761 0
0.588998 0.348135 0
0.616037 0.349386 0
0.642588 0.35079 0
0.668696 0.3523 0
0.694423 0.353872 0
0.719768 0.35555 0
0.745022 0.357549 0
0.769635 0.35938 0
0.794079 0.361257 0
0.818433 0.363149 0
0.842741 0.365057 0
0.867124 0.36701 0
0.891829 0.36907 0
0.916365 0.370901 0
0.941009 0.372717 0
0.96585 0.374456 0
0.990646 0.376226 0
0.0182498 0.394781 0.0280766
0.0573129 0.392935 0.0224308
0.0981155 0.39057 0.0167086
0.140627 0.387915 0.0109255
0.184131 0.384894 0.00512703
0.227497 0.381765 0
0.269856 0.378897 0
0.310674 0.376425 0
0.349508 0.374502 0
0.386374 0.373358 0
0.420722 0.372732 0
0.452781 0.372641 0
0.483421 0.37293 0
0.5131 0.373465 0
0.541878 0.374243 0
0.57026 0.375448 0
0.597665 0.376577 0
0.624475 0.377874 0
0.650721 0.379294 0
0.676448 0.380835 0
0.702113 0.382666 0
0.727214 0.38439 0
0.751965 0.386191 0
0.776516 0.388022 0
0.800946 0.389899 0
0.825284 0.391791 0
0.849897 0.393942 0
0.874205 0.39585 0
0.898634 0.397711 0
0.923156 0.399542 0
0.947768 0.401358 0
0.97261 0.403143 0
0.997681 0.405127 0
0.0184939 0.4262 0.0235599
0.0590066 0.423896 0.0181888
0.101488 0.421347 0.0128023
0.145144 0.418112 0.00730907
0.189685 0.414618 0.00183108
0.234058 0.411154 0
0.277241 0.40798 0
0.318868 0.405402 0
0.358373 0.403418 0
0.395331 0.401938 0
0.429816 0.401129 0
0.461982 0.400961 0
0.492653 0.40119 0
0.522484 0.401862 0
0.551263 0.402701 0
0.579141 0.403662 0
0.606302 0.404807 0
0.632853 0.406104 0
0.658915 0.407523 0
0.684825 0.409277 0
0.710216 0.410941 0
0.735271 0.412634 0
0.760006 0.414435 0
0.784558 0.416266 0
0.808957 0.418143 0
0.8336 0.420279 0
0.857877 0.422187 0
0.882155 0.424094 0
0.906554 0.425956 0
0.93106 0.427802 0
0.955642 0.429618 0
0.980743 0.431617 0
1 0.433387 0
0.0213474 0.456794 0.0203403
0.0629587 0.454398 0.0153658
0.106325 0.451209 0.0102388
0.151049 0.447623 0.005066
0.196521 0.443809 0
0.241657 0.440055 0
0.285603 0.436759 0
0.327733 0.434012 0
0.367407 0.431739 0
0.404593 0.430152 0
0.4392 0.429267 0
0.471382 0.429038 0
0.50219 0.429358 0
0.531823 0.429953 0
0.560357 0.430686 0
0.588129 0.431647 0
0.615244 0.432776 0
0.641764 0.434073 0
0.668132 0.435737 0
0.693751 0.437278 0
0.719081 0.438895 0
0.744106 0.440604 0
0.768826 0.44239 0
0.793591 0.444404 0
0.818067 0.446357 0
0.842359 0.448249 0
0.866606 0.450156 0
0.890867 0.452079 0
0.915236 0.453956 0
0.940002 0.456016 0
0.964584 0.457862 0
0.989334 0.459617 0
1 0.461387 0
0.0263828 0.486748 0.0191806
0.0686198 0.483833 0.0145876
0.112902 0.480339 0.00982681
0.158465 0.476463 0.00505074
0.204654 0.472404 0.000366217
0.25069 0.468696 0
0.294957 0.46511 0
0.337209 0.462074 0
0.377081 0.459693 0
0.414359 0.458015 0
0.449058 0.45713 0
0.481437 0.457038 0
0.512001 0.457206 0
0.541482 0.457679 0
0.569986 0.458412 0
0.597742 0.459373 0
0.624994 0.460624 0
0.651667 0.462043 0
0.677699 0.463462 0
0.703304 0.465003 0
0.728603 0.466636 0
0.753613 0.46833 0
0.778515 0.470283 0
0.803128 0.472206 0
0.827497 0.474083 0
0.851774 0.47599 0
0.87599 0.477897 0
0.900221 0.47982 0
0.924834 0.481895 0
0.949325 0.483787 0
0.973846 0.485618 0
0.998566 0.487388 0
1 0.489174 0
0.033341 0.515648 0.0199283
0.0762798 0.512489 0.0158236
0.121279 0.508736 0.0115358
0.167452 0.504646 0.00721752
0.21445 0.500618 0.00315862
0.260548 0.496483 0
0.305074 0.492775 0
0.347478 0.489647 0
0.387396 0.487221 0
0.42472 0.485573 0
0.459571 0.48481 0
0.491707 0.48455 0
0.522255 0.484718 0
0.551705 0.485191 0
0.580194 0.485939 0
0.608057 0.486976 0
0.63534 0.488273 0
0.66183 0.489555 0
0.687831 0.49099 0
0.71342 0.492531 0
0.738705 0.494148 0
0.764004 0.496101 0
0.788678 0.497902 0
0.813153 0.499733 0
0.837491 0.501625 0
0.861738 0.503532 0
0.886107 0.505577 0
0.910445 0.507607 0
0.934752 0.509483 0
0.959152 0.511345 0
0.983627 0.513176 0
1 0.514946 0.000518807
1 0.516915 0.00169375
0.0424659 0.543709 0.0227054
0.0859388 0.540337 0.0191348
0.131426 0.536385 0.0153811
0.178317 0.532357 0.0117342
0.225238 0.527977 0.00793469
0.271427 0.523812 0.00430304
0.315953 0.520088 0.0010071
0.358328 0.516976 0
0.398535 0.514794 0
0.435782 0.5131 0
0.470359 0.512139 0
0.502464 0.511879 0
0.532998 0.512047 0
0.562478 0.512551 0
0.591226 0.513512 0
0.618952 0.514458 0
0.646006 0.515602 0
0.67248 0.516899 0
0.698466 0.518318 0
0.724117 0.519936 0
0.749599 0.521737 0
0.774563 0.523445 0
0.799207 0.525246 0
0.823651 0.527092 0
0.847959 0.528969 0
0.872312 0.530999 7.62951e-05
0.896635 0.533043 0.0012665
0.920806 0.534966 0.00238041
0.945068 0.536858 0.00349432
0.969421 0.53872 0.00459297
0.993866 0.540566 0.00570687
1 0.542504 0.00689708
1 0.544381 0.00807202
0.0536812 0.570947 0.0275273
0.0976272 0.567697 0.024445
0.143221 0.563729 0.0209049
0.189746 0.559472 0.0171511
0.236606 0.555108 0.0133516
0.282765 0.550942 0.00972
0.32726 0.547234 0.00643931
0.36994 0.544366 0.00376898
0.409812 0.541939 0.00146487
0.447028 0.540261 0
0.481575 0.539315 0
0.513664 0.539055 0
0.544182 0.539223 0
0.573922 0.53994 0
0.602365 0.540688 0
0.63006 0.541634 0
0.657099 0.542779 0
0.683543 0.544076 0
0.709575 0.545556 0
0.735348 0.547295 0.000289921
0.760586 0.548928 0.00112917
0.785519 0.550637 0.00202945
0.810132 0.552438 0.00302129
0.834546 0.554284 0.00407416
0.859129 0.55642 0.00534066
0.883314 0.558328 0.00646983
0.907423 0.560265 0.00762951
0.931548 0.562188 0.00880446
0.955764 0.564095 0.0099794
0.980194 0.566049 0.0112154
1 0.568048 0.0124971
1 0.569833 0.0136416
1 0.571649 0.0148318
0.0659342 0.598062 0.0332341
0.109529 0.59469 0.0301061
0.155001 0.590723 0.026566
0.20148 0.586465 0.0228275
0.24831 0.582116 0.0190433
0.294423 0.577966 0.0154269
0.339208 0.574502 0.012314
0.381537 0.571405 0.00952163
0.421378 0.568994 0.00723278
0.458579 0.5673 0.00549325
0.493095 0.566354 0.0043183
0.525475 0.566323 0.00381476
0.555978 0.566522 0.00350958
0.585367 0.566995 0.00341802
0.613809 0.567742 0.00355535
0.641474 0.568704 0.00384527
0.668467 0.569833 0.00430304
0.695216 0.571374 0.00505074
0.721141 0.572808 0.00575265
0.746639 0.574365 0.00657664
0.771847 0.575998 0.00746166
0.79675 0.577707 0.00842298
0.821363 0.579538 0.00949111
0.846021 0.581613 0.0107576
0.870253 0.583505 0.0119173
0.894377 0.585428 0.0131228
0.918456 0.587366 0.0143435
0.942535 0.589303 0.0155947
0.966796 0.591272 0.0168917
0.991272 0.593317 0.0182498
1 0.595178 0.019501
1 0.596979 0.0207218
1 0.598795 0.021973
0.0783093 0.624933 0.0391394
0.121721 0.62153 0.0360113
0.167132 0.617578 0.0325017
0.21355 0.613336 0.0287785
0.260548 0.609171 0.0251316
0.306737 0.605097 0.0215763
0.351171 0.601404 0.0183413
0.393454 0.598306 0.0155489
0.433265 0.595895 0.0132906
0.470436 0.594217 0.0115969
0.505226 0.593484 0.010605
0.537301 0.593271 0.0100099
0.567758 0.593454 0.00973526
0.597131 0.593927 0.00970474
0.625544 0.594675 0.00988785
0.653178 0.595636 0.0102388
0.680476 0.597025 0.0109102
0.706859 0.598321 0.0115511
0.732769 0.599756 0.012314
0.758236 0.601312 0.0131991
0.783398 0.602945 0.0141451
0.80827 0.604685 0.0151827
0.833112 0.606729 0.0164645
0.85745 0.608591 0.0176394
0.881636 0.610483 0.0188754
0.90573 0.612421 0.0201419
0.929747 0.614359 0.0214389
0.954086 0.616541 0.0229496
0.97821 0.618448 0.0242618
1 0.62034 0.0255741
1 0.622202 0.0269017
1 0.624018 0.0281987
1 0.625895 0.029572
0.0909438 0.651621 0.0452735
0.134279 0.648249 0.0421912
0.179614 0.644312 0.0386969
0.226169 0.640238 0.035111
0.27303 0.635996 0.0314488
0.319066 0.631861 0.027863
0.363455 0.628183 0.0246586
0.405722 0.625101 0.0218967
0.445502 0.62269 0.0196689
0.482963 0.621256 0.0181735
0.517433 0.620325 0.0170901
0.549447 0.620066 0.0165255
0.579873 0.620249 0.0162966
0.609216 0.620737 0.0163119
0.637842 0.621668 0.0166781
0.665522 0.62269 0.0171359
0.692454 0.623835 0.0177005
0.718822 0.625147 0.0184176
0.744686 0.626581 0.0192416
0.770123 0.628153 0.0201877
0.795544 0.630014 0.0213626
0.820386 0.631754 0.0224765
0.844877 0.63357 0.0236667
0.869169 0.635431 0.024918
0.893309 0.637339 0.0262303
0.917342 0.639277 0.0275731
0.941634 0.641474 0.0291295
0.965606 0.643412 0.030518
0.98967 0.645335 0.0319219
1 0.647242 0.0333104
1 0.649119 0.0347143
1 0.650965 0.0361028
1 0.65301 0.0376745
0.103807 0.678233 0.0516213
0.147158 0.674952 0.0486305
0.192645 0.671199 0.045304
0.238956 0.666987 0.0416571
0.285634 0.662669 0.0379492
0.33164 0.658549 0.0343938
0.375982 0.654871 0.03122
0.418357 0.651911 0.0285801
0.458274 0.649622 0.0264897
0.495369 0.647959 0.0248722
0.529809 0.647028 0.0238193
0.561791 0.646784 0.0233158
0.592187 0.646967 0.0231479
0.621714 0.647623 0.0233463
0.650172 0.648447 0.0236973
0.677729 0.649424 0.0241703
0.704646 0.650568 0.0248112
0.730968 0.651881 0.0255894
0.756786 0.65333 0.0264897
0.782452 0.6551 0.0276493
0.807584 0.656779 0.0287633
0.832364 0.658503 0.0299535
0.856809 0.660334 0.03122
0.881056 0.662196 0.0325475
0.90515 0.664118 0.0339208
0.929442 0.6663 0.035523
0.953368 0.668254 0.0369879
0.977279 0.670222 0.0384527
1 0.672145 0.0399329
1 0.674052 0.0413977
1 0.676173 0.0430457
1 0.678004 0.04448
1 0.679866 0.0459602
0.11693 0.704814 0.0582284
0.160342 0.701656 0.0553597
0.205554 0.697749 0.0519417
0.251804 0.693553 0.0483406
0.298436 0.68925 0.0446632
0.344381 0.685145 0.0411688
0.38883 0.681575 0.0380865
0.431189 0.678645 0.035523
0.470893 0.676249 0.0333867
0.507958 0.674586 0.0318151
0.542367 0.673655 0.0308385
0.574304 0.673411 0.0303807
0.60499 0.673838 0.030457
0.634272 0.674342 0.0305943
0.662577 0.675105 0.0309606
0.690105 0.676066 0.0315099
0.716976 0.677226 0.0322271
0.743435 0.678676 0.0331731
0.76936 0.680232 0.034226
0.794705 0.681804 0.0353094
0.819745 0.683452 0.0364843
0.844465 0.685191 0.0377356
0.868864 0.687022 0.0390784
0.893294 0.689082 0.0406195
0.917418 0.691066 0.0421302
0.941344 0.693019 0.0436255
0.965225 0.694972 0.0451514
0.989075 0.696941 0.0466926
1 0.698894 0.0482185
1 0.70103 0.0499275
1 0.702937 0.0514687
1 0.704784 0.0529641
1 0.706645 0.05449
0.130388 0.731456 0.0651102
0.173465 0.728145 0.06215
0.218601 0.724254 0.058793
0.264805 0.720073 0.0552377
0.311421 0.715801 0.0516365
0.35761 0.71191 0.0483253
0.401862 0.708247 0.0452277
0.443992 0.70518 0.0426184
0.48365 0.7028 0.040528
0.520684 0.701152 0.0390326
0.555138 0.700298 0.0381628
0.587274 0.700236 0.0378882
0.617594 0.70042 0.0378576
0.64683 0.700923 0.0380713
0.67509 0.701686 0.0385138
0.702586 0.702663 0.0391394
0.729564 0.703944 0.0400092
0.755962 0.705379 0.0410163
0.781704 0.706844 0.0420844
0.807004 0.708415 0.0432441
0.831983 0.710079 0.04448
0.856672 0.711818 0.0458228
0.881224 0.713817 0.047364
0.90547 0.715785 0.0489052
0.929458 0.717708 0.0504158
0.953353 0.719676 0.0519875
0.977172 0.721645 0.0535744
1 0.723629 0.0551766
1 0.725811 0.0569467
1 0.727733 0.0585336
1 0.729641 0.0601053
1 0.731502 0.0616464
1 0.733364 0.0632029
0.143709 0.75787 0.0720378
0.186709 0.754574 0.0691539
0.231785 0.750698 0.0658427
0.277928 0.746532 0.0623484
0.324773 0.742473 0.0589303
0.370611 0.738384 0.0555276
0.414816 0.734737 0.052491
0.456901 0.731685 0.0499428
0.496513 0.729305 0.0479286
0.533562 0.727718 0.0465248
0.568124 0.726986 0.0458076
0.599985 0.726757 0.0454871
0.630274 0.726955 0.0455329
0.659464 0.727459 0.0458228
0.687678 0.728222 0.0463264
0.71545 0.729442 0.0472114
0.742229 0.730617 0.0480812
0.768414 0.731945 0.049073
0.794095 0.73341 0.0502022
0.819348 0.734981 0.0514382
0.844419 0.736751 0.0528267
0.86923 0.738643 0.0543374
0.893538 0.74049 0.0558175
0.917632 0.742382 0.0573587
0.941573 0.74432 0.0589303
0.965408 0.746288 0.0605478
0.989364 0.748409 0.0623026
1 0.7505 0.0640269
1 0.752468 0.0656596
1 0.754391 0.0672618
1 0.756313 0.0688792
1 0.758175 0.0704509
1 0.760235 0.0721752
0.157107 0.784237 0.0791485
0.200046 0.780957 0.0763256
0.24538 0.777325 0.0732433
0.291447 0.773159 0.06981
0.337911 0.768902 0.0663005
0.383703 0.764813 0.0629587
0.427848 0.761181 0.0599832
0.469871 0.758129 0.057496
0.509743 0.756008 0.0557259
