tracker_LUT/LUT/Subtle_Yellow.cube
TITLE "Generated by Resolve"
LUT_3D_SIZE 33
0 0 0
0 0 0
0.0173342 0 0
0.0441138 0.000259403 0.000274662
0.0707713 0.0009308 0.000961318
0.10013 0.000839246 0.000869764
0.140627 0 0
0.202518 0 0
0.282399 0 0
0.377997 0 0
0.481102 0 0
0.580896 0 0
0.667582 0 0
0.737682 0 0
0.794919 0 0
0.840818 0 0
0.873655 0 0
0.895796 0 0
0.91194 0 0
0.925811 0 0
0.940627 0 0
0.957092 0 0
0.957855 0 0
0.957855 0 0
0.957855 0 0
0.957855 0 0
0.957855 0 0
0.957855 0 0
0.957855 0 0
0.957855 0 0
0.957855 0 0
0.957855 0 0
0.957855 0 0
0 0 0
0 0 0
0.00495918 0 0
0.0329595 3.0518e-05 4.57771e-05
0.0593271 0.000747692 0.000762951
0.0871138 0.000946059 0.000976577
0.121614 0 0
0.175113 0 0
0.249012 0 0
0.338247 0 0
0.439658 0 0
0.54255 0 0
0.635721 0 0
0.713008 0 0
0.774792 0 0
0.824598 0 0
0.862806 0 0
0.888197 0 0
0.906249 0 0
0.920653 0 0
0.934707 0 0
0.950637 0 0
0.957778 0 0
0.957855 0 0
0.957855 0 0
0.957855 0 0
0.957855 0 0
0.957855 0 0
0.957855 0 0
0.957855 0 0
0.957855 0 0
0.957855 0 0
0.957855 0 0
0 0.000579843 0
0 0 0
0 0 0
0.0206149 0 0
0.0475166 0.000350958 0.000366217
0.0741131 0.00102235 0.00103761
0.104784 0.000656138 0.000686656
0.148028 0 0
0.214679 0 0
0.29723 0 0
0.395224 0 0
0.498894 0 0
0.598291 0 0
0.682185 0 0
0.749493 0 0
0.804288 0 0
0.847776 0 0
0.878187 0 0
0.899107 0 0
0.914458 0 0
0.928359 0 0
0.943358 0 0
0.957641 0 0
0.957855 0 0
0.957855 0 0
0.957855 0 0
0.957855 0 0
0.957855 0 0
0.957855 0 0
0.957855 0 0
0.957855 0 0
0.957855 0 0
0.957855 0 0
0 0.0203098 0
0 0.0168154 0
0 0.0128939 0
0.00813306 0.00898756 1.5259e-05
0.0357977 0.00549325 0.000335698
0.062211 0.00238041 0.000946059
0.0904707 0.000976577 0.000976577
0.12636 0 0
0.183871 0 0
0.259312 0 0
0.352148 0 0
0.454307 0 0
0.557336 0 0
0.647669 0 0
0.722026 0 0
0.781704 0 0
0.830106 0 0
0.866621 0 0
0.890578 0 0
0.90808 0 0
0.922225 0 0
0.936385 0 0
0.952544 0 0
0.957809 0 0
0.957855 0 0
0.957855 0 0
0.957855 0 0
0.957855 0 0
0.957855 0 0
0.957855 0 0
0.957855 0 0
0.957855 0 0
0.957855 0 0
0.000686656 0.0390021 0.000686656
0.000549325 0.0358282 0.000549325
0.000518807 0.0323796 0.000518807
0.00030518 0.0288548 0.00030518
0.0240482 0.0251316 0.00015259
0.0499886 0.0218204 0.000289921
0.0764324 0.0181888 0.000396735
0.10837 0.0131991 0
0.155138 0.00418097 0
0.224125 0 0
0.309606 0 0
0.408957 0 0
0.513878 0 0
0.609552 0 0
0.691325 0 0
0.757183 0 0
0.809964 0 0
0.851942 0 0
0.881163 0 0
0.900877 0 0
0.916136 0 0
0.930098 0 0
0.945388 0 0
0.957626 0 0
0.957855 0 0
0.957855 0 0
0.957855 0 0
0.957855 0 0
0.957855 0 0
0.957855 0 0
0.957855 0 0
0.957855 0 0
0.957855 0 0
0.000961318 0.0572213 0.000839246
0.000915541 0.0538949 0.000808728
0.000869764 0.0507515 0.000808728
0.000671397 0.0473487 0.00062562
0.0117647 0.0435492 0.000320439
0.0384375 0.0398108 0.000213626
0.0639658 0.0364996 0.000183108
0.0924392 0.0324102 0
0.13051 0.0256046 0
0.190066 0.0130007 0
0.268803 0 0
0.362142 0 0
0.46743 0 0
0.568917 0 0
0.65745 0 0
0.73019 0 0
0.788327 0 0
0.83534 0 0
0.869886 0 0
0.893248 0 0
0.910079 0 0
0.92398 0 0
0.938476 0 0
0.955032 0 0
0.957794 0 0
0.957855 0 0
0.957855 0 0
0.957855 0 0
0.957855 0 0
0.957855 0 0
0.957855 0 0
0.957855 0 0
0.957855 0 0
0.000701915 0.0751354 0.000427253
0.000839246 0.0720836 0.000579843
0.000900282 0.0684825 0.000686656
0.0010071 0.065156 0.000808728
0.000976577 0.0617227 0.00077821
0.0270085 0.0576028 0.000381476
0.0524147 0.054139 0.000213626
0.0791638 0.0504921 0
0.111849 0.045182 0
0.160906 0.0353399 0
0.232441 0.0197604 0
0.319829 0 0
0.421561 0 0
0.525505 0 0
0.621454 0 0
0.700572 0 0
0.76495 0 0
0.816388 0 0
0.856611 0 0
0.88452 0 0
0.903334 0 0
0.918318 0 0
0.932387 0 0
0.948013 0 0
0.957641 0 0
0.957855 0 0
0.957855 0 0
0.957855 0 0
0.957855 0 0
0.957855 0 0
0.957855 0 0
0.957855 0 0
0.957855 0 0
0 0.0940566 0
0 0.0906691 0
4.57771e-05 0.0869612 0
0.000335698 0.083299 0
0.000534066 0.0795911 0.000213626
0.0140688 0.0757763 0
0.0405585 0.0721294 1.5259e-05
0.0666209 0.068574 3.0518e-05
0.0961318 0.0644999 0
0.137041 0.0569467 0
0.199542 0.0436866 0
0.28101 0.0256352 0
0.378393 0.00343328 0
0.482673 0 0
0.583917 0 0
0.670253 0 0
0.740841 0 0
0.797223 0 0
0.84329 0 0
0.875975 0 0
0.897459 0 0
0.912596 0 0
0.926696 0 0
0.941711 0 0
0.957427 0 0
0.957855 0 0
0.957855 0 0
0.957855 0 0
0.957855 0 0
0.957855 0 0
0.957855 0 0
0.957855 0 0
0.957855 0 0
0 0.115221 0
0 0.111116 0
0 0.106996 0
0 0.102968 0
0 0.0992294 0
0 0.0953841 0
0.0269932 0.0913405 0
0.053315 0.0877699 0
0.0812695 0.0838483 0
0.116442 0.0785687 0
0.170138 0.0682231 0
0.244984 0.0521401 0
0.336904 0.0318151 0
0.440269 0.0083772 0
0.545495 0 0
0.639414 0 0
0.718196 0 0
0.78027 0 0
0.830457 0 0
0.869368 0 0
0.895384 0 0
0.914031 0 0
0.929076 0 0
0.943282 0 0
0.958373 0 0
0.961349 0 0
0.959258 0 0
0.9579 0 0
0.957855 0 0
0.957855 0 0
0.957855 0 0
0.957855 0 0
0.957855 0 0
0 0.140627 0
0 0.135851 0
0 0.13106 0
0 0.126101 0
0 0.121599 0
0 0.117205 0
0.00943008 0.11284 0
0.0376898 0.109255 0
0.0656596 0.105776 0
0.0975662 0.101366 0
0.14258 0.0937209 0
0.210727 0.0801251 0
0.296757 0.0620432 0
0.398581 0.0401617 0
0.507225 0.0169375 0
0.607614 0 0
0.694133 0 0
0.76437 0 0
0.821286 0 0
0.866773 0 0
0.898817 0 0
0.920531 0 0
0.938094 0 0
0.953582 0 0
0.969696 0 0
0.979339 0 0
0.976165 0 0
0.972839 0 0
0.969528 0 0
0.966888 0 0
0.964111 0 0
0.962005 0 0
0.959747 0 0
0 0.172091 0
0 0.166415 0
0 0.160601 0
0 0.154559 0
0 0.149126 0
0 0.143816 0
0 0.138933 0
0.0160067 0.134646 0
0.0457771 0.131441 0
0.0774243 0.128008 0
0.117082 0.122438 0
0.17644 0.112078 0
0.257511 0.0961471 0
0.355566 0.0763256 0
0.465415 0.0539406 0
0.574609 0.0330968 0
0.670832 0.0157473 0
0.749264 0.00332647 0
0.812985 0 0
0.865629 0 0
0.905394 0 0
0.931991 0 0
0.952117 0.00329595 0
0.968933 0.0103304 0
0.98558 0.0183566 0
1 0.0268254 0
0.999817 0.0196231 0
0.995666 0.0120851 0
0.991562 0.00456245 0
0.987701 0 0
0.984298 0 0
0.980743 0 0
0.977508 0 0
0 0.210925 0
0 0.203738 0
0 0.196597 0
0 0.189685 0
0 0.183551 0
0 0.177172 0
0 0.171969 0
0 0.166842 0
0.0195926 0.163165 0
0.0519875 0.160052 0
0.0895552 0.15668 0
0.142046 0.149874 0
0.218235 0.137438 0
0.312703 0.120409 0
0.422065 0.0997482 0
0.536477 0.078233 0
0.642451 0.0602274 0
0.73286 0.0473335 0
0.805386 0.0389563 0
0.864302 0.0348974 0
0.911498 0.0346075 0
0.944015 0.0381323 0
0.967742 0.0446021 0
0.987335 0.0531472 0
1 0.0620432 0
1 0.0708629 0
1 0.0689403 0.00149538
1 0.0610056 0
1 0.0532387 0
1 0.0455482 0
1 0.0384375 0
1 0.0305333 0
1 0.02327 0
0 0.258091 0
0 0.250385 0
0 0.242283 0
0 0.234272 0
0 0.226947 0
0 0.219837 0
0 0.21297 0
0 0.205844 0
0 0.203204 0
0.023682 0.201617 0
0.0609903 0.19968 0
0.1075 0.195926 0
0.176364 0.186969 0
0.266316 0.172839 0
0.37377 0.154696 0
0.492241 0.133639 0
0.607355 0.114321 0
0.708278 0.0991226 0
0.79176 0.089662 0
0.859236 0.0841535 0
0.91368 0.0824292 0
0.953994 0.0852369 0
0.983001 0.0918288 0
1 0.100633 0
1 0.110094 0.010193
1 0.119966 0.0241855
1 0.124804 0.0330816
1 0.116579 0.0289311
1 0.10808 0.024033
1 0.099855 0.0194553
1 0.090837 0.0142672
1 0.0829786 0.00972
1 0.0744488 0.00466926
0 0.315358 0
0 0.306615 0
0 0.297444 0
0 0.289128 0
0 0.280552 0
0 0.27219 0
0 0.264363 0
0 0.25655 0
0 0.250736 0
0 0.250523 0
0.0310979 0.250568 0
0.0756542 0.249226 0
0.134737 0.244053 0
0.218357 0.232944 0
0.320912 0.216739 0
0.438788 0.197589 0
0.56083 0.177737 0
0.672145 0.160647 0
0.765881 0.148562 0
0.844266 0.141588 0
0.907393 0.139239 0
0.957305 0.140291 0
0.993378 0.146075 0
1 0.154223 0.0142367
1 0.163729 0.0306249
1 0.173785 0.0467994
1 0.185306 0.0631571
1 0.179599 0.0625467
1 0.170077 0.0579385
1 0.160647 0.0530709
1 0.15108 0.0479744
1 0.141878 0.0432136
1 0.132845 0.0380255
0 0.37969 0
0 0.370764 0
0 0.361791 0
0 0.352239 0
0 0.343389 0
0 0.334508 0
0 0.325338 0
0 0.317311 0
0 0.309163 0
0 0.30695 0
0.000671397 0.30779 0
0.0433356 0.308415 0
0.0960555 0.305989 0
0.171084 0.298238 0
0.268177 0.285191 0
0.38204 0.268177 0
0.506706 0.248157 0
0.627085 0.230121 0
0.731411 0.216373 0
0.819501 0.207675 0
0.890929 0.203937 0
0.950393 0.204242 0
0.994797 0.208286 0.00894179
1 0.215412 0.0254368
1 0.225147 0.0437629
1 0.235904 0.0628061
1 0.246326 0.0813001
1 0.24976 0.0918135
1 0.239567 0.0885939
1 0.228275 0.0841077
1 0.218463 0.0803845
1 0.208392 0.0760967
1 0.197818 0.0716259
0 0.450172 0
0 0.441321 0
0 0.431922 0
0 0.421622 0
0 0.412284 0
0 0.403296 0
0 0.394217 0
0 0.385168 0
0 0.376043 0
0 0.37023 0
0 0.370886 0
0.0104677 0.372213 0
0.0594034 0.372793 0
0.124941 0.369039 0
0.215305 0.358801 0
0.323964 0.344289 0
0.447059 0.325704 0
0.573648 0.306416 0
0.689403 0.2916 0
0.787549 0.281178 0
0.867353 0.275776 0
0.93431 0.274388 0
0.988022 0.277424 0.0136263
1 0.284276 0.0312505
1 0.293156 0.0504311
1 0.303822 0.0707561
1 0.314504 0.0913558
1 0.325002 0.111238
1 0.316106 0.111055
1 0.305135 0.108522
1 0.293645 0.105272
1 0.282155 0.102068
1 0.271031 0.0992599
0 0.525551 0
0 0.516304 0
0 0.505928 0
0 0.496544 0
0 0.486366 0
0 0.477348 0
0 0.467994 0
0 0.458839 0
0 0.448905 0
0 0.439475 0
0 0.439139 0
0 0.442023 0
0.0256352 0.443549 0
0.0835584 0.443763 0
0.163928 0.437369 0
0.266041 0.424933 0
0.38613 0.409186 0
0.514778 0.390463 0
0.638895 0.373342 0
0.74725 0.360876 0
0.837095 0.354711 0
0.911025 0.3514 0
0.972396 0.352346 0.0138857
1 0.357992 0.0317082
1 0.365835 0.0516518
1 0.375326 0.0727855
1 0.385992 0.0944686
1 0.396872 0.115648
1 0.397314 0.12639
1 0.385885 0.125307
1 0.374075 0.122957
1 0.362417 0.120882
1 0.350072 0.118547
0 0.60177 0
0 0.593591 0
0 0.583581 0
0 0.57319 0
0 0.564614 0
0 0.554543 0
0 0.544991 0
0 0.535424 0
0 0.526452 0
0 0.516274 0
0 0.510597 0
0 0.514214 0
0 0.51783 0
0.0501259 0.519615 0
0.119142 0.51783 0
0.213169 0.508995 0
0.326421 0.495521 0
0.453483 0.478065 0
0.582345 0.460624 0
0.700557 0.446342 0
0.799207 0.437003 0
0.88098 0.433768 0
0.948623 0.432654 0.0099794
1 0.435065 0.0267796
1 0.441855 0.0466773
1 0.450233 0.0683909
1 0.460243 0.0905318
1 0.470375 0.112108
1 0.479774 0.133104
1 0.468666 0.133822
1 0.45623 0.133227
1 0.444678 0.131899
1 0.433051 0.131212
0 0.680064 0
0 0.670787 0
0 0.661738 0
0 0.652338 0
0 0.642222 0
0 0.633417 0
0 0.623941 0
0 0.614298 0
0 0.605066 0
0 0.595926 0
0 0.586267 0
0 0.586984 0
0 0.592996 0
0.0261234 0.596597 0
0.0852674 0.598383 0
0.168856 0.593133 0
0.272953 0.582589 0
0.394598 0.567163 0
0.524849 0.549416 0
0.649424 0.534493 0
0.756527 0.523186 0
0.844831 0.516457 0
0.918471 0.514015 0.00274662
0.979507 0.514595 0.0181888
1 0.518929 0.0364843
1 0.526192 0.0579385
1 0.535393 0.0794385
1 0.543786 0.100908
1 0.552071 0.122042
1 0.550912 0.133104
1 0.53904 0.133822
1 0.527413 0.13434
1 0.515801 0.134569
0 0.755779 0
0 0.7476 0
0 0.738781 0
0 0.729824 0
0 0.720562 0
0 0.710948 0
0 0.702129 0
0 0.693446 0
0 0.684627 0
0 0.67512 0
0 0.665736 0
0 0.6607 0
0 0.666239 0
0.0122377 0.672465 0
0.0648508 0.676097 0
0.134493 0.675013 0
0.229236 0.666712 0
0.342733 0.654292 0
0.469795 0.637705 0
0.597543 0.621042 0
0.711482 0.607858 0
0.806897 0.598917 0
0.884978 0.59411 0
0.950423 0.592828 0.00842298
1 0.59527 0.0242466
1 0.600641 0.0439155
1 0.607782 0.0640574
1 0.615564 0.0846418
1 0.623148 0.104799
1 0.629007 0.123995
1 0.619623 0.126619
1 0.607736 0.127794
1 0.596445 0.129381
0 0.828443 0
0 0.820676 0
0 0.812848 0
0 0.803876 0
0 0.795224 0
0 0.786984 0
0 0.778622 0
0 0.770352 0
0 0.761456 0
0 0.75256 0
0 0.743832 0
0 0.735073 0
0 0.738994 0
0.00749218 0.745052 0
0.0547799 0.749584 0
0.113405 0.751919 0
0.196475 0.7467 0
0.300572 0.736522 0
0.4215 0.721935 0
0.548028 0.70428 0
0.666773 0.688258 0
0.768399 0.677424 0
0.851896 0.670741 0
0.920836 0.667689 0.0010071
0.977325 0.667353 0.0135958
1 0.670726 0.029984
1 0.676448 0.0480201
1 0.682765 0.0669261
1 0.690028 0.0856184
1 0.696315 0.104524
1 0.693339 0.113787
1 0.683711 0.116258
1 0.672587 0.118044
0 0.896651 0
0 0.889464 0
0 0.881453 0
0 0.874327 0
0 0.866407 0
0 0.859022 0
0 0.851102 0
0 0.842939 0
0 0.835157 0
0 0.826673 0
0 0.81883 0
0 0.810437 0
0 0.807858 0
0.0096437 0.813489 0
0.0531624 0.819272 0
0.10367 0.82237 0
0.173663 0.821378 0
0.267582 0.812696 0.00230411
0.379355 0.798901 0
0.502693 0.781964 0
0.62356 0.764813 0
0.730495 0.750774 0
0.819776 0.741833 0
0.892454 0.73698 0
0.952468 0.734783 0.00691234
0.999298 0.735256 0.0190585
1 0.739239 0.034165
1 0.745022 0.0508431
1 0.75111 0.0677501
1 0.756848 0.0848707
1 0.760769 0.0999161
1 0.751827 0.102693
1 0.742367 0.104921
0.0172274 0.958114 0.0142367
0.014847 0.952514 0.0118715
0.0114443 0.945632 0.00848402
0.00807202 0.938384 0.00512703
0.00540169 0.932403 0.00247196
0.00195315 0.924743 0
0 0.917372 0
0 0.910521 0
0 0.902892 0
0 0.896239 0
0 0.88838 0
0 0.880476 0
0 0.873198 0
0.0161593 0.877211 0
0.0574197 0.883528 0
0.102724 0.887968 0.00886549
0.160906 0.888472 0.0175326
0.242237 0.882185 0.0196384
0.344793 0.869657 0.016846
0.461021 0.853223 0.0104067
0.583047 0.835157 0.00234989
0.694789 0.819181 0
0.788754 0.807157 0
0.865766 0.799405 0
0.928862 0.795911 0.0043183
0.979431 0.794324 0.012726
1 0.796429 0.0244602
1 0.80032 0.0383154
1 0.805493 0.0531472
1 0.810925 0.0683604
1 0.815793 0.0833448
1 0.81265 0.0901961
1 0.80412 0.0920424
0.0463417 1 0.0432288
0.0431678 1 0.0400702
0.0406348 1 0.0375525
0.0369421 0.996963 0.033875
0.0334783 0.9906 0.0304265
0.0303502 0.984634 0.0273136
0.0269474 0.978042 0.0239261
0.0234379 0.971313 0.0204318
0.0206607 0.965042 0.0176547
0.0174411 0.958602 0.0144656
0.0145266 0.951827 0.0115511
0.0109407 0.944549 0.00798047
0.00782788 0.937865 0.00489815
0.0273136 0.937438 0.00817884
0.0646677 0.941863 0.0171664
0.106233 0.946303 0.0272068
0.155489 0.948287 0.035874
0.224887 0.94403 0.0386969
0.316869 0.932876 0.035523
0.426352 0.917571 0.0282444
0.545632 0.89868 0.0182345
0.659541 0.880796 0.00914015
0.759396 0.866941 0.00396735
0.84062 0.856626 0.00291447
0.906828 0.850187 0.00535592
0.961044 0.847517 0.0106813
1 0.847333 0.0191501
1 0.849577 0.0300755
1 0.853803 0.0427253
1 0.85861 0.0557717
1 0.863371 0.0690318
1 0.865354 0.0797436
1 0.858366 0.0818494
0.0770886 1 0.0738231
0.0742199 1 0.0709697
0.0704814 1 0.0672465
0.0671244 1 0.0639048
0.0636149 1 0.0604257
0.0597696 1 0.0565805
0.0564889 1 0.053315
0.0530861 1 0.0499428
0.0495918 1 0.0464637
0.0465248 1 0.0434119
0.0431067 1 0.0400244
0.040177 1 0.0371099
0.0366064 0.996323 0.0335393
0.0400397 0.991974 0.0319982
0.0743267 0.99527 0.0385748
0.112398 0.999069 0.0467689
0.155016 1 0.0540017
0.213001 0.999207 0.0579995
0.295796 0.989944 0.0552071
0.39527 0.975372 0.0475319
0.509682 0.956573 0.0361639
0.62504 0.937194 0.0243534
0.729732 0.920668 0.0155032
0.816464 0.908721 0.0108797
0.88632 0.900145 0.0099794
0.942916 0.894713 0.0121004
0.987915 0.892287 0.0170443
1 0.893477 0.0254826
1 0.896757 0.0359655
1 0.900572 0.0469673
1 0.904646 0.0582589
1 0.908064 0.0694896
1 0.904585 0.0738689
0.107744 1 0.104311
0.104814 1 0.101396
0.101396 1 0.0979934
0.0978103 1 0.0944228
0.0944839 1 0.0911269
0.0911727 1 0.0878309
0.0873884 1 0.084062
0.0841077 1 0.0808118
0.080705 1 0.077409
0.0772106 1 0.0739452
0.0736095 1 0.0703441
0.0704814 1 0.0672465
0.0668498 1 0.0636301
0.0630045 1 0.0598154
0.0875257 1 0.0627604
0.122026 1 0.0686351
0.160037 1 0.0741283
0.207767 1 0.0776837
0.279042 1 0.0753796
0.369619 1 0.0674907
0.476539 1 0.0557107
0.590921 0.988952 0.0416876
0.699763 0.969833 0.0291752
0.79147 0.955032 0.0209506
0.865721 0.944579 0.0170138
0.925887 0.937636 0.016434
0.974624 0.933272 0.0186313
1 0.93228 0.0238651
1 0.934478 0.0320592
1 0.93756 0.0413519
1 0.940734 0.0511025
1 0.944274 0.0609598
1 0.944793 0.0683909
0.137255 1 0.133639
0.134188 1 0.130602
0.130877 1 0.127306
0.127779 1 0.124224
0.124453 1 0.120928
0.121431 1 0.117922
0.118013 1 0.114519
0.114534 1 0.111055
0.11136 1 0.107897
0.10779 1 0.104356
0.104402 1 0.100984
0.100908 1 0.0975052
0.097322 1 0.0939498
0.0938125 1 0.0904555
0.103182 1 0.0893873
0.135149 1 0.0932326
0.16968 1 0.0974899
0.210452 1 0.0998703
0.268116 1 0.0979019
0.350301 1 0.0898909
0.448371 1 0.0773175
0.559716 1 0.0615549
0.669535 1 0.0461128
0.765835 0.997665 0.0339208
0.84509 0.984665 0.0261692
0.908644 0.97615 0.0229953
0.960723 0.970459 0.0226291
1 0.967407 0.0249485
1 0.967468 0.0304723
1 0.969757 0.0379339
1 0.972763 0.0466316
1 0.97557 0.0551919
1 0.978058 0.063386
0.164187 1 0.160418
0.161746 1 0.157992
0.158755 1 0.155016
0.155871 1 0.152148
0.152819 1 0.149126
0.149706 1 0.146029
0.146746 1 0.143084
0.143526 1 0.139895
0.14023 1 0.136614
