tracker_LUT/LUT/Subtle_Yellow.cube
TITLE "Generated by Resolve"
LUT_3D_SIZE 5
0 0 0
0.282399 0 0
0.873655 0 0
0.957855 0 0
0.957855 0 0
0 0.115221 0
0.0812695 0.0838483 0
0.718196 0 0
0.958373 0 0
0.957855 0 0
0 0.525551 0
0 0.448905 0
0.38613 0.409186 0
1 0.365835 0.0516518
1 0.350072 0.118547
0.0770886 1 0.0738231
0.0495918 1 0.0464637
0.155016 1 0.0540017
0.88632 0.900145 0.0099794
1 0.904585 0.0738689
0.228885 1 0.224613
0.228885 1 0.224613
0.227207 1 0.22295
0.705959 1 0.135607
1 1 0.0623484
0 0 0.294362
0.234257 0 0.237522
0.861082 0 0.0360266
0.963561 0 0.026276
0.961166 0 0
0 0.110445 0.0458534
0.0682841 0.0727092 0.0689708
0.682811 0 0
0.945449 0 0
0.957855 0 0
0 0.493996 0
0 0.416617 0
0.347784 0.377035 0
1 0.325048 0.0409094
1 0.318105 0.111757
0.0645457 1 0.0613413
0.0379797 0.998657 0.0349126
0.129091 0.975845 0.0413519
0.860044 0.879179 0.00639353
1 0.884932 0.0766766
0.228885 1 0.224613
0.228885 1 0.224613
0.219226 1 0.215045
0.659144 1 0.140047
1 1 0.0601205
0 0 0.946593
0.101656 0 0.954101
0.808469 0 0.812497
0.956756 0 0.817288
0.955322 0 0.734951
0 0.0915236 0.616449
0 0.0429541 0.742916
0.608179 0 0.616724
0.931899 0 0.520226
0.960479 0 0.419883
0 0.521813 0.0853437
0 0.423819 0.173602
0.325078 0.361913 0.330373
1 0.304524 0.285328
1 0.306264 0.294499
0.0646983 1 0.117006
0.0363928 0.986145 0.110964
0.111666 0.956634 0.112215
0.834882 0.860594 0.0486
1 0.863752 0.0979782
0.228885 1 0.225193
0.228687 1 0.224414
0.210346 1 0.206241
0.610468 1 0.142199
1 1 0.057557
0 0 0.998047
0.0252537 0 0.997482
0.782055 0 0.907637
0.990814 0 0.991379
0.990753 0 0.991241
0 0.0914626 0.983902
0 0.0479438 0.991104
0.490517 0 0.933013
0.940551 0 0.941329
0.975509 0 0.960372
0 0.554665 0.783169
0 0.463569 0.860014
0.136263 0.386404 0.991836
1 0.267277 1
1 0.278553 1
0.0707103 1 0.614496
0.0401007 0.993698 0.684886
0.0657969 0.934524 0.759487
0.787839 0.822858 0.793271
1 0.816251 0.78558
0.220737 1 0.533089
0.211124 1 0.605142
0.18854 1 0.646265
0.535042 1 0.54139
1 1 0.319158
0 0 0.998047
0 0 0.998047
0.679835 0 0.910292
0.989197 0 0.990143
0.990814 0 0.991379
0 0.101549 1
0 0.0547189 1
0.272786 0 0.971572
0.932448 0 0.948348
0.990814 0 0.991379
0 0.622446 0.997726
0 0.53402 1
0.0558022 0.41088 1
1 0.264347 1
1 0.280934 1
0.0800946 1 1
0.0616465 1 1
0.0422827 0.969268 1
0.603082 0.873228 1
1 0.794797 1
0.190387 1 1
0.185489 1 1
0.168673 1 1
0.413993 1 1
0.988113 0.99559 0.9897
