tracker_LUT/LUT/Subtle_Yellow.cube
TITLE "Generated by Resolve"
LUT_3D_SIZE 9
0 0 0
0.0707713 0.0009308 0.000961318
0.282399 0 0
0.667582 0 0
0.873655 0 0
0.940627 0 0
0.957855 0 0
0.957855 0 0
0.957855 0 0
0.000686656 0.0390021 0.000686656
0.0240482 0.0251316 0.00015259
0.155138 0.00418097 0
0.513878 0 0
0.809964 0 0
0.916136 0 0
0.957855 0 0
0.957855 0 0
0.957855 0 0
0 0.115221 0
0 0.0992294 0
0.0812695 0.0838483 0
0.336904 0.0318151 0
0.718196 0 0
0.895384 0 0
0.958373 0 0
0.957855 0 0
0.957855 0 0
0 0.258091 0
0 0.226947 0
0 0.203204 0
0.176364 0.186969 0
0.607355 0.114321 0
0.91368 0.0824292 0
1 0.110094 0.010193
1 0.10808 0.024033
1 0.0744488 0.00466926
0 0.525551 0
0 0.486366 0
0 0.448905 0
0.0256352 0.443549 0
0.38613 0.409186 0
0.837095 0.354711 0
1 0.365835 0.0516518
1 0.397314 0.12639
1 0.350072 0.118547
0 0.828443 0
0 0.795224 0
0 0.761456 0
0 0.738994 0
0.196475 0.7467 0
0.666773 0.688258 0
0.977325 0.667353 0.0135958
1 0.690028 0.0856184
1 0.672587 0.118044
0.0770886 1 0.0738231
0.0636149 1 0.0604257
0.0495918 1 0.0464637
0.0366064 0.996323 0.0335393
0.155016 1 0.0540017
0.509682 0.956573 0.0361639
0.88632 0.900145 0.0099794
1 0.896757 0.0359655
1 0.904585 0.0738689
0.18883 1 0.184894
0.178637 1 0.174762
0.166979 1 0.16318
0.154635 1 0.150927
0.193256 1 0.145159
0.407935 1 0.127291
0.807202 1 0.0583658
1 1 0.0381323
1 1 0.0556802
0.228885 1 0.224613
0.228885 1 0.224613
0.228885 1 0.224613
0.228885 1 0.224613
0.227207 1 0.22295
0.354925 1 0.21149
0.705959 1 0.135607
0.987198 1 0.0741131
1 1 0.0623484
9.15541e-05 7.62951e-05 0.0677043
0.0645762 0.00105287 0.0651102
0.263386 0 0.0267338
0.650355 0 0
0.868269 0 0
0.937392 0 0
0.957855 0 0
0.957855 0 0
0.957855 0 0
0.000549325 0.0373541 0.0110018
0.0172122 0.0191806 0.0175784
0.142458 0.00015259 0
0.489403 0 0
0.798276 0 0
0.912474 0 0
0.957855 0 0
0.957855 0 0
0.957855 0 0
0 0.109209 0
0 0.09308 0
0.0746929 0.0782483 0
0.314717 0.0299382 0
0.700389 0 0
0.888579 0 0
0.951629 0 0
0.957855 0 0
0.957855 0 0
0 0.244846 0
0 0.214725 0
0 0.191455 0
0.163165 0.176181 0
0.585 0.104097 0
0.899718 0.0696422 0
1 0.0948196 0.000549325
1 0.096376 0.0174716
1 0.0636149 0
0 0.507576 0
0 0.469398 0
0 0.432288 0
0.0201114 0.425757 0
0.366766 0.39295 0
0.822934 0.336309 0
1 0.345647 0.0462348
1 0.380072 0.123293
1 0.33434 0.115297
0 0.81326 0
0 0.780224 0
0 0.746136 0
0 0.720439 0
0.178332 0.730251 0
0.647822 0.67335 0
0.970459 0.650248 0.0120851
1 0.672435 0.0852522
1 0.657404 0.120851
0.0705577 1 0.0673228
0.0572213 1 0.0540475
0.0437934 1 0.0406958
0.0305486 0.985016 0.027512
0.142168 0.988846 0.0479133
0.485786 0.948577 0.0351415
0.873823 0.889769 0.00831617
1 0.885023 0.034226
1 0.895033 0.0751049
0.18407 1 0.180163
0.173327 1 0.169497
0.161593 1 0.157839
0.14873 1 0.145052
0.181247 1 0.138582
0.385779 1 0.124712
0.787243 1 0.0566415
1 1 0.0352178
1 1 0.05449
0.228885 1 0.224613
0.228885 1 0.224613
0.228885 1 0.224613
0.228885 1 0.224613
0.223438 1 0.219211
0.341146 1 0.209537
0.682246 1 0.13814
0.977035 1 0.0742962
1 1 0.0613107
0 0 0.294362
0.0366217 0 0.322469
0.234257 0 0.237522
0.625391 0 0.106081
0.861082 0 0.0360266
0.939406 0 0.0339361
0.963561 0 0.026276
0.962493 0 0.00621042
0.961166 0 0
0.00015259 0.039353 0.110872
0 0.0203861 0.141039
0.128618 0 0.13077
0.463066 0 0.0437324
0.786908 0 0
0.91078 0 0
0.960067 0 0
0.959075 0 0
0.958221 0 0
0 0.110445 0.0458534
0 0.0915084 0.0587778
0.0682841 0.0727092 0.0689708
0.292973 0.0282444 0.025864
0.682811 0 0
0.882261 0 0
0.945449 0 0
0.957885 0 0
0.957855 0 0
0 0.238666 0
0 0.204776 0
0 0.180728 0
0.152056 0.166369 0
0.563592 0.0948959 0
0.885481 0.0569009 0
1 0.0798962 0
1 0.0845197 0.0106203
1 0.0530251 0
0 0.493996 0
0 0.452842 0
0 0.416617 0
0.0150607 0.407782 0
0.347784 0.377035 0
0.809049 0.317754 0
1 0.325048 0.0409094
1 0.363394 0.119936
1 0.318105 0.111757
0 0.799237 0
0 0.763973 0
0 0.729747 0
0 0.701686 0
0.160754 0.71368 0
0.627863 0.658137 0
0.9626 0.63241 0.010544
1 0.654047 0.0845045
1 0.642084 0.123384
0.0645457 1 0.0613413
0.0505074 1 0.0473793
0.0379797 0.998657 0.0349126
0.024033 0.972549 0.0210269
0.129091 0.975845 0.0413519
0.461601 0.939696 0.0334936
0.860044 0.879179 0.00639353
1 0.873213 0.0324254
1 0.884932 0.0766766
0.179339 1 0.175463
0.167926 1 0.164141
0.155856 1 0.152148
0.142763 1 0.139116
0.168917 1 0.131655
0.364492 1 0.12163
0.766735 1 0.054963
1 1 0.0325475
1 1 0.0530709
0.228885 1 0.224613
0.228885 1 0.224613
0.228885 1 0.224613
0.228107 1 0.22385
0.219226 1 0.215045
0.327749 1 0.207156
0.659144 1 0.140047
0.966262 1 0.0741436
1 1 0.0601205
0 0 0.730114
0 0 0.771679
0.167361 0 0.725948
0.572656 0 0.578897
0.830671 0 0.479026
0.924681 0 0.438529
0.961196 0 0.389181
0.962936 0 0.318547
0.964355 0 0.253285
0 0.0231327 0.449699
0 0.00128176 0.527871
0.0762493 0 0.562158
0.412757 0 0.420142
0.758038 0 0.281636
0.902281 0 0.220829
0.964675 0 0.202075
0.96556 0 0.152239
0.966003 0 0.10956
0 0.110643 0.20087
0 0.0903182 0.244877
0.0268254 0.0649424 0.30782
0.259907 0.0183261 0.266377
0.657816 0 0.135561
0.875608 0 0.0712902
0.948058 0 0.0695201
0.964996 0 0.0543221
0.963973 0 0.0331579
0 0.249775 0.0424659
0 0.214298 0.06981
0 0.181109 0.101488
0.147539 0.161791 0.149859
0.549081 0.0955215 0.0882124
0.880507 0.0545815 0.0498054
1 0.0750896 0.071931
1 0.0827497 0.0806439
1 0.0497902 0.0485084
0 0.498451 0
0 0.453391 0
0 0.409964 0
0.0198215 0.398032 0.0201877
0.33724 0.369955 0.0406806
0.80058 0.307927 0.0278172
1 0.310735 0.0697032
1 0.34905 0.138338
1 0.303716 0.118639
0 0.792996 0
0 0.753292 0
0 0.715938 0
0 0.684871 0
0.144167 0.697475 0
0.607416 0.642176 0
0.953506 0.61387 0.00862135
1 0.635538 0.0834821
1 0.625986 0.125246
0.0599222 1 0.0567483
0.045243 1 0.0421454
0.0314946 0.986862 0.0284581
0.0181582 0.960113 0.0151675
0.115419 0.961868 0.0340581
0.437552 0.930602 0.031632
0.845838 0.868528 0.00444038
1 0.860533 0.030518
1 0.874266 0.0783093
0.175051 1 0.171206
0.162478 1 0.158709
0.149676 1 0.145983
0.136812 1 0.133211
0.156435 1 0.124483
0.34258 1 0.118349
0.744625 1 0.0540017
0.99144 1 0.0303044
1 1 0.0513619
0.228885 1 0.224613
0.228885 1 0.224613
0.228885 1 0.224613
0.224323 1 0.220096
0.214832 1 0.210681
0.31516 1 0.204074
0.635187 1 0.141405
0.953948 1 0.0738537
1 1 0.0588846
0 0 0.946593
0 0 0.958892
0.101656 0 0.954101
0.522881 0 0.867582
0.808469 0 0.812497
0.914809 0 0.819715
0.956756 0 0.817288
0.955734 0 0.778347
0.955322 0 0.734951
0 0.00296025 0.831037
0 0 0.870695
0.0215152 0 0.897459
0.338369 0 0.83151
0.719036 0 0.725063
0.880613 0 0.690944
0.954528 0 0.693446
0.955749 0 0.642222
0.956512 0 0.587716
0 0.0915236 0.616449
0 0.0703441 0.678264
0 0.0429541 0.742916
0.174762 0 0.753948
0.608179 0 0.616724
0.844724 0 0.537636
0.931899 0 0.520226
0.959106 0 0.478401
0.960479 0 0.419883
0 0.259159 0.294682
0 0.222293 0.358618
0 0.180575 0.437827
0.0770275 0.151629 0.554772
0.507073 0.0762798 0.516945
0.857298 0.0362707 0.430503
0.994614 0.0589609 0.409918
1 0.0747539 0.385687
1 0.0441138 0.316747
0 0.521813 0.0853437
0 0.475349 0.125399
0 0.423819 0.173602
0.00968948 0.394141 0.248692
0.325078 0.361913 0.330373
0.796628 0.301717 0.277546
1 0.304524 0.285328
1 0.346517 0.33167
1 0.306264 0.294499
0 0.809628 0.0573434
0 0.769726 0.0667124
0 0.724681 0.0800946
0 0.684489 0.099443
0.147158 0.696956 0.149706
0.602625 0.64239 0.122484
0.959976 0.608804 0.127504
1 0.62739 0.184039
1 0.619486 0.215061
0.0646983 1 0.117006
0.0500343 1 0.114702
0.0363928 0.986145 0.110964
0.0234073 0.957656 0.102434
0.111666 0.956634 0.112215
0.418158 0.926329 0.094667
0.834882 0.860594 0.0486
1 0.849561 0.0594339
1 0.863752 0.0979782
0.173175 1 0.188312
0.159945 1 0.184466
0.146426 1 0.175769
0.132158 1 0.161242
0.145693 1 0.144793
0.321584 1 0.12697
0.723293 1 0.0525673
0.98233 0.995346 0.0282139
1 0.99826 0.0496223
0.228885 1 0.225193
0.228885 1 0.224674
0.228687 1 0.224414
0.220203 1 0.216022
0.210346 1 0.206241
0.302785 1 0.200259
0.610468 1 0.142199
0.941466 1 0.0735485
1 1 0.057557
0 0 0.989364
0 0 0.994293
0.0623484 0 0.995636
0.464897 0 0.93106
0.803967 0 0.892607
0.925719 0 0.926436
0.97406 0 0.957153
0.970718 0 0.948898
0.967758 0 0.939254
0 0.00143435 0.966125
0 0 0.973587
0 0 0.980026
0.256336 0 0.953033
0.695674 0 0.878843
0.880583 0 0.882338
0.961852 0 0.927199
0.963119 0 0.915923
0.961013 0 0.898131
0 0.0834363 0.900801
0 0.0653086 0.927596
0 0.0390936 0.948486
0.0959945 0.00666819 0.956863
0.55967 0 0.873838
0.829694 0 0.833814
0.926452 0 0.857252
0.958556 0 0.858259
0.957305 0 0.832532
0 0.258534 0.709056
0 0.224704 0.762905
0 0.17969 0.820783
0.0261997 0.143908 0.888533
0.42652 0.07364 0.899504
0.831434 0.0169528 0.837659
0.976867 0.0352178 0.843656
1 0.055375 0.847974
1 0.0230564 0.794949
0 0.537011 0.439902
0 0.494621 0.502297
0 0.439994 0.568261
0 0.390433 0.647578
0.209949 0.367758 0.781826
0.772442 0.275883 0.780911
1 0.275776 0.785458
1 0.31873 0.825391
1 0.285649 0.782513
0 0.828367 0.298833
0 0.789837 0.337804
0 0.740383 0.379492
0 0.690074 0.426413
0.114977 0.687709 0.531289
0.575601 0.621546 0.582803
0.952255 0.58526 0.550271
1 0.60264 0.570459
1 0.60148 0.573983
0.0730449 1 0.280659
0.0580148 1 0.306462
0.041474 0.989776 0.33434
0.0261387 0.955322 0.364874
0.102312 0.944259 0.413153
0.392004 0.91693 0.398428
0.820752 0.850263 0.307439
1 0.836881 0.28307
1 0.852399 0.296132
0.176181 1 0.308171
0.161791 1 0.319203
0.145892 1 0.330434
0.130556 1 0.336583
0.13669 1 0.332479
0.300526 1 0.304204
0.699489 1 0.199649
0.973404 0.989502 0.142611
1 0.989807 0.142794
0.229328 1 0.313375
0.229282 1 0.324147
0.225864 1 0.33019
0.217166 1 0.325582
0.20708 1 0.31162
0.290257 1 0.291081
0.583459 1 0.214405
0.925963 1 0.123705
1 1 0.0896315
0 0 0.998047
0 0 0.998047
0.0252537 0 0.997482
0.374533 0 0.953292
0.782055 0 0.907637
0.930648 0 0.947097
0.990814 0 0.991379
0.990768 0 0.991272
0.990753 0 0.991241
0 0.00756847 0.995132
0 0 0.996536
0 0 0.998077
0.172854 0 0.985519
0.658961 0 0.912245
0.889479 0 0.923995
0.978393 0 0.979477
0.985565 0 0.980194
0.982696 0 0.974609
0 0.0914626 0.983902
0 0.0755322 0.987915
0 0.0479438 0.991104
0.0556802 0.0198672 0.996109
0.490517 0 0.933013
0.82855 0 0.898711
0.940551 0 0.941329
0.97821 0 0.965759
0.975509 0 0.960372
0 0.272618 0.926848
0 0.244038 0.947982
0 0.197482 0.967865
0 0.154681 0.987533
0.327047 0.106096 1
0.818143 0.0226139 0.956786
0.981491 0.0355535 0.982589
1 0.0596933 1
1 0.0243381 0.988357
0 0.554665 0.783169
0 0.519081 0.81915
0 0.463569 0.860014
0 0.408194 0.901946
0.136263 0.386404 0.991836
0.731701 0.282887 1
1 0.267277 1
1 0.307225 1
1 0.278553 1
0 0.840009 0.67628
0 0.807507 0.71284
0 0.761303 0.745663
0 0.713191 0.779767
0.0495766 0.694118 0.851438
0.445762 0.643 0.927428
0.944442 0.563226 0.949737
1 0.574807 0.995407
1 0.575601 1
0.0707103 1 0.614496
0.0563973 1 0.651637
0.0401007 0.993698 0.684886
0.0250095 0.958648 0.71725
0.0657969 0.934524 0.759487
0.331563 0.906859 0.803403
0.787839 0.822858 0.793271
1 0.803388 0.773678
1 0.816251 0.78558
0.168887 1 0.585321
0.153887 1 0.621103
0.1364 1 0.654673
0.118242 1 0.687053
0.109483 1 0.715816
0.261845 1 0.740047
0.649531 1 0.657069
0.943465 0.962768 0.560845
1 0.962554 0.520989
0.220737 1 0.533089
0.21854 1 0.572824
0.211124 1 0.605142
0.200565 1 0.631693
0.18854 1 0.646265
0.26157 1 0.641093
0.535042 1 0.54139
0.89337 1 0.39559
1 1 0.319158
0 0 0.998047
0 0 0.998047
0 0 0.997543
0.273579 0 0.970092
0.739147 0 0.907454
0.920241 0 0.9402
0.990784 0 0.991348
0.990814 0 0.991379
0.990814 0 0.991379
0 0.00769055 0.996521
0 0 0.996414
0 0 0.998047
0.100175 0 0.994827
0.587076 0 0.920653
0.87303 0 0.918212
0.97348 0 0.97908
0.990814 0 0.991379
0.990814 0 0.991379
0 0.101198 1
0 0.08336 1
0 0.0527352 1
0.01944 0.0231479 0.997925
0.385824 0 0.95375
0.804288 0 0.908782
0.943206 0 0.956207
0.990814 0 0.991379
0.990814 0 0.991379
0 0.299031 0.990417
0 0.274083 0.999329
0 0.223239 1
0 0.169772 1
0.234211 0.129 1
0.776516 0.0309606 0.980575
0.984375 0.0362554 1
1 0.0684672 1
1 0.0352636 1
0 0.585336 0.94284
0 0.555367 0.953262
0 0.500282 0.965423
0 0.443931 0.978607
0.101808 0.409903 1
0.648264 0.31989 1
1 0.277165 1
1 0.313527 1
1 0.289357 1
0 0.860044 0.921141
0 0.834669 0.937911
0 0.791806 0.950591
0 0.747127 0.959228
0.0135958 0.710307 0.981399
0.346929 0.678126 1
0.930831 0.571511 1
1 0.570397 1
1 0.572625 1
0.0708629 1 0.908354
0.0599527 1 0.926268
0.0460059 1 0.941131
0.0338445 0.975616 0.955398
0.0280003 0.942214 0.968521
0.225071 0.930205 1
0.697139 0.840269 0.997589
1 0.789044 1
1 0.797391 1
0.159121 1 0.90312
0.14728 1 0.926238
0.13167 1 0.943786
0.115511 1 0.957763
0.098558 1 0.967178
0.211566 1 0.985901
0.58854 1 0.945998
0.917586 0.940383 0.921813
1 0.933974 0.915297
0.201953 1 0.860029
0.199847 1 0.897032
0.193194 1 0.926406
0.183124 1 0.949523
0.171756 1 0.967727
0.229053 1 0.982513
0.485344 1 0.946227
0.845182 1 0.851423
1 1 0.785901
0 0 0.998047
0 0 0.998047
0 0 0.998047
0.177523 0 0.984878
0.679835 0 0.910292
0.905592 0 0.931777
0.989197 0 0.990143
0.990814 0 0.991379
0.990814 0 0.991379
0 0.00750744 0.996506
0 0 0.996353
0 0 0.99794
0.0527657 0 0.997345
0.48983 0 0.934447
0.846342 0 0.912352
0.963287 0 0.97142
0.990814 0 0.991379
0.990814 0 0.991379
0 0.101549 1
0 0.086183 1
0 0.0547189 1
0 0.0257115 0.997497
0.272786 0 0.971572
0.759243 0 0.90779
0.932448 0 0.948348
0.990814 0 0.991379
0.990814 0 0.991379
0 0.313954 1
0 0.288014 1
0 0.230518 1
0 0.17435 1
0.150668 0.136278 1
0.695537 0.0341039 0.981491
0.963531 0.0194705 0.992752
1 0.0536355 1
1 0.0215457 1
0 0.622446 0.997726
0 0.595987 1
0 0.53402 1
0 0.467506 1
0.0558022 0.41088 1
0.516579 0.335882 1
1 0.264347 1
1 0.297017 1
1 0.280934 1
0.0146334 0.888563 1
0.0112917 0.869322 1
0.00448615 0.829679 1
0 0.785763 1
0.00257877 0.735729 1
0.261646 0.707286 1
0.866896 0.587869 1
1 0.565377 1
1 0.571603 1
0.0800946 1 1
0.0730602 1 1
0.0616465 1 1
0.0512703 1 1
0.0422827 0.969268 1
0.167346 0.953475 1
0.603082 0.873228 1
1 0.794263 1
1 0.794797 1
0.158648 1 1
0.150011 1 1
0.136812 1 1
0.122835 1 1
0.1084 1 1
0.169192 1 1
0.462562 1 1
0.864805 0.95285 1
1 0.927199 1
0.190387 1 1
0.189532 1 1
0.185489 1 1
0.17821 1 1
0.168673 1 1
0.198169 1 1
0.413993 1 1
0.807965 1 1
0.988113 0.99559 0.9897
