tracker_LUT/LUT/Yellowstone.cube
TITLE "Generated by Resolve"
LUT_3D_SIZE 33
0 0 0
0 0 0
0 0 0
0 0 0
0.00047303 7.62951e-05 0
0.0247349 0.00387579 1.5259e-05
0.0568856 0.0120394 0.000671397
0.0972457 0.0213169 0.00210575
0.142031 0.029572 0.00134279
0.191455 0.0358587 0
0.246311 0.0412604 0
0.305135 0.0463569 0
0.360845 0.0531777 0
0.414679 0.0628672 0
0.472648 0.0733654 0.00114443
0.535439 0.0839704 0.00956741
0.602853 0.0935378 0.0191348
0.676768 0.103975 0.0297704
0.755169 0.118334 0.0420386
0.826001 0.140032 0.0522469
0.888731 0.169345 0.0563211
0.913329 0.182071 0.056611
0.913329 0.182071 0.056611
0.913329 0.182071 0.056611
0.913329 0.182071 0.056611
0.913329 0.182071 0.056611
0.913329 0.182071 0.056611
0.913329 0.182071 0.056611
0.913329 0.182071 0.056611
0.913329 0.182071 0.056611
0.913329 0.182071 0.056611
0.913329 0.182071 0.056611
0.913329 0.182071 0.056611
0 0 0
0 0 0
0 0 0
0 0 0
0 0 0
0.0173495 0.00268559 0
0.0473487 0.00965896 0.000442512
0.0869917 0.0190585 0.00189212
0.132403 0.0282444 0.00196841
0.18291 0.0348211 7.62951e-05
0.2383 0.040528 0
0.297734 0.0456703 0
0.35491 0.0522927 0
0.408865 0.061799 0
0.466804 0.0723735 0.000549325
0.529397 0.0830396 0.00866712
0.595819 0.0925917 0.0181735
0.669581 0.102922 0.0287327
0.748043 0.116503 0.0409552
0.82005 0.13753 0.0515755
0.882872 0.166339 0.0562448
0.913329 0.182071 0.056611
0.913329 0.182071 0.056611
0.913329 0.182071 0.056611
0.913329 0.182071 0.056611
0.913329 0.182071 0.056611
0.913329 0.182071 0.056611
0.913329 0.182071 0.056611
0.913329 0.182071 0.056611
0.913329 0.182071 0.056611
0.913329 0.182071 0.056611
0.913329 0.182071 0.056611
0.913329 0.182071 0.056611
0 0 0
0 0 0
0 0 0
0 0 0
0 0 0
0.0106203 0.00164797 0
0.0394141 0.00762951 0.000289921
0.0777295 0.0168917 0.00151064
0.122896 0.0268711 0.00251774
0.173953 0.0337224 0.000167849
0.229801 0.0397345 0
0.29044 0.0449836 0
0.348653 0.0513466 0
0.403525 0.0608072 0
0.461112 0.071397 0
0.523461 0.0820325 0.00775158
0.589624 0.0917525 0.0173342
0.662486 0.101915 0.0277256
0.74136 0.115053 0.0399176
0.813977 0.134966 0.0509041
0.877501 0.163592 0.0561685
0.913329 0.182071 0.056611
0.913329 0.182071 0.056611
0.913329 0.182071 0.056611
0.913329 0.182071 0.056611
0.913329 0.182071 0.056611
0.913329 0.182071 0.056611
0.913329 0.182071 0.056611
0.913329 0.182071 0.056611
0.913329 0.182071 0.056611
0.913329 0.182071 0.056611
0.913329 0.182071 0.056611
0.913329 0.182071 0.056611
0 0 0
0 0 0
0 0 0
0 0 0
0 0 0
0.00350958 0.000549325 0
0.0304112 0.0053254 0.000122072
0.0673686 0.0144808 0.00109865
0.112963 0.0247196 0.00236515
0.16434 0.0325322 0.000274662
0.220905 0.0388952 0
0.282231 0.0442817 0
0.342382 0.0504768 0
0.397757 0.0597238 0
0.455497 0.0703746 0
0.517403 0.0809949 0.00682078
0.582879 0.0908522 0.0164034
0.655528 0.100938 0.0267491
0.733776 0.11371 0.0387274
0.80824 0.132555 0.0502632
0.871931 0.160754 0.0561074
0.913329 0.182071 0.056611
0.913329 0.182071 0.056611
0.913329 0.182071 0.056611
0.913329 0.182071 0.056611
0.913329 0.182071 0.056611
0.913329 0.182071 0.056611
0.913329 0.182071 0.056611
0.913329 0.182071 0.056611
0.913329 0.182071 0.056611
0.913329 0.182071 0.056611
0.913329 0.182071 0.056611
0.913329 0.182071 0.056611
0 0.00256352 0.000869764
0 0.000259403 9.15541e-05
0 0 0
0 0 0
0 0.00161746 0
0 0.00758373 0.000259403
0.0252232 0.0113375 0.00144961
0.0598306 0.0179446 0.00227359
0.104601 0.0253758 0.00280766
0.155352 0.0314031 0.000488289
0.212818 0.038056 0
0.275441 0.0437324 0
0.336751 0.0498054 0
0.393271 0.0588693 0
0.450523 0.0694591 0
0.512291 0.0801251 0.00604257
0.577127 0.090074 0.0156252
0.649409 0.100084 0.0258946
0.72784 0.112642 0.0377966
0.803098 0.130953 0.0495155
0.867994 0.15874 0.0560464
0.913329 0.182071 0.056611
0.913329 0.182071 0.056611
0.913329 0.182071 0.056611
0.913329 0.182071 0.056611
0.913329 0.182071 0.056611
0.913329 0.182071 0.056611
0.913329 0.182071 0.056611
0.913329 0.182071 0.056611
0.913329 0.182071 0.056611
0.913329 0.182071 0.056611
0.913329 0.182071 0.056611
0.913329 0.182071 0.056611
0 0.0205844 0.00694286
0 0.018555 0.0062562
0 0.0163424 0.00550851
0 0.0142214 0.00479133
0 0.0135653 0.00355535
0 0.0175326 0.00216678
0.019379 0.0226139 0.00302129
0.0552377 0.0279088 0.00500496
0.0997024 0.0339971 0.00509651
0.152346 0.0408789 0.00289921
0.209293 0.0442054 0
0.269215 0.0454871 0
0.330999 0.049134 0
0.388556 0.0579843 0
0.445899 0.0686198 0
0.507332 0.0792859 0.00527962
0.571954 0.0893721 0.0149233
0.644388 0.099382 0.0251926
0.723232 0.111833 0.0370642
0.799374 0.129946 0.0489204
0.865263 0.157336 0.0560159
0.913329 0.182071 0.056611
0.913329 0.182071 0.056611
0.913329 0.182071 0.056611
0.913329 0.182071 0.056611
0.913329 0.182071 0.056611
0.913329 0.182071 0.056611
0.913329 0.182071 0.056611
0.913329 0.182071 0.056611
0.913329 0.182071 0.056611
0.913329 0.182071 0.056611
0.913329 0.182071 0.056611
0.913329 0.182071 0.056611
0 0.0396887 0.00975052
0 0.0373999 0.00946059
0 0.0354009 0.00921645
0 0.0332036 0.00894179
0 0.0320287 0.00854505
0 0.0343481 0.00680552
0.0108644 0.0359503 0.00466926
0.0490272 0.0388037 0.00668345
0.0938277 0.0439612 0.00776684
0.146319 0.0500038 0.00604257
0.206668 0.0547036 0.000503548
0.268437 0.0564584 0
0.331212 0.0576791 0
0.386664 0.0612345 0
0.440543 0.0676432 0
0.502647 0.0784772 0.00456245
0.567346 0.0887617 0.0142977
0.639658 0.0987106 0.0245212
0.718914 0.111055 0.0363775
0.796246 0.129107 0.0484169
0.863539 0.156466 0.0559854
0.913329 0.182071 0.056611
0.913329 0.182071 0.056611
0.913329 0.182071 0.056611
0.913329 0.182071 0.056611
0.913329 0.182071 0.056611
0.913329 0.182071 0.056611
0.913329 0.182071 0.056611
0.913329 0.182071 0.056611
0.913329 0.182071 0.056611
0.913329 0.182071 0.056611
0.913329 0.182071 0.056611
0.913329 0.182071 0.056611
0 0.0586252 0.0119326
0 0.0568399 0.0117342
0 0.0548867 0.0115206
0 0.0530251 0.0113069
0 0.0510719 0.0110933
0 0.0543374 0.0114595
0 0.0565652 0.00944533
0.0429084 0.0527352 0.00122072
0.0900893 0.0551461 0.00495918
0.14435 0.059617 0.00622568
0.205158 0.0649424 0.00173953
0.267872 0.0677958 0
0.333242 0.0699779 0
0.392233 0.0741894 0
0.449073 0.0817731 0
0.508049 0.0899214 0.00411994
0.570504 0.0975814 0.0137026
0.639185 0.103258 0.0236515
0.715663 0.110475 0.035874
0.793484 0.128359 0.0479744
0.861814 0.155581 0.0559701
0.913329 0.182071 0.056611
0.913329 0.182071 0.056611
0.913329 0.182071 0.056611
0.913329 0.182071 0.056611
0.913329 0.182071 0.056611
0.913329 0.182071 0.056611
0.913329 0.182071 0.056611
0.913329 0.182071 0.056611
0.913329 0.182071 0.056611
0.913329 0.182071 0.056611
0.913329 0.182071 0.056611
0.913329 0.182071 0.056611
0 0.0766613 0.0124208
0 0.0751354 0.0125124
0 0.0736248 0.012604
0 0.0720989 0.0126802
0 0.0707256 0.0127718
0 0.0717021 0.0131991
0 0.0771344 0.0138705
0.0248112 0.0767071 0.0077821
0.0789197 0.0712444 0.000732433
0.142428 0.070985 0.00247196
0.206088 0.0749218 0.000976577
0.271153 0.0786297 0
0.337362 0.0826734 0
0.398383 0.0883192 0
0.457816 0.0968948 0
0.519615 0.107729 0.00408942
0.58436 0.118959 0.01355
0.655848 0.131075 0.0222324
0.731151 0.143145 0.0302892
0.804715 0.153964 0.0401923
0.868406 0.170092 0.0493477
0.916197 0.187686 0.0536202
0.913329 0.182071 0.056611
0.913329 0.182071 0.056611
0.913329 0.182071 0.056611
0.913329 0.182071 0.056611
0.913329 0.182071 0.056611
0.913329 0.182071 0.056611
0.913329 0.182071 0.056611
0.913329 0.182071 0.056611
0.914855 0.185061 0.0550088
0.917281 0.189792 0.052491
0.919753 0.194659 0.049897
0 0.0944686 0.0115358
0 0.0930343 0.0115969
0 0.0918746 0.0116426
0 0.0905623 0.0117037
0 0.089601 0.0117494
0 0.0885786 0.0117952
0 0.0955062 0.0139773
0.0030518 0.10248 0.0137636
0.0514992 0.102907 0.00318914
0.130877 0.0889754 1.5259e-05
0.205753 0.086717 6.10361e-05
0.274113 0.0905165 0
0.342168 0.0957809 0
0.406775 0.103761 0
0.470741 0.114687 0
0.533822 0.126741 0.00511177
0.598932 0.140047 0.0135958
0.671611 0.156344 0.0212711
0.749523 0.175128 0.0269932
0.824323 0.196078 0.0300755
0.891264 0.217288 0.0294652
0.940612 0.235584 0.0281071
0.937652 0.22977 0.0311894
0.935622 0.225757 0.0333257
0.934569 0.223697 0.0344244
0.934386 0.223331 0.0346227
0.935058 0.224674 0.0339055
0.936172 0.226856 0.0327459
0.937896 0.230243 0.0309453
0.940063 0.234501 0.028687
0.942473 0.239231 0.0261692
0.944762 0.243717 0.0237736
0.946471 0.248142 0.0225223
0 0.114748 0.0106813
0 0.113634 0.0107271
0 0.112718 0.0107729
0 0.111742 0.0108034
0 0.110964 0.0108339
0 0.110475 0.0108644
0 0.110063 0.0110323
0 0.121675 0.0146944
0.0209049 0.132082 0.00880446
0.0903639 0.13167 0
0.192615 0.108751 0
0.276158 0.103914 0
0.34638 0.110399 0
0.416175 0.120211 0
0.482521 0.132219 0.000610361
0.548287 0.145754 0.00729381
0.614893 0.160983 0.0151675
0.686824 0.179553 0.0211337
0.765591 0.20235 0.0246738
0.841382 0.227817 0.0247349
0.904646 0.253788 0.0211032
0.955413 0.279332 0.0171359
0.955932 0.27631 0.0176089
0.955093 0.273793 0.0180209
0.954711 0.272633 0.0182193
0.954711 0.272633 0.0182193
0.955062 0.273701 0.0180362
0.955734 0.275731 0.0177157
0.956664 0.278553 0.0172427
0.957732 0.281743 0.0167239
0.958846 0.28513 0.0161593
0.960006 0.288624 0.0155795
0.961196 0.29221 0.0149996
0 0.137621 0.0100252
0 0.136873 0.0100404
0 0.136263 0.0100557
0 0.135851 0.010071
0 0.135653 0.010071
0 0.135515 0.010071
0 0.135439 0.0100862
0 0.138903 0.011841
0 0.152453 0.0164645
0.0393225 0.167483 0.0028687
0.151492 0.161868 0
0.262852 0.132326 0
0.350393 0.126604 0
0.423041 0.136736 0
0.493004 0.149722 0.00270085
0.559838 0.163958 0.0104372
0.627359 0.180301 0.0172885
0.699763 0.200488 0.0223545
0.776623 0.224552 0.0249332
0.849393 0.252415 0.0235752
0.911482 0.282826 0.0196841
0.959731 0.31339 0.0149844
0.967788 0.316686 0.0141756
0.9673 0.31487 0.0141909
0.967071 0.314031 0.0142061
0.967041 0.313878 0.0142061
0.967269 0.314794 0.0141909
0.967697 0.316304 0.0141756
0.968185 0.31812 0.0141604
0.968811 0.320378 0.0141451
0.969467 0.322805 0.0141299
0.970123 0.325139 0.0141146
0.970733 0.327413 0.0140993
0 0.161364 0.00994888
0 0.161181 0.00994888
0 0.16112 0.00994888
0 0.16112 0.00994888
0 0.161303 0.00994888
0 0.161807 0.00993362
0 0.162112 0.00993362
0 0.162112 0.00993362
0 0.168505 0.0137636
0.0112306 0.187198 0.00901808
0.0851301 0.205234 0
0.225345 0.195209 0
0.342473 0.156527 0
0.430381 0.155535 0
0.503151 0.167788 0.00538643
0.570077 0.182544 0.0132906
0.635279 0.198856 0.0196231
0.705516 0.218921 0.0238193
0.779599 0.243687 0.0259403
0.851728 0.27219 0.0248112
0.911772 0.304616 0.0201267
0.959716 0.338827 0.0166934
0.977935 0.352392 0.0147097
0.977462 0.350729 0.0146334
0.977157 0.349676 0.0145876
0.977111 0.349538 0.0145876
0.977264 0.350072 0.0146029
0.977523 0.350927 0.0146334
0.97792 0.352316 0.0147097
0.978347 0.353841 0.014786
0.978729 0.355245 0.0148623
0.979156 0.356771 0.0149386
0.979553 0.35816 0.0150149
0 0.187686 0.00933852
0 0.187991 0.00932326
0 0.188373 0.00932326
0 0.188861 0.009308
0 0.189624 0.00927749
0 0.190494 0.00926223
0 0.191379 0.00923171
0 0.191806 0.00921645
0 0.191684 0.00923171
0 0.203449 0.0159915
0.0366674 0.228168 0.00227359
0.169131 0.243137 0
0.312871 0.229129 0
0.428336 0.185748 0
0.511681 0.188037 0.00508125
0.579736 0.201083 0.0151675
0.643397 0.217624 0.0215
0.708873 0.237339 0.0254673
0.778943 0.261326 0.0266728
0.846815 0.289906 0.0258793
0.907652 0.322347 0.0216373
0.955856 0.357412 0.017731
0.986404 0.385718 0.0160678
0.985977 0.383886 0.0159762
0.985718 0.382742 0.0159457
0.985565 0.382101 0.0159304
0.985565 0.38204 0.0159304
0.985641 0.382422 0.0159304
0.985794 0.383062 0.0159457
0.985977 0.383886 0.0159762
0.98616 0.384649 0.0160067
0.986374 0.38558 0.0160678
0.986557 0.386343 0.0161135
0 0.216037 0.00915541
0 0.216739 0.00917067
0 0.217685 0.00918593
0 0.218647 0.00921645
0 0.219913 0.00926223
0 0.221241 0.00932326
0 0.222446 0.0093843
0 0.223392 0.00943008
0 0.223758 0.00944533
0 0.228946 0.0126192
0.0208133 0.246983 0.0107576
0.117678 0.271458 0
0.271626 0.291173 0.00296025
0.407797 0.261097 0.00456245
0.513222 0.219165 0.00178531
0.588922 0.222522 0.0139315
0.651637 0.236332 0.0218204
0.711986 0.254215 0.0258946
0.776669 0.277317 0.0275425
0.840848 0.305486 0.0263828
0.899382 0.337896 0.0234226
0.947387 0.372686 0.0198367
0.9841 0.406424 0.0187076
0.993042 0.414038 0.0182498
0.99263 0.412253 0.0180819
0.99237 0.411185 0.0179904
0.992233 0.41059 0.0179294
0.992157 0.4103 0.0178988
0.992187 0.410422 0.0179141
0.992279 0.410834 0.0179599
0.992401 0.411307 0.0179904
0.992538 0.411902 0.0180514
0.99266 0.412436 0.0180972
0 0.245701 0.0109712
0 0.246921 0.0110933
0 0.248264 0.0112154
0 0.249683 0.0113527
0 0.251225 0.0115053
0 0.252979 0.0117037
0 0.254627 0.011902
0 0.255863 0.0120546
0 0.256474 0.0121309
0 0.256001 0.0120699
0.0083772 0.273457 0.0178225
0.0823835 0.297673 0.00292973
0.23505 0.325154 0.000274662
0.377569 0.338537 0.018967
0.503716 0.291279 0.00939956
0.594476 0.25539 0.00909438
0.659297 0.259739 0.018967
0.718288 0.274067 0.0244297
0.776669 0.294667 0.026566
0.836133 0.321324 0.0264286
0.891722 0.351965 0.0238041
0.938567 0.386191 0.0220035
0.975311 0.419776 0.0216373
0.998978 0.442695 0.0225071
0.998581 0.440284 0.0220645
0.998306 0.438605 0.0217594
0.998108 0.4374 0.0215457
0.998032 0.436927 0.0214542
0.998016 0.436866 0.0214389
0.998032 0.436988 0.0214694
0.998093 0.437324 0.0215305
0.998169 0.437797 0.021622
0.99826 0.438331 0.0217136
0 0.277897 0.0148013
0 0.279683 0.0150454
0 0.281544 0.0152743
0 0.283421 0.0155184
0 0.285206 0.0157473
0 0.287221 0.016022
0 0.289113 0.0163119
0 0.29041 0.0165255
0 0.290791 0.0166018
0 0.290257 0.0165103
0.00717174 0.304997 0.0188602
0.0692302 0.327703 0.0107424
0.215335 0.357046 0.00537118
0.36286 0.385458 0.0180362
0.477516 0.382239 0.0309758
0.593744 0.324697 0.014313
0.665873 0.295583 0.0135195
0.724544 0.298894 0.0208286
0.779995 0.313451 0.0252689
0.833738 0.336751 0.0259861
0.88484 0.366751 0.0249027
0.929351 0.399649 0.0240787
0.966186 0.433112 0.0249027
0.994797 0.462593 0.0274662
1 0.46833 0.0277409
1 0.466148 0.0272679
1 0.464866 0.0270085
1 0.464164 0.0268559
1 0.463737 0.0267643
1 0.463737 0.0267643
1 0.463951 0.0268101
1 0.464164 0.0268559
1 0.464515 0.0269322
0 0.314244 0.0207218
0 0.316381 0.021149
0 0.318517 0.021561
0 0.3205 0.0219577
0 0.322637 0.022385
0 0.324681 0.022797
0 0.326268 0.0231174
0 0.327306 0.0233158
0 0.327657 0.0233768
0 0.326665 0.0231937
0.00721752 0.33724 0.0231479
0.0675059 0.361852 0.0184329
0.199985 0.390021 0.0122835
0.340856 0.421256 0.0140383
0.467887 0.438392 0.0363317
0.567971 0.419806 0.0361028
0.661524 0.36669 0.0203861
0.72517 0.33669 0.016144
0.780713 0.33872 0.0208591
0.832624 0.354513 0.0242618
0.880476 0.381811 0.0251164
0.922774 0.41471 0.0259098
0.958999 0.448051 0.0282444
0.990265 0.477897 0.0317235
1 0.496696 0.0342718
1 0.494392 0.0337224
1 0.49279 0.0333257
1 0.491875 0.0331121
1 0.491417 0.03299
1 0.491264 0.0329595
1 0.491341 0.0329747
1 0.491646 0.033051
1 0.491951 0.0331273
0.00125124 0.356191 0.0285801
0.00172427 0.358572 0.0289921
0.00221256 0.360937 0.0294041
0.00265507 0.363119 0.0297856
0.00311284 0.365393 0.0301823
0.00349432 0.367285 0.030518
0.0037995 0.368795 0.0307774
0.00396735 0.36965 0.03093
0.00387579 0.369177 0.0308385
0.00349432 0.367285 0.030518
0.00820935 0.370245 0.0298466
0.0593729 0.394766 0.0263981
0.178195 0.422446 0.0195468
0.314778 0.452415 0.0155642
0.450858 0.479591 0.0308537
0.547005 0.487266 0.0477913
0.633463 0.464469 0.0431983
0.715755 0.413809 0.0272831
0.775784 0.382818 0.0193484
0.829328 0.382376 0.0211032
0.877333 0.400793 0.0243839
0.918364 0.430777 0.0265812
0.95288 0.465293 0.0303807
0.983948 0.495659 0.0359197
0.999954 0.52076 0.0409705
1 0.522972 0.0411841
1 0.521248 0.0407111
1 0.520317 0.0404517
1 0.519768 0.0402991
1 0.519692 0.0402838
1 0.519844 0.0403296
1 0.520241 0.0404364
1 0.520546 0.0405127
0.010605 0.402106 0.0365148
0.0110933 0.404364 0.0369116
0.0115663 0.406516 0.0372778
0.011902 0.408072 0.0375525
0.0122988 0.409934 0.0378729
0.0126192 0.411399 0.0381323
0.0127871 0.412192 0.0382696
0.0127413 0.411994 0.0382239
0.0125124 0.41091 0.0380407
0.0118715 0.40798 0.0375372
0.0108492 0.403189 0.0366979
0.0349126 0.426734 0.0346532
0.153948 0.452186 0.0268254
0.291325 0.483131 0.0220798
0.42237 0.513085 0.0238346
0.535805 0.53138 0.0457465
0.61149 0.536461 0.0555734
0.687404 0.512627 0.0503853
0.762234 0.463523 0.034226
0.820142 0.431205 0.0232853
0.870832 0.430961 0.0233158
0.913405 0.450904 0.0272526
0.94725 0.482277 0.0332952
0.977966 0.512489 0.0403449
1 0.5393 0.0463722
1 0.553124 0.0494087
1 0.551354 0.0489204
1 0.550256 0.0486305
1 0.549828 0.0485084
1 0.54992 0.0485237
1 0.550332 0.0486458
1 0.550927 0.0488136
1 0.55169 0.049012
0.0203403 0.448814 0.0445563
0.0207065 0.45066 0.0448768
0.0209964 0.452018 0.0451057
0.0212406 0.453162 0.045304
0.0214542 0.454215 0.0454871
0.021561 0.454734 0.0455787
0.021561 0.454734 0.0455787
0.0213931 0.453895 0.0454261
0.0209812 0.451911 0.0450904
0.0202182 0.448203 0.0444495
0.0191501 0.442954 0.0435492
0.0326543 0.455772 0.0409247
0.132082 0.48217 0.0349279
0.269444 0.513436 0.0295262
0.394461 0.542824 0.025742
0.513558 0.569772 0.0370642
0.603204 0.58262 0.056199
0.664668 0.587533 0.0625772
0.732982 0.56437 0.058854
0.802976 0.515999 0.0430762
0.858793 0.483314 0.0306554
0.90457 0.485069 0.0306096
0.941588 0.505135 0.0361028
0.971786 0.533089 0.0439307
0.996704 0.558755 0.0514687
1 0.582193 0.0572213
1 0.582666 0.0572976
1 0.581888 0.0570993
1 0.58172 0.0570535
1 0.581979 0.0571145
1 0.582666 0.0572976
1 0.583703 0.057557
1 0.584909 0.0578775
0.0302281 0.495888 0.0525521
0.030457 0.497002 0.0527504
0.0306096 0.497673 0.0528572
0.0306554 0.497902 0.0528878
0.0307012 0.498131 0.0529335
0.0307164 0.498238 0.0529488
0.0306249 0.497795 0.0528725
0.0303349 0.496452 0.0526436
0.0298466 0.494087 0.0522469
0.0289921 0.490059 0.0515755
0.0277256 0.484001 0.0505379
0.0283818 0.478676 0.0488746
0.104036 0.51574 0.0426947
0.246784 0.542901 0.0372168
0.372869 0.573709 0.0325322
0.487633 0.600946 0.0322423
0.586587 0.62211 0.049424
0.656397 0.633219 0.0634318
0.710735 0.638498 0.0691844
0.773236 0.617029 0.0667735
0.838956 0.567163 0.0527352
0.891203 0.536889 0.0406348
0.931914 0.540459 0.041062
0.96408 0.560281 0.0479591
0.992645 0.581933 0.0554055
1 0.602426 0.0619211
1 0.615152 0.0654765
1 0.614496 0.0653086
1 0.614679 0.0653544
1 0.615351 0.065507
1 0.616388 0.0657664
1 0.617624 0.0660563
1 0.61915 0.0664073
0.0400092 0.54139 0.0600137
0.0400549 0.541619 0.0600595
0.0400854 0.541726 0.0600748
0.0400092 0.54139 0.0600137
0.0400397 0.541497 0.0600443
0.0400092 0.54139 0.0600137
0.039826 0.540581 0.0598917
0.0395361 0.53933 0.059678
0.0389258 0.53669 0.0592508
0.0379644 0.53225 0.0585336
0.0366522 0.526162 0.0575418
0.0348974 0.517937 0.056199
0.0853132 0.547784 0.0488441
0.232654 0.574182 0.0445106
0.359075 0.604456 0.0399634
0.469718 0.631113 0.0369116
0.568383 0.655283 0.042298
0.648386 0.670604 0.0599985
0.705699 0.682628 0.0704356
0.753796 0.687922 0.0757763
0.811261 0.66537 0.0746319
0.871611 0.615259 0.0622263
0.918029 0.590799 0.0521706
0.95433 0.595331 0.053254
0.984558 0.61059 0.0592966
1 0.627985 0.0659037
1 0.644587 0.0718242
1 0.649943 0.0736248
1 0.650141 0.0736706
1 0.650828 0.0738231
1 0.651713 0.0740368
1 0.653101 0.0743572
1 0.654368 0.0746471
0.0497597 0.583825 0.0670176
0.0497444 0.583703 0.0670024
0.0497139 0.583597 0.0669871
0.0496376 0.583246 0.0669261
0.0496376 0.583246 0.0669261
0.0495308 0.582788 0.0668498
0.0493935 0.582208 0.0667582
0.0490425 0.580713 0.0664988
0.0484016 0.577935 0.0660258
0.0473945 0.573556 0.0652934
0.0459449 0.56733 0.0642405
0.0439918 0.558816 0.0628519
0.0961929 0.575448 0.056733
0.230564 0.607477 0.0511788
0.355764 0.636057 0.0469368
0.463859 0.662318 0.0435492
0.557992 0.685359 0.0424353
0.640894 0.705135 0.0544442
0.704005 0.717098 0.0694438
0.75256 0.729107 0.0773175
0.797055 0.73344 0.0822766
0.852338 0.703349 0.0809644
0.904326 0.657191 0.0698863
0.943832 0.640055 0.0630655
0.97528 0.643854 0.0643778
0.996124 0.655024 0.069276
1 0.668299 0.0751965
1 0.682002 0.0804456
1 0.683223 0.0809186
1 0.683619 0.0809949
1 0.684398 0.0811627
1 0.685374 0.0813764
1 0.686549 0.0816205
0.0662852 0.625238 0.0768139
0.0661784 0.624994 0.0767529
0.0661326 0.624872 0.0767224
0.0658579 0.624277 0.0765698
0.0657969 0.624155 0.0765393
0.0656901 0.623911 0.0764782
0.0652476 0.622934 0.0762188
0.0645457 0.621363 0.0758221
0.0633402 0.618708 0.0751354
0.0612039 0.613977 0.0739147
0.0583047 0.607553 0.0722515
0.0543069 0.598718 0.0699779
0.0966812 0.604379 0.0645609
0.240299 0.641077 0.0575875
0.366461 0.669123 0.0535134
0.471626 0.694118 0.0495918
0.560525 0.716091 0.0474098
0.64123 0.736339 0.0527962
0.705379 0.748669 0.0678569
0.757977 0.761166 0.0788434
0.799893 0.773053 0.0847639
0.84329 0.771313 0.0892958
0.892882 0.731777 0.0863661
0.934264 0.695262 0.0767529
0.966522 0.682918 0.0728771
0.992386 0.684688 0.0739147
1 0.691966 0.0775158
1 0.702464 0.0825513
1 0.712261 0.0870985
1 0.712352 0.0871138
1 0.713008 0.0872053
1 0.71368 0.0872969
1 0.714336 0.0874037
0.0801709 0.65594 0.0846876
0.0801709 0.65594 0.0846876
0.0801709 0.65594 0.0846876
0.0801709 0.65594 0.0846876
0.0801709 0.65594 0.0846876
0.0801709 0.65594 0.0846876
0.0801709 0.65594 0.0846876
0.0801709 0.65594 0.0846876
0.0801709 0.65594 0.0846876
0.0789654 0.653269 0.0840009
0.0757153 0.646082 0.0821546
0.0713512 0.636454 0.0796826
0.115755 0.641581 0.0719158
0.270497 0.674968 0.0629435
0.392813 0.702678 0.0589303
0.492088 0.725826 0.0552987
0.575341 0.744869 0.0531014
0.650553 0.763729 0.055375
0.712398 0.777188 0.0675059
0.765606 0.78941 0.0800488
0.809537 0.802274 0.0871748
0.847257 0.810056 0.0922255
0.887343 0.796262 0.0951095
0.927001 0.755398 0.0903487
0.958663 0.727245 0.0835584
0.984192 0.718608 0.0811017
0.997482 0.71931 0.0818341
1 0.7234 0.0840772
1 0.728985 0.087068
1 0.736553 0.0906386
1 0.736736 0.0906691
1 0.737118 0.0907149
1 0.737591 0.0907759
0.0801709 0.65594 0.0846876
0.0801709 0.65594 0.0846876
0.0801709 0.65594 0.0846876
0.0801709 0.65594 0.0846876
0.0801709 0.65594 0.0846876
0.0801709 0.65594 0.0846876
0.0801709 0.65594 0.0846876
0.0801709 0.65594 0.0846876
0.0801709 0.65594 0.0846876
0.0801709 0.65594 0.0846876
0.0801709 0.65594 0.0846876
0.0801709 0.65594 0.0846876
0.161273 0.684535 0.0769207
0.319402 0.70985 0.0676738
0.429282 0.733761 0.0637522
0.521874 0.755566 0.0602579
0.599359 0.772839 0.0582437
0.668162 0.788571 0.0602731
0.725917 0.801541 0.0699931
0.777386 0.813458 0.0822461
0.819776 0.825177 0.089662
0.855131 0.834165 0.0949111
0.889235 0.833051 0.0991989
0.92314 0.804547 0.0986191
0.953704 0.773724 0.0939193
0.978256 0.752621 0.0892195
0.995178 0.748562 0.0881971
1 0.747372 0.0881056
1 0.749981 0.0896773
1 0.753277 0.0915084
1 0.756573 0.0932784
1 0.756848 0.0933089
1 0.757137 0.0933394
0.0801709 0.65594 0.0846876
0.0801709 0.65594 0.0846876
0.0801709 0.65594 0.0846876
0.0801709 0.65594 0.0846876
0.0801709 0.65594 0.0846876
0.0801709 0.65594 0.0846876
0.0801709 0.65594 0.0846876
0.0801709 0.65594 0.0846876
0.0801709 0.65594 0.0846876
