tracker_LUT/LUT/Yellowstone.cube
TITLE "Generated by Resolve"
LUT_3D_SIZE 5
0 0 0
0.142031 0.029572 0.00134279
0.602853 0.0935378 0.0191348
0.913329 0.182071 0.056611
0.913329 0.182071 0.056611
0 0.0766613 0.0124208
0.0789197 0.0712444 0.000732433
0.58436 0.118959 0.01355
0.913329 0.182071 0.056611
0.919753 0.194659 0.049897
0 0.277897 0.0148013
0 0.290791 0.0166018
0.665873 0.295583 0.0135195
1 0.46833 0.0277409
1 0.464515 0.0269322
0.0662852 0.625238 0.0768139
0.0633402 0.618708 0.0751354
0.560525 0.716091 0.0474098
0.966522 0.682918 0.0728771
1 0.714336 0.0874037
0.0801709 0.65594 0.0846876
0.23859 0.710658 0.0704509
0.780743 0.889952 0.152773
0.963119 0.937881 0.255543
1 0.929351 0.383413
0 0.0187991 0.0998398
0.0790265 0.0415045 0.0844434
0.595438 0.105425 0.0585794
0.91426 0.183688 0.0569772
0.913329 0.182071 0.056611
0 0.0680705 0.0882887
0.0343938 0.0821393 0.0836194
0.599054 0.120623 0.0319066
0.913329 0.182071 0.056611
0.927977 0.206104 0.0480507
0 0.283696 0.0155642
0 0.296742 0.0175784
0.672312 0.299702 0.0138094
1 0.468772 0.0278477
1 0.464668 0.0269627
0.0667277 0.626215 0.0770733
0.0636149 0.619303 0.075288
0.569528 0.718608 0.0473945
0.96492 0.682628 0.0728466
1 0.715755 0.087602
0.0799725 0.654414 0.0899977
0.174243 0.753124 0.252567
0.781369 0.912398 0.397589
0.963714 0.950637 0.440192
1 0.943908 0.606256
0 0.141299 0.360998
0.00616464 0.145754 0.330617
0.397467 0.183993 0.236988
0.875593 0.340047 0.300221
0.87689 0.3393 0.297765
0 0.165866 0.359579
0.00471504 0.177752 0.380591
0.388586 0.202884 0.253849
0.874388 0.340734 0.302541
0.876768 0.35433 0.316945
0.0106813 0.288869 0.38262
0.0144503 0.302403 0.402304
0.426581 0.496971 0.455283
0.990402 0.632731 0.437797
0.990478 0.626398 0.429007
0.0969406 0.786648 0.696757
0.0945296 0.777646 0.683253
0.357885 0.737346 0.377997
0.945281 0.783398 0.206104
1 0.837888 0.399329
0.116945 0.842664 0.814527
0.150866 0.857588 0.85713
0.770352 0.935195 0.673198
0.952377 0.961044 0.718318
0.999146 0.959915 0.806531
0.026154 0.309209 0.693202
0.046952 0.315572 0.681788
0.125444 0.348577 0.649485
0.801648 0.461311 0.559899
0.80441 0.456809 0.549508
0.0336004 0.338552 0.711604
0.0477455 0.35082 0.730419
0.126085 0.359472 0.665919
0.795438 0.471382 0.583154
0.797452 0.475319 0.588113
0.0549325 0.419974 0.741787
0.0588846 0.434226 0.761257
0.170169 0.515236 0.820172
0.933165 0.689647 0.740444
0.932723 0.685985 0.735485
0.0973983 0.621027 0.796643
0.0955367 0.615228 0.787381
0.167086 0.661021 0.804288
0.897841 0.85951 0.767559
1 0.893065 0.800381
0.113832 0.686473 0.833997
0.149691 0.731228 0.872129
0.524712 0.915419 0.935744
0.944106 0.962875 0.863554
0.993927 0.971496 0.89218
0.026154 0.309209 0.693202
0.0459449 0.315282 0.682399
0.124178 0.347845 0.649348
0.795438 0.471382 0.583154
0.795438 0.471382 0.583154
0.0333715 0.33756 0.710933
0.0482338 0.351919 0.731426
0.132311 0.36701 0.672755
0.795438 0.471382 0.583154
0.800305 0.480934 0.595163
0.0619516 0.445701 0.782162
0.0627298 0.448646 0.784024
0.165316 0.542718 0.876722
0.914839 0.684367 0.812665
0.914137 0.682582 0.811246
0.100664 0.614145 0.859205
0.0990616 0.607141 0.856489
0.16582 0.650462 0.901396
0.86891 0.877943 0.900862
0.99292 0.897047 0.883604
0.109102 0.648371 0.871824
0.154742 0.707301 0.906874
0.6318 0.889418 0.947509
0.939452 0.967224 0.911055
0.990005 0.979187 0.920531
