tracker_LUT/LUT/Yellowstone.cube
TITLE "Generated by Resolve"
LUT_3D_SIZE 9
0 0 0
0.00047303 7.62951e-05 0
0.142031 0.029572 0.00134279
0.360845 0.0531777 0
0.602853 0.0935378 0.0191348
0.888731 0.169345 0.0563211
0.913329 0.182071 0.056611
0.913329 0.182071 0.056611
0.913329 0.182071 0.056611
0 0.00256352 0.000869764
0 0.00161746 0
0.104601 0.0253758 0.00280766
0.336751 0.0498054 0
0.577127 0.090074 0.0156252
0.867994 0.15874 0.0560464
0.913329 0.182071 0.056611
0.913329 0.182071 0.056611
0.913329 0.182071 0.056611
0 0.0766613 0.0124208
0 0.0707256 0.0127718
0.0789197 0.0712444 0.000732433
0.337362 0.0826734 0
0.58436 0.118959 0.01355
0.868406 0.170092 0.0493477
0.913329 0.182071 0.056611
0.913329 0.182071 0.056611
0.919753 0.194659 0.049897
0 0.161364 0.00994888
0 0.161303 0.00994888
0 0.168505 0.0137636
0.342473 0.156527 0
0.635279 0.198856 0.0196231
0.911772 0.304616 0.0201267
0.977157 0.349676 0.0145876
0.97792 0.352316 0.0147097
0.979553 0.35816 0.0150149
0 0.277897 0.0148013
0 0.285206 0.0157473
0 0.290791 0.0166018
0.215335 0.357046 0.00537118
0.665873 0.295583 0.0135195
0.88484 0.366751 0.0249027
1 0.46833 0.0277409
1 0.463737 0.0267643
1 0.464515 0.0269322
0.0203403 0.448814 0.0445563
0.0214542 0.454215 0.0454871
0.0209812 0.451911 0.0450904
0.132082 0.48217 0.0349279
0.603204 0.58262 0.056199
0.858793 0.483314 0.0306554
0.996704 0.558755 0.0514687
1 0.58172 0.0570535
1 0.584909 0.0578775
0.0662852 0.625238 0.0768139
0.0657969 0.624155 0.0765393
0.0633402 0.618708 0.0751354
0.0966812 0.604379 0.0645609
0.560525 0.716091 0.0474098
0.799893 0.773053 0.0847639
0.966522 0.682918 0.0728771
1 0.712261 0.0870985
1 0.714336 0.0874037
0.0801709 0.65594 0.0846876
0.0801709 0.65594 0.0846876
0.0801709 0.65594 0.0846876
0.28864 0.717174 0.070161
0.659464 0.820432 0.0664988
0.847745 0.862257 0.095552
0.951919 0.837873 0.104967
1 0.788632 0.0958419
1 0.825895 0.146609
0.0801709 0.65594 0.0846876
0.0801709 0.65594 0.0846876
0.23859 0.710658 0.0704509
0.564569 0.800061 0.0826123
0.780743 0.889952 0.152773
0.899275 0.928542 0.19762
0.963119 0.937881 0.255543
0.999542 0.926665 0.271809
1 0.929351 0.383413
0 0 0.0223239
0 6.10361e-05 0.0197452
0.126757 0.030518 0.0212253
0.359014 0.052903 0
0.600412 0.0932021 0.0187991
0.886412 0.168154 0.0562905
0.913329 0.182071 0.056611
0.913329 0.182071 0.056611
0.913329 0.182071 0.056611
0 0.00015259 0.00941482
0 0.0011902 0.00610361
0.100328 0.0235142 0.00297551
0.334798 0.0495766 0
0.575692 0.0898756 0.0154269
0.867079 0.158267 0.0560311
0.913329 0.182071 0.056611
0.913329 0.182071 0.056611
0.913329 0.182071 0.056611
0 0.075288 0.0125124
0 0.0697642 0.0128176
0.0768902 0.0706035 0.000976577
0.337362 0.0826734 0
0.587228 0.120272 0.0138552
0.87306 0.174655 0.0481422
0.913329 0.182071 0.056611
0.913649 0.182696 0.0562753
0.92314 0.201266 0.0463722
0 0.161746 0.00993362
0 0.162432 0.00993362
0 0.171374 0.0142367
0.350652 0.159197 0
0.643656 0.203067 0.0204318
0.91754 0.31078 0.019791
0.978042 0.352789 0.014725
0.978561 0.35465 0.0148318
0.979904 0.359411 0.0150759
0 0.281041 0.0152132
0 0.288808 0.0162661
0 0.294301 0.0171817
0.228061 0.363165 0.00570687
0.67042 0.298451 0.0137331
0.887098 0.368948 0.0248569
1 0.468986 0.0278935
1 0.46424 0.0268711
1 0.464866 0.0270085
0.0210574 0.452338 0.0451667
0.0218509 0.456092 0.0458076
0.0211795 0.452857 0.0452583
0.137255 0.484276 0.0348363
0.604807 0.584024 0.0564126
0.859724 0.484718 0.0308537
0.997055 0.560296 0.0518654
1 0.582589 0.0572671
1 0.586633 0.05832
0.0668345 0.626459 0.0771344
0.0661784 0.624994 0.0767529
0.0637217 0.619547 0.075349
0.104433 0.607584 0.0641184
0.565515 0.717952 0.0475166
0.801862 0.774121 0.0850538
0.966125 0.683528 0.0730297
1 0.71162 0.0866102
1 0.715373 0.0875563
0.0801709 0.65594 0.0846876
0.0801709 0.65594 0.0846876
0.0801709 0.65594 0.0846876
0.317098 0.721508 0.0700084
0.669108 0.821134 0.0661631
0.852064 0.861997 0.0962539
0.953002 0.834211 0.104494
1 0.821408 0.13164
1 0.845899 0.175341
0.0801709 0.65594 0.0846876
0.0801709 0.65594 0.0846876
0.251225 0.74255 0.109804
0.548638 0.823407 0.228443
0.777584 0.900923 0.293996
0.899199 0.934554 0.314626
0.963287 0.944915 0.343709
1 0.935485 0.350515
1 0.936645 0.502052
0 0.0187991 0.0998398
0 0.0229496 0.0921645
0.0790265 0.0415045 0.0844434
0.295384 0.0748302 0.0812085
0.595438 0.105425 0.0585794
0.889372 0.178637 0.0600443
0.91426 0.183688 0.0569772
0.913329 0.182071 0.056611
0.913329 0.182071 0.056611
0 0.0207218 0.0870985
0 0.0172885 0.0805524
0.0537881 0.0323644 0.0702983
0.284886 0.0666972 0.0640116
0.569894 0.0939803 0.0433509
0.868055 0.163516 0.0585489
0.913329 0.182071 0.056611
0.913329 0.182071 0.056611
0.913329 0.182071 0.056611
0 0.0680705 0.0882887
0 0.0614481 0.0804913
0.0343938 0.0821393 0.0836194
0.323751 0.104448 0.0517281
0.599054 0.120623 0.0319066
0.878798 0.179187 0.0507973
0.913329 0.182071 0.056611
0.916701 0.188296 0.0542611
0.927977 0.206104 0.0480507
0 0.174212 0.0327306
0 0.177005 0.03505
0 0.178866 0.0322576
0.353765 0.166552 7.62951e-05
0.650248 0.206394 0.0210574
0.921721 0.315312 0.0195468
0.978683 0.355047 0.014847
0.978943 0.355962 0.0148928
0.980041 0.359884 0.0151064
0 0.283696 0.0155642
0 0.29163 0.0167391
0 0.296742 0.0175784
0.23714 0.367575 0.00590524
0.672312 0.299702 0.0138094
0.887831 0.369497 0.0248417
1 0.468772 0.0278477
1 0.463951 0.0268101
1 0.464668 0.0269627
0.0214542 0.454215 0.0454871
0.0219577 0.456611 0.0458839
0.0211795 0.452857 0.0452583
0.138918 0.484398 0.034699
0.604837 0.58381 0.0564279
0.859907 0.484352 0.0307774
0.99707 0.560265 0.0518654
1 0.583185 0.057435
1 0.587671 0.0585946
0.0667277 0.626215 0.0770733
0.0660716 0.62475 0.0766918
0.0636149 0.619303 0.075288
0.111742 0.609308 0.063447
0.569528 0.718608 0.0473945
0.802579 0.77348 0.0851301
0.96492 0.682628 0.0728466
1 0.709392 0.0856336
1 0.715755 0.087602
0.0801709 0.65594 0.0846876
0.0801709 0.65594 0.0846876
0.0801709 0.65594 0.0846876
0.344472 0.726238 0.0698558
0.677958 0.821057 0.0657511
0.854078 0.866209 0.103716
0.950851 0.867338 0.136919
0.999771 0.846845 0.162661
1 0.863691 0.201617
0.0799725 0.654414 0.0899977
0.0771191 0.642588 0.191821
0.174243 0.753124 0.252567
0.538628 0.853117 0.331029
0.781369 0.912398 0.397589
0.901106 0.94078 0.409033
0.963714 0.950637 0.440192
1 0.942123 0.470298
1 0.943908 0.606256
0 0.0742962 0.21677
0 0.0749065 0.209125
0.00257877 0.0858778 0.197848
0.202457 0.100359 0.164126
0.500648 0.148425 0.162387
0.885359 0.264271 0.178668
0.934295 0.271351 0.151339
0.937011 0.262943 0.136339
0.937636 0.260945 0.132769
0 0.073518 0.207858
0 0.0673838 0.200305
0 0.0765698 0.186923
0.187518 0.0930343 0.155428
0.47837 0.140063 0.153719
0.873167 0.246494 0.16173
0.936599 0.26421 0.138582
0.937453 0.261555 0.133867
0.935958 0.266194 0.142138
0 0.100175 0.213031
0 0.0955978 0.20734
0 0.11313 0.225986
0.191135 0.134112 0.180011
0.502098 0.174243 0.171771
0.884215 0.261204 0.167208
0.933822 0.272816 0.153948
0.93315 0.278004 0.161395
0.937163 0.297902 0.177005
0 0.16527 0.203784
0 0.167941 0.207065
0 0.17911 0.218524
0.187716 0.24979 0.229862
0.620096 0.301701 0.191516
0.932647 0.398398 0.157824
0.993912 0.42063 0.129809
0.993851 0.420951 0.128954
0.993912 0.428092 0.13724
0.00288396 0.387488 0.247166
0.00753796 0.407813 0.2795
0.0108949 0.419547 0.300664
0.0792554 0.39263 0.170687
0.635233 0.364584 0.0629129
0.872251 0.433967 0.066392
0.999969 0.518303 0.0665141
0.999954 0.50959 0.0620432
0.999908 0.514733 0.0658274
0.0179294 0.510369 0.181247
0.0190738 0.514855 0.190921
0.0178531 0.509941 0.186343
0.060502 0.485603 0.11632
0.571313 0.584939 0.0598459
0.850706 0.484947 0.0381323
0.994598 0.549493 0.0492256
1 0.58172 0.0588693
1 0.612177 0.0811322
0.0658274 0.606363 0.152728
0.0653849 0.605493 0.152712
0.063447 0.601205 0.146746
0.0640116 0.599084 0.101778
0.558267 0.709484 0.0481727
0.796613 0.766674 0.0872969
0.961608 0.696513 0.090837
1 0.744152 0.130144
1 0.780163 0.165301
0.0771649 0.636179 0.173129
0.0770581 0.649683 0.212497
0.0766613 0.667018 0.261784
0.210391 0.768811 0.236545
0.630243 0.828244 0.266514
0.836469 0.883879 0.222934
0.942901 0.895506 0.200015
0.999023 0.872633 0.201709
1 0.88452 0.300771
0.0742504 0.714931 0.388388
0.0804913 0.753475 0.486839
0.14548 0.785916 0.502693
0.489982 0.877836 0.462959
0.779995 0.922301 0.520989
0.897902 0.947417 0.543175
0.960128 0.957122 0.572259
0.998138 0.94966 0.614298
1 0.951476 0.712139
0 0.141299 0.360998
0 0.140047 0.350698
0.00616464 0.145754 0.330617
0.0542153 0.157626 0.304662
0.397467 0.183993 0.236988
0.812528 0.301701 0.281224
0.875593 0.340047 0.300221
0.876722 0.339406 0.29807
0.87689 0.3393 0.297765
0 0.136324 0.34815
0 0.132586 0.341726
0.000839246 0.138842 0.32253
0.0462043 0.150179 0.295064
0.368719 0.176211 0.233753
0.792996 0.288777 0.271611
0.876326 0.339635 0.298833
0.876463 0.339559 0.298589
0.875471 0.340124 0.300481
0 0.165866 0.359579
0 0.161822 0.35404
0.00471504 0.177752 0.380591
0.0520638 0.17705 0.327718
0.388586 0.202884 0.253849
0.804883 0.300649 0.280903
0.874388 0.340734 0.302541
0.873732 0.3411 0.303777
0.876768 0.35433 0.316945
0 0.193088 0.357015
0 0.195712 0.360754
0.000701915 0.203952 0.371618
0.0703441 0.268421 0.448722
0.470939 0.362066 0.382895
0.852918 0.48809 0.439277
0.944396 0.51696 0.444205
0.945464 0.514275 0.438468
0.947738 0.517739 0.439429
0.0106813 0.288869 0.38262
0.0131685 0.297688 0.395483
0.0144503 0.302403 0.402304
0.0565652 0.35697 0.448569
0.426581 0.496971 0.455283
0.814343 0.572244 0.451499
0.990402 0.632731 0.437797
0.990494 0.624704 0.426337
0.990478 0.626398 0.429007
0.0703899 0.629892 0.64419
0.0705119 0.629358 0.644785
0.0692149 0.624521 0.639017
0.0788281 0.626154 0.619425
0.315526 0.618631 0.393347
0.798047 0.633448 0.258442
0.967132 0.700252 0.319219
1 0.729747 0.324178
1 0.742275 0.36025
0.0969406 0.786648 0.696757
0.0962844 0.784466 0.692226
0.0945296 0.777646 0.683253
0.0872358 0.74432 0.633844
0.357885 0.737346 0.377997
0.748791 0.804852 0.329351
0.945281 0.783398 0.206104
0.999283 0.814557 0.321584
1 0.837888 0.399329
0.102998 0.820966 0.689433
0.105669 0.827909 0.713863
0.108782 0.834897 0.742275
0.142245 0.839307 0.674144
0.55668 0.856367 0.497673
0.806882 0.892195 0.512032
0.930404 0.914809 0.462242
0.993286 0.897917 0.455055
1 0.905348 0.584161
0.116945 0.842664 0.814527
0.11957 0.836179 0.834455
0.150866 0.857588 0.85713
0.25864 0.898283 0.814084
0.770352 0.935195 0.673198
0.888594 0.948959 0.706737
0.952377 0.961044 0.718318
0.990158 0.956283 0.751064
0.999146 0.959915 0.806531
0.0121462 0.257862 0.603082
0.0125582 0.253391 0.592691
0.0328069 0.252995 0.564309
0.0539864 0.244358 0.505882
0.174182 0.278462 0.466468
0.759411 0.332418 0.352956
0.845869 0.35938 0.359869
0.847303 0.356939 0.355016
0.847318 0.356909 0.354955
0.00874342 0.245808 0.580438
0.00755322 0.241642 0.572091
0.0259556 0.24152 0.547555
0.0489509 0.234485 0.489769
0.157412 0.266056 0.45301
0.741115 0.322164 0.344717
0.846265 0.358694 0.358495
0.846235 0.358755 0.358618
0.844663 0.361425 0.363912
0.014023 0.265797 0.577081
0.0127871 0.261326 0.570779
0.0295415 0.275441 0.592798
0.0534218 0.260502 0.528481
0.167468 0.284871 0.474098
0.757885 0.33402 0.355245
0.842756 0.364675 0.370382
0.841703 0.366674 0.37409
0.842786 0.379858 0.391058
0.018265 0.282582 0.553063
0.0196231 0.287587 0.560708
0.0239261 0.296407 0.573053
0.0704204 0.349554 0.643366
0.221927 0.396002 0.596536
0.80235 0.509834 0.53077
0.90811 0.546258 0.556374
0.908232 0.543175 0.551034
0.909468 0.547463 0.555489
0.0280919 0.322805 0.553429
0.0305791 0.332433 0.567971
0.0318303 0.337102 0.575311
0.0652476 0.375875 0.6112
0.199664 0.459937 0.659998
0.747875 0.598581 0.595056
0.961944 0.672648 0.636759
0.962295 0.665736 0.62623
0.962707 0.667109 0.627268
0.0576028 0.471107 0.626734
0.0576333 0.471778 0.625452
0.0564584 0.467857 0.618006
0.0672313 0.469657 0.60914
0.169635 0.567926 0.67509
0.721325 0.709987 0.626825
0.938064 0.761456 0.642145
0.99292 0.783459 0.648447
0.993484 0.790707 0.660426
0.108736 0.726879 0.805051
0.108873 0.731762 0.805432
0.107637 0.730999 0.800473
0.101869 0.71107 0.773617
0.193606 0.77937 0.792248
0.700465 0.818265 0.620951
0.920989 0.832242 0.568093
0.988098 0.85771 0.640803
1 0.874235 0.673915
0.121782 0.796109 0.849867
0.121782 0.794858 0.849958
0.121767 0.792554 0.850126
0.145769 0.821241 0.866484
0.294469 0.868727 0.831434
0.795163 0.900618 0.702403
0.916823 0.923003 0.687831
0.978637 0.915831 0.702113
0.99794 0.924346 0.760937
0.121523 0.772824 0.850431
0.120912 0.762448 0.848768
0.151293 0.79292 0.877104
0.225589 0.851972 0.917235
0.635706 0.94403 0.840177
0.885985 0.952056 0.81001
0.946059 0.961303 0.818112
0.981826 0.961379 0.834882
0.996475 0.966995 0.86511
0.026154 0.309209 0.693202
0.026154 0.309209 0.693202
0.046952 0.315572 0.681788
0.0725109 0.324147 0.665583
0.125444 0.348577 0.649485
0.677028 0.448692 0.592508
0.801648 0.461311 0.559899
0.804654 0.456413 0.548623
0.80441 0.456809 0.549508
0.026154 0.309209 0.693202
0.026154 0.309209 0.693202
0.042771 0.314687 0.685069
0.0696727 0.323537 0.66775
0.118379 0.344533 0.648722
0.648432 0.442039 0.601038
0.801343 0.461799 0.561028
0.800946 0.46244 0.562524
0.797238 0.468452 0.57641
0.0336004 0.338552 0.711604
0.0332036 0.336873 0.710475
0.0477455 0.35082 0.730419
0.0747692 0.350958 0.70573
0.126085 0.359472 0.665919
0.693095 0.452308 0.587182
0.795438 0.471382 0.583154
0.795438 0.471382 0.583154
0.797452 0.475319 0.588113
0.0457618 0.384833 0.742657
0.0462959 0.386969 0.744183
0.0485695 0.391058 0.748012
0.0921187 0.440085 0.808347
0.16643 0.471946 0.801038
0.731411 0.563699 0.753048
0.869169 0.584527 0.699367
0.868681 0.582422 0.693965
0.870069 0.584817 0.696757
0.0549325 0.419974 0.741787
0.0576181 0.429786 0.754986
0.0588846 0.434226 0.761257
0.0870222 0.461372 0.783444
0.170169 0.515236 0.820172
0.629191 0.638544 0.775021
0.933165 0.689647 0.740444
0.932677 0.684382 0.732723
0.932723 0.685985 0.735485
0.0704662 0.491936 0.762234
0.0705425 0.491905 0.763226
0.0693828 0.487434 0.75874
0.0775921 0.482765 0.747692
0.157992 0.552697 0.79353
0.610071 0.707378 0.801984
0.911986 0.770596 0.767391
0.975952 0.795163 0.782223
0.977554 0.801678 0.787472
0.0973983 0.621027 0.796643
0.0972152 0.620783 0.794781
0.0955367 0.615228 0.787381
0.0900282 0.591379 0.757916
0.167086 0.661021 0.804288
0.550835 0.813474 0.835294
0.897841 0.85951 0.767559
0.971099 0.879896 0.787503
1 0.893065 0.800381
0.114153 0.688746 0.83331
0.114351 0.690227 0.832868
0.114641 0.692393 0.832212
0.142229 0.729671 0.856306
0.236255 0.794705 0.888685
0.717937 0.916686 0.843946
0.908553 0.925383 0.799558
0.966537 0.926436 0.80557
0.991775 0.935561 0.833097
0.113832 0.686473 0.833997
0.114717 0.687099 0.835157
0.149691 0.731228 0.872129
0.20824 0.789883 0.912291
0.524712 0.915419 0.935744
0.86389 0.961028 0.86508
0.944106 0.962875 0.863554
0.977142 0.965759 0.874952
0.993927 0.971496 0.89218
0.026154 0.309209 0.693202
0.026154 0.309209 0.693202
0.0462501 0.315373 0.682216
0.0719921 0.324041 0.66598
0.124285 0.347921 0.649363
0.667567 0.446571 0.595651
0.795438 0.471382 0.583154
0.795438 0.471382 0.583154
0.795438 0.471382 0.583154
0.026154 0.309209 0.693202
0.026154 0.309209 0.693202
0.0420844 0.314595 0.685725
0.0692607 0.323461 0.66807
0.118044 0.34435 0.648692
0.646525 0.441947 0.602564
0.795438 0.471382 0.583154
0.795438 0.471382 0.583154
0.795438 0.471382 0.583154
0.0333562 0.337514 0.710903
0.033051 0.336248 0.710048
0.0474708 0.350362 0.729992
0.0749676 0.351461 0.70631
0.128176 0.36173 0.667781
0.702983 0.455131 0.585031
0.795438 0.471382 0.583154
0.795438 0.471382 0.583154
0.798383 0.477165 0.590417
0.0458686 0.385214 0.742931
0.0464637 0.387717 0.744701
0.049485 0.392752 0.749569
0.0929122 0.441749 0.809644
0.168566 0.474067 0.80235
0.730083 0.568795 0.772671
0.865034 0.585092 0.717098
0.863493 0.582696 0.714519
0.864851 0.584802 0.716793
0.0615244 0.444007 0.781064
0.0622873 0.446983 0.782986
0.0624704 0.44773 0.783475
0.092607 0.48188 0.820157
0.163638 0.54107 0.875914
0.56817 0.678584 0.874189
0.914641 0.684382 0.806745
0.91429 0.681025 0.799847
0.914839 0.682673 0.80238
0.0795148 0.517296 0.821012
0.0793469 0.516579 0.820706
0.0786908 0.513649 0.819455
0.0902266 0.521569 0.828992
0.148074 0.577874 0.872023
0.521462 0.710475 0.887465
0.890913 0.780362 0.842008
0.961868 0.803738 0.843976
0.964538 0.810239 0.845701
0.100008 0.612268 0.855772
0.0994888 0.610712 0.853315
0.0975814 0.604166 0.845685
0.0939345 0.582315 0.821881
0.169512 0.642374 0.858457
0.542 0.769619 0.873426
0.880461 0.870558 0.853605
0.960861 0.884962 0.851865
0.998459 0.896468 0.857343
0.109789 0.655299 0.861219
0.110094 0.657481 0.857801
0.11046 0.660349 0.853574
0.139055 0.689281 0.867872
0.238895 0.745647 0.889509
0.683619 0.89601 0.916701
0.897261 0.930495 0.865507
0.957809 0.934615 0.862715
0.984024 0.943832 0.874708
0.110445 0.660121 0.853834
0.117647 0.670527 0.859052
0.150332 0.710857 0.887892
0.221393 0.769863 0.918532
0.5608 0.892287 0.945724
0.855756 0.965042 0.909621
0.940948 0.965606 0.892287
0.974914 0.969711 0.897856
0.991501 0.975418 0.909133
0.026154 0.309209 0.693202
0.026154 0.309209 0.693202
0.0459449 0.315282 0.682399
0.0717937 0.323995 0.666117
0.124178 0.347845 0.649348
0.665843 0.446174 0.596231
0.795438 0.471382 0.583154
0.795438 0.471382 0.583154
0.795438 0.471382 0.583154
0.026154 0.309209 0.693202
0.026154 0.309209 0.693202
0.0419318 0.31458 0.685878
0.0692454 0.323445 0.668086
0.118822 0.344793 0.648768
0.653223 0.443336 0.600412
0.795438 0.471382 0.583154
0.795438 0.471382 0.583154
0.795438 0.471382 0.583154
0.0333715 0.33756 0.710933
0.0331579 0.336706 0.710353
0.0482338 0.351919 0.731426
0.0759442 0.354025 0.709224
0.132311 0.36701 0.672755
0.723491 0.463752 0.585794
0.795438 0.471382 0.583154
0.795438 0.471382 0.583154
0.800305 0.480934 0.595163
0.0461585 0.386419 0.743786
0.0468147 0.389105 0.745663
0.0514382 0.396231 0.752789
0.0944076 0.444739 0.811994
0.172381 0.477821 0.804608
0.73901 0.572 0.77229
0.865995 0.586572 0.718685
0.864347 0.584009 0.715938
0.865629 0.585992 0.718074
0.0619516 0.445701 0.782162
0.0626688 0.448417 0.783886
0.0627298 0.448646 0.784024
0.0935225 0.483589 0.821546
0.165316 0.542718 0.876722
0.575097 0.680705 0.874739
0.914839 0.684367 0.812665
0.913146 0.680125 0.809201
0.914137 0.682582 0.811246
0.0797742 0.518425 0.821485
0.0795758 0.517525 0.821103
0.0788586 0.514427 0.819791
0.0911116 0.523354 0.830152
0.149416 0.585931 0.887694
0.483436 0.711498 0.915816
0.879576 0.79382 0.904173
0.952712 0.801205 0.881575
0.955962 0.811032 0.882719
0.100664 0.614145 0.859205
0.100282 0.612497 0.858564
0.0990616 0.607141 0.856489
0.100999 0.594995 0.855955
0.16582 0.650462 0.901396
0.495903 0.766018 0.914015
0.86891 0.877943 0.900862
0.953765 0.883513 0.881025
0.99292 0.897047 0.883604
0.109102 0.648371 0.871824
0.109102 0.648371 0.871824
0.109102 0.648371 0.871824
0.141085 0.679911 0.893095
0.253803 0.736782 0.908904
0.720394 0.87364 0.918608
0.890639 0.93048 0.902831
0.952056 0.939895 0.894606
0.978882 0.949538 0.901076
0.109102 0.648371 0.871824
0.123171 0.668025 0.882322
0.154742 0.707301 0.906874
0.239063 0.766949 0.929885
0.6318 0.889418 0.947509
0.86656 0.960571 0.932937
0.939452 0.967224 0.911055
0.973693 0.973754 0.914626
0.990005 0.979187 0.920531
